; filename = out.gcode
; print_time = 1
; machine = daVinciJR10
; filamentid = 50,50
; layer_height = 0.10
; fill_density = 0.00
; raft_layers = 0
; support_material = 0
; support_material_extruder = 1
; support_density = 0.0
; shells = 1
; speed = 10
; brim_width = 0
; total_layers = 1
; version = 15062609
; total_filament = 1.00
; nozzle_diameter = 0.40
; extruder_filament = 1.00:0.00
; dimension = 1.00:1.00:1.00
; extruder = 1


M107
M104 S200 ; set temperature
G28 ; home all axes
G1 Z5 F5000 ; lift nozzle

M109 S200 ; wait for temperature to be reached
G21 ; set units to millimeters
G90 ; use absolute coordinates
M82 ; use absolute distances for extrusion
G92 E0
G1 Z0.500 F6000.000
G1 E-2.00000 F2400.00000
G92 E0
G1 X71.560 Y30.002 F6000.000
G1 E2.00000 F2400.00000
G1 X72.559 Y27.886 E2.45589 F1800.000
G1 X74.808 Y25.845 E3.04770
G1 X76.806 Y24.714 E3.49509
G1 X79.009 Y23.924 E3.95098
G1 X80.200 Y23.821 E4.18408
G1 X119.800 Y23.821 E11.89995
G1 X122.105 Y24.218 E12.35583
G1 X123.194 Y24.714 E12.58893 F1800.000
G1 X125.192 Y25.845 E13.03632
G1 X127.003 Y27.326 E13.49221
G1 X128.440 Y30.002 E14.08403
G1 X129.054 Y32.215 E14.53142
G1 X129.261 Y34.830 E15.04257
G1 X114.786 Y163.063 E40.18736
G1 X114.585 Y164.288 E40.42924
G1 X114.476 Y164.779 E40.52727
G1 X114.227 Y165.684 E40.71016
G1 X113.924 Y166.566 E40.89190
G1 X113.764 Y166.970 E40.97659
G1 X113.381 Y167.821 E41.15839
G1 X112.945 Y168.646 E41.34016
G1 X112.689 Y169.080 E41.43834
G1 X112.170 Y169.867 E41.62210
G1 X111.610 Y170.611 E41.80352
G1 X111.335 Y170.943 E41.88753
G1 X111.002 Y171.321 E41.98565
G1 X110.355 Y171.988 E42.16682
G1 X110.033 Y172.290 E42.25279
G1 X109.324 Y172.897 E42.43468
G1 X108.581 Y173.456 E42.61574
G1 X108.166 Y173.739 E42.71372
G1 X107.787 Y173.980 E42.80117
G1 X106.992 Y174.434 E42.97947
G1 X106.137 Y174.854 E43.16521
G1 X105.278 Y175.210 E43.34632
G1 X104.804 Y175.381 E43.44454
G1 X103.922 Y175.652 E43.62425
G1 X102.994 Y175.873 E43.81012
G1 X102.086 Y176.031 E43.98981
G1 X101.647 Y176.086 E44.07591
G1 X100.723 Y176.160 E44.25657
G1 X100.219 Y176.176 E44.35479
G1 X99.781 Y176.176 E44.44029
G1 X98.855 Y176.133 E44.62080
G1 X98.352 Y176.086 E44.71917
G1 X97.418 Y175.952 E44.90318
G1 X96.515 Y175.764 E45.08282
G1 X96.079 Y175.652 E45.17064
G1 X95.595 Y175.511 E45.26879
G1 X94.723 Y175.211 E45.44845
G1 X93.863 Y174.854 E45.62986
G1 X93.457 Y174.663 E45.71729
G1 X93.008 Y174.434 E45.81563
G1 X92.213 Y173.980 E45.99392
G1 X91.419 Y173.456 E46.17932
G1 X90.676 Y172.897 E46.36039
G1 X90.345 Y172.623 E46.44409
G1 X89.646 Y171.989 E46.62813
G1 X89.290 Y171.632 E46.72625
G1 X88.666 Y170.944 E46.90734
G1 X88.390 Y170.611 E46.99154
G1 X88.082 Y170.214 E47.08945
G1 X87.547 Y169.452 E47.27079
G1 X87.311 Y169.080 E47.35675
G1 X86.848 Y168.269 E47.53873
G1 X86.619 Y167.821 E47.63669
G1 X86.236 Y166.970 E47.81846
G1 X86.076 Y166.566 E47.90319
G1 X85.773 Y165.684 E48.08482
G1 X85.524 Y164.779 E48.26776
G1 X85.415 Y164.288 E48.36585
G1 X85.214 Y163.063 E48.60772
G1 X70.739 Y34.830 E73.75252
G1 X70.946 Y32.215 E74.26366
G1 X71.540 Y30.074 E74.69644
G1 E72.69644 F2400.00000
G92 E0
G1 X81.878 Y50.493 F6000.000
G1 E2.00000 F2400.00000
G1 X82.856 Y56.117 E3.11235 F1800.000
G1 X95.357 Y153.965 E22.33286
G1 X95.357 Y156.885 E22.90183
G1 X94.734 Y157.639 E23.09248
G1 X81.784 Y56.242 E43.01007
G1 X81.372 Y50.555 E44.12110
G1 X81.804 Y50.502 E44.20576
G1 E42.20576 F2400.00000
G92 E0
G1 X80.242 Y34.106 F6000.000
G1 E2.00000 F2400.00000
G1 X80.044 Y33.755 E2.07848 F1800.000
G1 X80.151 Y33.367 E2.15698
G1 X80.502 Y33.169 E2.23546
G1 X80.890 Y33.276 E2.31394
G1 X81.088 Y33.627 E2.39243
G1 X80.981 Y34.015 E2.47093
G1 X80.630 Y34.213 E2.54940
G1 X80.314 Y34.126 E2.61328
G1 X80.003 Y34.966 F6000.000
G1 X79.647 Y34.867 E2.68534 F1800.000
G1 X79.085 Y33.873 E2.90792
G1 X79.390 Y32.772 E3.13051
G1 X80.384 Y32.209 E3.35309
G1 X81.485 Y32.515 E3.57568
G1 X82.047 Y33.509 E3.79826 F1800.000
G1 X81.742 Y34.610 E4.02085
G1 X80.748 Y35.172 E4.24342
G1 X80.076 Y34.986 E4.37935
G1 E2.37935 F2400.00000
G92 E0
G1 X80.735 Y35.068 F6000.000
G1 X119.434 Y33.691 F6000.000
G1 X119.019 Y34.015 F6000.000
G1 E2.00000 F2400.00000
G1 X118.912 Y33.627 E2.07850 F1800.000
G1 X119.110 Y33.276 E2.15698
G1 X119.498 Y33.169 E2.23547
G1 X119.849 Y33.367 E2.31395
G1 X119.956 Y33.755 E2.39245
G1 X119.758 Y34.106 E2.47093
G1 X119.370 Y34.213 E2.54943
G1 X119.085 Y34.052 E2.61329
G1 X118.159 Y34.254 F6000.000
G1 X117.953 Y33.509 E2.76383 F1800.000
G1 X118.515 Y32.515 E2.98641
G1 X119.616 Y32.209 E3.20900
G1 X120.610 Y32.772 E3.43158
G1 X120.915 Y33.873 E3.65417 F1800.000
G1 X120.353 Y34.867 E3.87675
G1 X119.252 Y35.172 E4.09935
G1 X118.258 Y34.610 E4.32192
G1 X118.179 Y34.326 E4.37935
G1 E2.37935 F2400.00000
G92 E0
G1 X117.923 Y34.872 F6000.000
G1 X117.679 Y56.193 F6000.000
G1 X118.122 Y50.493 F6000.000
G1 E2.00000 F2400.00000
G1 X118.628 Y50.555 E2.09928 F1800.000
G1 X118.216 Y56.242 E3.21030
G1 X105.266 Y157.639 E23.12789
G1 X104.643 Y156.885 E23.31854
G1 X104.643 Y153.965 E23.88751
G1 X117.144 Y56.117 E43.10802
G1 X118.109 Y50.567 E44.20576
G1 X120.150 Y35.850 F6000.000
G1 X120.538 Y36.524 E44.35731 F1800.000
G1 X119.105 Y56.331 E48.22671
G1 X106.235 Y157.102 E68.02136
G1 X106.572 Y157.673 E68.15065
G1 X106.786 Y158.094 E68.24254
G1 X106.973 Y158.526 E68.33431
G1 X107.133 Y158.969 E68.42614
G1 X107.264 Y159.421 E68.51782
G1 X107.367 Y159.881 E68.60972
G1 X107.441 Y160.346 E68.70145
G1 X107.485 Y160.816 E68.79337
G1 X107.500 Y161.287 E68.88512
G1 X107.485 Y161.757 E68.97686
G1 X107.441 Y162.227 E69.06879
G1 X107.367 Y162.692 E69.16052
G1 X107.264 Y163.152 E69.25241
G1 X107.133 Y163.604 E69.34410
G1 X106.973 Y164.048 E69.43593
G1 X106.786 Y164.480 E69.52769
G1 X106.572 Y164.900 E69.61956
G1 X106.332 Y165.306 E69.71139
G1 X106.068 Y165.695 E69.80306
G1 X105.779 Y166.067 E69.89488
G1 X105.467 Y166.420 E69.98673
G1 X105.134 Y166.754 E70.07860
G1 X104.781 Y167.065 E70.17031
G1 X104.408 Y167.354 E70.26218
G1 X104.019 Y167.619 E70.35397
G1 X103.613 Y167.858 E70.44572
G1 X103.193 Y168.073 E70.53761
G1 X102.761 Y168.259 E70.62927
G1 X102.317 Y168.419 E70.72118
G1 X101.865 Y168.551 E70.81299
G1 X101.405 Y168.653 E70.90473
G1 X100.940 Y168.727 E70.99658
G1 X100.471 Y168.771 E71.08836
G1 X100.000 Y168.786 E71.18017
G1 X99.529 Y168.771 E71.27198
G1 X99.060 Y168.727 E71.36376
G1 X98.595 Y168.653 E71.45561
G1 X98.135 Y168.551 E71.54735
G1 X97.683 Y168.419 E71.63916
G1 X97.239 Y168.259 E71.73107
G1 X96.807 Y168.073 E71.82273
G1 X96.387 Y167.858 E71.91462
G1 X95.981 Y167.619 E72.00637
G1 X95.592 Y167.354 E72.09816
G1 X95.219 Y167.065 E72.19003
G1 X94.866 Y166.754 E72.28174
G1 X94.533 Y166.420 E72.37361
G1 X94.221 Y166.067 E72.46546
G1 X93.932 Y165.695 E72.55728
G1 X93.668 Y165.306 E72.64895
G1 X93.428 Y164.900 E72.74078
G1 X93.214 Y164.480 E72.83265
G1 X93.027 Y164.048 E72.92441
G1 X92.867 Y163.604 E73.01624
G1 X92.736 Y163.152 E73.10793
G1 X92.633 Y162.692 E73.19982
G1 X92.559 Y162.227 E73.29155
G1 X92.515 Y161.757 E73.38348
G1 X92.500 Y161.287 E73.47522
G1 X92.515 Y160.816 E73.56696
G1 X92.559 Y160.346 E73.65889
G1 X92.633 Y159.881 E73.75062
G1 X92.736 Y159.421 E73.84252
G1 X92.867 Y158.969 E73.93420
G1 X93.027 Y158.526 E74.02603
G1 X93.214 Y158.094 E74.11780
G1 X93.428 Y157.674 E74.20962
G1 X93.765 Y157.104 E74.33874
G1 X80.895 Y56.331 E94.13369
G1 X79.462 Y36.524 E98.00309
G1 X79.850 Y35.850 E98.15464
G1 X79.052 Y35.628 E98.31592
G1 X78.126 Y33.991 E98.68259
G1 X78.628 Y32.177 E99.04928
G1 X80.266 Y31.250 E99.41596
G1 X82.080 Y31.753 E99.78265
G1 X83.006 Y33.391 E100.14933
G1 X82.504 Y35.205 E100.51602
G1 X80.527 Y36.323 E100.95862
G1 X80.441 Y37.015 E101.09442
G1 X83.739 Y55.984 E104.84598
G1 X96.250 Y153.908 E124.08148
G1 X96.250 Y157.275 E124.73744
G1 X95.989 Y157.522 E124.80742
G1 X95.550 Y158.053 E124.94184
G1 X95.179 Y158.636 E125.07641
G1 X94.885 Y159.261 E125.21101
G1 X94.672 Y159.919 E125.34577
G1 X94.542 Y160.597 E125.48020
G1 X94.499 Y161.287 E125.61488
G1 X94.542 Y161.969 E125.74802
G1 X94.598 Y162.325 E125.81837
G1 X94.766 Y162.979 E125.94985
G1 X94.889 Y163.319 E126.02033
G1 X95.179 Y163.937 E126.15340
G1 X95.545 Y164.514 E126.28646
G1 X95.762 Y164.792 E126.35524
G1 X95.996 Y165.058 E126.42413
G1 X96.494 Y165.526 E126.55726
G1 X97.046 Y165.927 E126.69032
G1 X97.357 Y166.111 E126.76074
G1 X97.968 Y166.398 E126.89233
G1 X98.639 Y166.616 E127.02981
G1 X99.311 Y166.745 E127.16298
G1 X99.992 Y166.787 E127.29609
G1 X100.697 Y166.743 E127.43363
G1 X101.368 Y166.615 E127.56679
G1 X102.025 Y166.402 E127.70135
G1 X102.643 Y166.111 E127.83441
G1 X102.954 Y165.927 E127.90483
G1 X103.500 Y165.530 E128.03637
G1 X104.015 Y165.047 E128.17402
G1 X104.450 Y164.520 E128.30712
G1 X104.821 Y163.937 E128.44168
G1 X105.111 Y163.319 E128.57476
G1 X105.234 Y162.979 E128.64524
G1 X105.402 Y162.325 E128.77671
G1 X105.458 Y161.969 E128.84706
G1 X105.501 Y161.287 E128.98020
G1 X105.458 Y160.597 E129.11488
G1 X105.328 Y159.919 E129.24932
G1 X105.115 Y159.261 E129.38407
G1 X104.821 Y158.636 E129.51867
G1 X104.450 Y158.053 E129.65324
G1 X104.011 Y157.522 E129.78766
G1 X103.750 Y157.275 E129.85764
G1 X103.750 Y153.908 E130.51360
G1 X116.261 Y55.984 E149.74910
G1 X119.559 Y37.015 E153.50066
G1 X119.473 Y36.323 E153.63647
G1 X117.496 Y35.205 E154.07907
G1 X116.994 Y33.391 E154.44575
G1 X117.920 Y31.753 E154.81243
G1 X119.734 Y31.250 E155.17912
G1 X121.372 Y32.177 E155.54580
G1 X121.874 Y33.991 E155.91249
G1 X120.948 Y35.628 E156.27917
G1 X120.222 Y35.830 E156.42583
G1 X119.697 Y36.062 F6000.000
G1 X120.015 Y37.162 F6000.000
G1 X119.389 Y42.260 E157.42671 F1800.000
G1 X118.429 Y50.081 E160.68179 F1800.000
G1 X117.837 Y54.905 F6000.000
G1 X105.185 Y153.999 E180.14703 F1800.000
G1 X105.117 Y155.061 E180.35438
G1 X105.907 Y157.817 F6000.000
G1 X106.096 Y159.043 E180.86661 F1800.000
G1 X106.296 Y159.670 E181.13858
G1 X106.444 Y160.437 E181.46143
G1 X106.499 Y161.321 E181.82744
G1 X106.449 Y162.102 E182.15049
G1 X106.385 Y162.505 E182.31906
G1 X106.291 Y162.902 E182.48784
G1 X106.182 Y163.295 E182.65620
G1 X106.044 Y163.679 E182.82499
G1 X105.679 Y164.449 E183.17669
G1 X105.238 Y165.135 E183.51370
G1 X104.771 Y165.699 E183.81621
G1 X104.462 Y166.013 E183.99814
G1 X104.144 Y166.295 E184.17378
G1 X103.817 Y166.541 E184.34285
G1 X103.483 Y166.775 E184.51119
G1 X103.132 Y166.983 E184.67989
G1 X102.394 Y167.330 E185.01671
G1 X101.616 Y167.583 E185.35458
G1 X100.815 Y167.736 E185.69176
G1 X100.000 Y167.787 E186.02893
G1 X99.185 Y167.736 E186.36612
G1 X98.384 Y167.583 E186.70330
G1 X97.606 Y167.330 E187.04114
G1 X96.868 Y166.983 E187.37794
G1 X96.476 Y166.748 E187.56696
G1 X95.884 Y166.317 E187.86936
G1 X95.296 Y165.771 E188.20066
G1 X94.992 Y165.429 E188.38981
G1 X94.741 Y165.107 E188.55870
G1 X94.321 Y164.449 E188.88108
G1 X93.956 Y163.679 E189.23278
G1 X93.818 Y163.295 E189.40158
G1 X93.709 Y162.902 E189.56993
G1 X93.615 Y162.505 E189.73872
G1 X93.551 Y162.102 E189.90728
G1 X93.501 Y161.321 E190.23033
G1 X93.556 Y160.437 E190.59634
G1 X93.704 Y159.670 E190.91920
G1 X93.904 Y159.043 E191.19117
G1 X94.093 Y157.817 E191.70340
G1 X94.883 Y155.061 F6000.000
G1 X94.815 Y153.999 E191.91075 F1800.000
G1 X82.163 Y54.905 E211.37599
G1 X81.571 Y50.081 F6000.000
G1 X80.611 Y42.260 E214.63107 F1800.000
G1 X80.611 Y42.260 F6000.000
G1 X79.985 Y37.162 E215.63195 F1800.000
G1 Z0.900 F6000.000
G1 E213.63195 F2400.00000
G92 E0
G1 X111.112 Y113.989 F6000.000
G1 E2.00000 F2400.00000
G1 X105.573 Y157.345 E5.74648 F2100.000
G1 X105.964 Y158.008 E5.81240
G1 X106.158 Y158.389 E5.84910
G1 X106.328 Y158.781 E5.88573
G1 X106.473 Y159.184 E5.92240
G1 X106.592 Y159.594 E5.95899
G1 X106.685 Y160.011 E5.99567
G1 X106.752 Y160.433 E6.03229
G1 X106.793 Y160.860 E6.06900
G1 X106.806 Y161.287 E6.10562
G1 X106.793 Y161.714 E6.14225
G1 X106.752 Y162.140 E6.17895
G1 X106.685 Y162.562 E6.21557
G1 X106.592 Y162.980 E6.25225
G1 X106.473 Y163.390 E6.28884
G1 X106.328 Y163.792 E6.32551
G1 X106.158 Y164.184 E6.36214
G1 X105.964 Y164.566 E6.39884
G1 X105.747 Y164.934 E6.43547
G1 X105.507 Y165.286 E6.47204
G1 X105.244 Y165.625 E6.50872
G1 X104.961 Y165.946 E6.54542
G1 X104.659 Y166.248 E6.58208
G1 X104.339 Y166.531 E6.61866
G1 X104.000 Y166.793 E6.65538
G1 X103.647 Y167.033 E6.69198
G1 X103.279 Y167.250 E6.72863
G1 X102.898 Y167.445 E6.76533
G1 X102.506 Y167.614 E6.80186
G1 X102.103 Y167.759 E6.83863
G1 X101.692 Y167.879 E6.87526
G1 X101.276 Y167.972 E6.91185
G1 X100.853 Y168.039 E6.94854
G1 X100.427 Y168.079 E6.98517
G1 X100.000 Y168.093 E7.02183
G1 X99.573 Y168.079 E7.05848
G1 X99.147 Y168.039 E7.09511
G1 X98.724 Y167.972 E7.13180
G1 X98.308 Y167.879 E7.16840
G1 X97.897 Y167.759 E7.20503
G1 X97.494 Y167.614 E7.24180
G1 X97.102 Y167.445 E7.27833
G1 X96.721 Y167.250 E7.31503
G1 X96.353 Y167.033 E7.35167
G1 X96.000 Y166.793 E7.38827
G1 X95.661 Y166.531 E7.42499
G1 X95.341 Y166.248 E7.46157
G1 X95.039 Y165.946 E7.49823
G1 X94.756 Y165.625 E7.53493
G1 X94.493 Y165.286 E7.57161
G1 X94.253 Y164.934 E7.60818
G1 X94.036 Y164.566 E7.64482
G1 X93.842 Y164.184 E7.68151
G1 X93.672 Y163.792 E7.71815
G1 X93.527 Y163.390 E7.75481
G1 X93.408 Y162.980 E7.79141
G1 X93.315 Y162.562 E7.82809
G1 X93.248 Y162.140 E7.86471
G1 X93.207 Y161.714 E7.90141
G1 X93.194 Y161.287 E7.93803
G1 X93.207 Y160.860 E7.97466
G1 X93.248 Y160.433 E8.01136
G1 X93.315 Y160.011 E8.04798
G1 X93.408 Y159.594 E8.08466
G1 X93.527 Y159.184 E8.12125
G1 X93.672 Y158.781 E8.15792
G1 X93.842 Y158.389 E8.19455
G1 X94.036 Y158.008 E8.23126
G1 X94.427 Y157.345 E8.29718
G1 X88.888 Y113.989 E12.04366
G1 X88.609 Y114.023 E12.06770
G1 X83.195 Y69.926 E15.87587
G1 X83.257 Y69.918 E15.88121
G1 X81.518 Y56.270 E17.06045
G1 X80.555 Y42.960 E18.20428
G1 X80.834 Y42.926 E18.22830
G1 X83.120 Y56.079 E19.37261
G1 X95.557 Y153.419 E27.78381
G1 X95.557 Y156.976 E28.08876
G1 X95.215 Y157.353 E28.13237
G1 X94.769 Y157.967 E28.19740
G1 X94.394 Y158.649 E28.26407
G1 X94.108 Y159.372 E28.33079
G1 X93.914 Y160.126 E28.39746
G1 X93.816 Y160.898 E28.46416
G1 X93.816 Y161.676 E28.53085
G1 X93.914 Y162.448 E28.59755
G1 X94.103 Y163.183 E28.66259
G1 X94.247 Y163.585 E28.69920
G1 X94.571 Y164.272 E28.76431
G1 X94.978 Y164.913 E28.82939
G1 X95.227 Y165.235 E28.86429
G1 X95.497 Y165.541 E28.89925
G1 X96.051 Y166.061 E28.96438
G1 X96.665 Y166.507 E29.02945
G1 X97.032 Y166.725 E29.06605
G1 X97.703 Y167.040 E29.12958
G1 X98.477 Y167.291 E29.19930
G1 X99.224 Y167.434 E29.26448
G1 X99.982 Y167.481 E29.32960
G1 X100.794 Y167.431 E29.39937
G1 X101.541 Y167.288 E29.46454
G1 X102.280 Y167.048 E29.53118
G1 X102.968 Y166.725 E29.59627
G1 X103.335 Y166.507 E29.63286
G1 X103.934 Y166.072 E29.69635
G1 X104.240 Y165.802 E29.73132
G1 X104.528 Y165.514 E29.76625
G1 X105.012 Y164.929 E29.83135
G1 X105.429 Y164.272 E29.89801
G1 X105.753 Y163.585 E29.96311
G1 X105.897 Y163.183 E29.99972
G1 X106.081 Y162.466 E30.06314
G1 X106.148 Y162.045 E30.09970
G1 X106.196 Y161.287 E30.16481
G1 X106.147 Y160.510 E30.23154
G1 X106.001 Y159.746 E30.29815
G1 X105.761 Y159.006 E30.36490
G1 X105.429 Y158.302 E30.43161
G1 X105.012 Y157.645 E30.49828
G1 X104.443 Y156.976 E30.57353
G1 X104.443 Y153.419 E30.87848
G1 X116.880 Y56.079 E39.28968
G1 X119.166 Y42.926 E40.43399
G1 X119.444 Y42.960 E40.45800
G1 X118.482 Y56.270 E41.60184
G1 X116.743 Y69.918 E42.78108
G1 X116.805 Y69.926 E42.78641
G1 X111.391 Y114.023 E46.59458
G1 X111.187 Y113.998 E46.61220
G1 X111.537 Y114.536 F6000.000
G1 X106.081 Y157.241 E50.30238 F2100.000
G1 X106.394 Y157.771 E50.35519
G1 X106.603 Y158.180 E50.39452
G1 X106.785 Y158.600 E50.43380
G1 X106.940 Y159.032 E50.47311
G1 X107.068 Y159.472 E50.51235
G1 X107.168 Y159.919 E50.55168
G1 X107.240 Y160.372 E50.59094
G1 X107.283 Y160.829 E50.63029
G1 X107.297 Y161.287 E50.66956
G1 X107.283 Y161.745 E50.70882
G1 X107.240 Y162.202 E50.74817
G1 X107.168 Y162.654 E50.78743
G1 X107.068 Y163.102 E50.82676
G1 X106.940 Y163.541 E50.86600
G1 X106.785 Y163.973 E50.90531
G1 X106.603 Y164.393 E50.94459
G1 X106.394 Y164.802 E50.98391
G1 X106.161 Y165.197 E51.02321
G1 X105.904 Y165.575 E51.06244
G1 X105.623 Y165.938 E51.10175
G1 X105.319 Y166.282 E51.14107
G1 X104.995 Y166.606 E51.18039
G1 X104.652 Y166.909 E51.21963
G1 X104.289 Y167.190 E51.25897
G1 X103.910 Y167.448 E51.29824
G1 X103.515 Y167.681 E51.33752
G1 X103.107 Y167.890 E51.37685
G1 X102.687 Y168.071 E51.41607
G1 X102.255 Y168.226 E51.45543
G1 X101.815 Y168.355 E51.49472
G1 X101.368 Y168.454 E51.53398
G1 X100.915 Y168.526 E51.57329
G1 X100.458 Y168.569 E51.61258
G1 X100.000 Y168.584 E51.65187
G1 X99.542 Y168.569 E51.69117
G1 X99.085 Y168.526 E51.73045
G1 X98.632 Y168.454 E51.76977
G1 X98.185 Y168.355 E51.80903
G1 X97.745 Y168.226 E51.84832
G1 X97.313 Y168.071 E51.88768
G1 X96.893 Y167.890 E51.92690
G1 X96.485 Y167.681 E51.96623
G1 X96.090 Y167.448 E52.00551
G1 X95.711 Y167.190 E52.04478
G1 X95.348 Y166.909 E52.08412
G1 X95.005 Y166.606 E52.12336
G1 X94.681 Y166.282 E52.16268
G1 X94.377 Y165.938 E52.20200
G1 X94.096 Y165.575 E52.24131
G1 X93.839 Y165.197 E52.28054
G1 X93.606 Y164.802 E52.31983
G1 X93.397 Y164.393 E52.35916
G1 X93.215 Y163.973 E52.39844
G1 X93.060 Y163.541 E52.43775
G1 X92.932 Y163.102 E52.47698
G1 X92.832 Y162.654 E52.51632
G1 X92.760 Y162.202 E52.55558
G1 X92.717 Y161.745 E52.59492
G1 X92.703 Y161.287 E52.63419
G1 X92.717 Y160.829 E52.67346
G1 X92.760 Y160.372 E52.71281
G1 X92.832 Y159.919 E52.75207
G1 X92.932 Y159.472 E52.79140
G1 X93.060 Y159.032 E52.83064
G1 X93.215 Y158.600 E52.86995
G1 X93.397 Y158.180 E52.90923
G1 X93.606 Y157.771 E52.94856
G1 X93.919 Y157.241 E53.00137
G1 X88.463 Y114.536 E56.69155
G1 X88.182 Y114.570 E56.71580
G1 X82.648 Y69.499 E60.60807
G1 X82.707 Y69.491 E60.61321
G1 X81.030 Y56.319 E61.75139
G1 X79.602 Y36.580 E63.44776
G1 X80.261 Y35.433 E63.56113
G1 X80.489 Y35.509 E63.58179
G1 X80.304 Y37.012 E63.71158
G1 X83.606 Y56.006 E65.36408
G1 X96.047 Y153.387 E73.77890
G1 X96.047 Y157.188 E74.10462
G1 X95.849 Y157.376 E74.12807
G1 X95.598 Y157.660 E74.16057
G1 X95.184 Y158.230 E74.22099
G1 X94.839 Y158.858 E74.28237
G1 X94.575 Y159.524 E74.34379
G1 X94.397 Y160.218 E74.40517
G1 X94.307 Y160.929 E74.46657
G1 X94.307 Y161.645 E74.52797
G1 X94.397 Y162.356 E74.58938
G1 X94.572 Y163.038 E74.64980
G1 X94.701 Y163.397 E74.68244
G1 X95.002 Y164.035 E74.74289
G1 X95.380 Y164.630 E74.80334
G1 X95.850 Y165.199 E74.86659
G1 X96.364 Y165.682 E74.92707
G1 X96.935 Y166.096 E74.98751
G1 X97.262 Y166.290 E75.02013
G1 X97.891 Y166.586 E75.07966
G1 X98.592 Y166.813 E75.14284
G1 X99.285 Y166.946 E75.20335
G1 X99.989 Y166.990 E75.26383
G1 X100.725 Y166.944 E75.32703
G1 X101.419 Y166.811 E75.38754
G1 X102.100 Y166.590 E75.44890
G1 X102.738 Y166.290 E75.50935
G1 X103.065 Y166.096 E75.54197
G1 X103.627 Y165.688 E75.60148
G1 X103.904 Y165.444 E75.63315
G1 X104.165 Y165.183 E75.66478
G1 X104.615 Y164.639 E75.72524
G1 X104.998 Y164.035 E75.78662
G1 X105.299 Y163.397 E75.84708
G1 X105.428 Y163.038 E75.87972
G1 X105.600 Y162.366 E75.93918
G1 X105.660 Y161.991 E75.97177
G1 X105.704 Y161.287 E76.03225
G1 X105.659 Y160.571 E76.09368
G1 X105.525 Y159.869 E76.15500
G1 X105.303 Y159.187 E76.21646
G1 X104.998 Y158.539 E76.27786
G1 X104.615 Y157.934 E76.33924
G1 X104.159 Y157.383 E76.40052
G1 X103.953 Y157.188 E76.42489
G1 X103.953 Y153.387 E76.75062
G1 X116.394 Y56.006 E85.16544
G1 X119.696 Y37.012 E86.81793
G1 X119.511 Y35.509 E86.94773
G1 X119.739 Y35.433 E86.96839
G1 X120.398 Y36.580 E87.08176
G1 X118.970 Y56.319 E88.77813
G1 X117.293 Y69.491 E89.91631
G1 X117.352 Y69.499 E89.92145
G1 X111.818 Y114.570 E93.81372
G1 X111.612 Y114.545 E93.83154
G1 X111.929 Y115.040 F6000.000
G1 X106.550 Y157.144 E96.90123 F1050.000
G1 X106.791 Y157.553 E96.93559
G1 X107.012 Y157.987 E96.97081
G1 X107.206 Y158.434 E97.00601
G1 X107.371 Y158.892 E97.04123
G1 X107.506 Y159.359 E97.07639
G1 X107.613 Y159.835 E97.11164
G1 X107.689 Y160.315 E97.14682
G1 X107.735 Y160.800 E97.18208
G1 X107.750 Y161.287 E97.21726
G1 X107.735 Y161.773 E97.25245
G1 X107.689 Y162.258 E97.28771
G1 X107.613 Y162.739 E97.32289
G1 X107.506 Y163.214 E97.35813
G1 X107.371 Y163.681 E97.39330
G1 X107.206 Y164.140 E97.42852
G1 X107.012 Y164.586 E97.46371
G1 X106.791 Y165.020 E97.49894
G1 X106.543 Y165.440 E97.53417
G1 X106.270 Y165.842 E97.56933
G1 X105.971 Y166.226 E97.60454
G1 X105.649 Y166.592 E97.63976
G1 X105.305 Y166.936 E97.67499
G1 X104.940 Y167.258 E97.71018
G1 X104.555 Y167.556 E97.74540
G1 X104.153 Y167.830 E97.78062
G1 X103.734 Y168.078 E97.81580
G1 X103.300 Y168.299 E97.85104
G1 X102.853 Y168.492 E97.88621
G1 X102.395 Y168.657 E97.92144
G1 X101.927 Y168.793 E97.95666
G1 X101.452 Y168.899 E97.99185
G1 X100.971 Y168.976 E98.02707
G1 X100.487 Y169.021 E98.06228
G1 X100.000 Y169.037 E98.09749
G1 X99.513 Y169.021 E98.13270
G1 X99.029 Y168.976 E98.16790
G1 X98.548 Y168.899 E98.20312
G1 X98.073 Y168.793 E98.23831
G1 X97.605 Y168.657 E98.27353
G1 X97.147 Y168.492 E98.30876
G1 X96.700 Y168.299 E98.34393
G1 X96.266 Y168.078 E98.37917
G1 X95.847 Y167.830 E98.41435
G1 X95.445 Y167.556 E98.44957
G1 X95.060 Y167.258 E98.48479
G1 X94.695 Y166.936 E98.51998
G1 X94.351 Y166.592 E98.55521
G1 X94.029 Y166.226 E98.59043
G1 X93.730 Y165.842 E98.62564
G1 X93.457 Y165.440 E98.66080
G1 X93.209 Y165.020 E98.69603
G1 X92.988 Y164.586 E98.73126
G1 X92.794 Y164.140 E98.76645
G1 X92.629 Y163.681 E98.80167
G1 X92.494 Y163.214 E98.83684
G1 X92.387 Y162.739 E98.87208
G1 X92.311 Y162.258 E98.90727
G1 X92.265 Y161.773 E98.94252
G1 X92.250 Y161.287 E98.97771
G1 X92.265 Y160.800 E99.01289
G1 X92.311 Y160.315 E99.04815
G1 X92.387 Y159.835 E99.08333
G1 X92.494 Y159.359 E99.11858
G1 X92.629 Y158.892 E99.15374
G1 X92.794 Y158.434 E99.18896
G1 X92.988 Y157.987 E99.22416
G1 X93.209 Y157.553 E99.25939
G1 X93.450 Y157.144 E99.29374
G1 X88.071 Y115.040 E102.36343
G1 X87.788 Y115.074 E102.38406
G1 X82.144 Y69.105 E105.73344
G1 X82.201 Y69.098 E105.73763
G1 X80.579 Y56.364 E106.66599
G1 X79.140 Y36.474 E108.10815
G1 X80.285 Y34.481 E108.27438
G1 X80.906 Y34.405 E108.31958
G1 X80.993 Y35.119 E108.37159
G1 X80.761 Y37.001 E108.50872
G1 X84.053 Y55.939 E109.89883
G1 X96.500 Y153.359 E117.00139
G1 X96.500 Y157.382 E117.29237
G1 X96.175 Y157.690 E117.32475
G1 X95.952 Y157.943 E117.34915
G1 X95.567 Y158.473 E117.39654
G1 X95.249 Y159.051 E117.44421
G1 X95.006 Y159.664 E117.49191
G1 X94.843 Y160.303 E117.53958
G1 X94.760 Y160.957 E117.58727
G1 X94.760 Y161.616 E117.63496
G1 X94.843 Y162.271 E117.68265
G1 X95.006 Y162.905 E117.73003
G1 X95.120 Y163.223 E117.75448
G1 X95.399 Y163.816 E117.80188
G1 X95.750 Y164.370 E117.84927
G1 X96.175 Y164.884 E117.89752
G1 X96.653 Y165.333 E117.94493
G1 X97.183 Y165.718 E117.99233
G1 X97.474 Y165.890 E118.01675
G1 X98.064 Y166.167 E118.06387
G1 X98.698 Y166.373 E118.11209
G1 X99.342 Y166.496 E118.15951
G1 X99.996 Y166.537 E118.20692
G1 X100.662 Y166.496 E118.25514
G1 X101.306 Y166.372 E118.30256
G1 X101.933 Y166.169 E118.35024
G1 X102.526 Y165.890 E118.39763
G1 X102.817 Y165.718 E118.42206
G1 X103.344 Y165.335 E118.46917
G1 X103.830 Y164.878 E118.51742
G1 X104.248 Y164.373 E118.56483
G1 X104.601 Y163.816 E118.61251
G1 X104.880 Y163.223 E118.65990
G1 X104.994 Y162.905 E118.68436
G1 X105.157 Y162.274 E118.73145
G1 X105.209 Y161.941 E118.75586
G1 X105.250 Y161.287 E118.80328
G1 X105.209 Y160.628 E118.85099
G1 X105.086 Y159.981 E118.89861
G1 X104.882 Y159.354 E118.94636
G1 X104.601 Y158.757 E118.99403
G1 X104.248 Y158.200 E119.04171
G1 X103.828 Y157.693 E119.08936
G1 X103.500 Y157.382 E119.12201
G1 X103.500 Y153.359 E119.41299
G1 X115.947 Y55.939 E126.51555
G1 X119.239 Y37.001 E127.90567
G1 X119.007 Y35.119 E128.04279
G1 X119.094 Y34.405 E128.09481
G1 X119.715 Y34.481 E128.14001
G1 X120.860 Y36.474 E128.30624
G1 X119.421 Y56.364 E129.74840
G1 X117.799 Y69.098 E130.67676
G1 X117.856 Y69.105 E130.68095
G1 X112.212 Y115.074 E134.03033
G1 X112.004 Y115.049 E134.04553
G1 X111.433 Y114.977 F6000.000
G1 X105.079 Y157.041 F6000.000
G1 X105.335 Y156.785 E134.07665 F1200.000
G1 X104.736 Y156.686 E134.12891
G1 X105.437 Y155.985 E134.21426
G1 X104.736 Y155.988 E134.27462
G1 X105.539 Y155.185 E134.37243
G1 X105.641 Y154.385 E134.44191
G1 X104.736 Y155.290 E134.55218
G1 X104.736 Y154.592 E134.61230
G1 X105.744 Y153.585 E134.73501
G1 X105.846 Y152.785 E134.80450
G1 X104.736 Y153.895 E134.93967
G1 X104.788 Y153.145 E135.00438
G1 X105.948 Y151.985 E135.14574
G1 X106.050 Y151.185 E135.21522
G1 X104.890 Y152.345 E135.35658
G1 X104.992 Y151.545 E135.42607
G1 X106.152 Y150.385 E135.56742
G1 X106.255 Y149.585 E135.63691
G1 X105.095 Y150.745 E135.77827
G1 X105.197 Y149.945 E135.84776
G1 X106.357 Y148.785 E135.98911
G1 X106.459 Y147.985 E136.05860
G1 X105.299 Y149.145 E136.19996
G1 X105.401 Y148.345 E136.26945
G1 X106.561 Y147.185 E136.41080
G1 X106.664 Y146.385 E136.48029
G1 X105.503 Y147.545 E136.62165
G1 X105.606 Y146.745 E136.69114
G1 X106.766 Y145.585 E136.83250
G1 X106.868 Y144.785 E136.90198
G1 X105.708 Y145.945 E137.04334
G1 X105.810 Y145.145 E137.11283
G1 X106.970 Y143.985 E137.25419
G1 X107.072 Y143.185 E137.32367
G1 X105.912 Y144.345 E137.46503
G1 X106.014 Y143.545 E137.53452
G1 X107.175 Y142.385 E137.67588
G1 X107.277 Y141.585 E137.74537
G1 X106.117 Y142.745 E137.88673
G1 X106.219 Y141.945 E137.95621
G1 X107.379 Y140.785 E138.09757
G1 X107.481 Y139.985 E138.16706
G1 X106.321 Y141.145 E138.30842
G1 X106.423 Y140.345 E138.37791
G1 X107.583 Y139.185 E138.51927
G1 X107.686 Y138.385 E138.58876
G1 X106.526 Y139.545 E138.73012
G1 X106.628 Y138.745 E138.79960
G1 X107.788 Y137.585 E138.94096
G1 X107.890 Y136.785 E139.01045
G1 X106.730 Y137.945 E139.15181
G1 X106.832 Y137.145 E139.22130
G1 X107.992 Y135.985 E139.36266
G1 X108.095 Y135.185 E139.43215
G1 X106.934 Y136.345 E139.57351
G1 X107.037 Y135.545 E139.64300
G1 X108.197 Y134.385 E139.78436
G1 X108.299 Y133.585 E139.85384
G1 X107.139 Y134.745 E139.99521
G1 X107.241 Y133.945 E140.06469
G1 X108.401 Y132.785 E140.20605
G1 X108.503 Y131.985 E140.27554
G1 X107.343 Y133.145 E140.41690
G1 X107.445 Y132.345 E140.48639
G1 X108.606 Y131.185 E140.62775
G1 X108.708 Y130.385 E140.69724
G1 X107.548 Y131.545 E140.83860
G1 X107.650 Y130.745 E140.90809
G1 X108.810 Y129.585 E141.04945
G1 X108.912 Y128.785 E141.11894
G1 X107.752 Y129.945 E141.26030
G1 X107.854 Y129.145 E141.32979
G1 X109.014 Y127.985 E141.47115
G1 X109.117 Y127.185 E141.54064
G1 X107.956 Y128.345 E141.68200
G1 X108.059 Y127.545 E141.75149
G1 X109.219 Y126.385 E141.89286
G1 X109.321 Y125.585 E141.96234
G1 X108.161 Y126.745 E142.10371
G1 X108.263 Y125.945 E142.17319
G1 X109.423 Y124.785 E142.31456
G1 X109.525 Y123.985 E142.38405
G1 X108.365 Y125.145 E142.52541
G1 X108.468 Y124.345 E142.59490
G1 X109.628 Y123.185 E142.73626
G1 X109.730 Y122.385 E142.80575
G1 X108.570 Y123.545 E142.94711
G1 X108.672 Y122.745 E143.01660
G1 X109.832 Y121.585 E143.15796
G1 X109.934 Y120.785 E143.22745
G1 X108.774 Y121.945 E143.36882
G1 X108.876 Y121.145 E143.43830
G1 X110.037 Y119.985 E143.57967
G1 X110.139 Y119.185 E143.64916
G1 X108.979 Y120.345 E143.79052
G1 X109.081 Y119.545 E143.86001
G1 X110.241 Y118.385 E144.00138
G1 X110.343 Y117.585 E144.07086
G1 X109.183 Y118.745 E144.21223
G1 X109.285 Y117.945 E144.28172
G1 X110.445 Y116.785 E144.42308
G1 X110.548 Y115.985 E144.49257
G1 X109.387 Y117.145 E144.63394
G1 X109.490 Y116.345 E144.70342
G1 X110.650 Y115.185 E144.84479
G1 X110.752 Y114.385 E144.91428
G1 X109.592 Y115.545 E145.05564
G1 X109.694 Y114.745 E145.12513
G1 X111.175 Y113.264 E145.30558
G1 X111.273 Y112.469 E145.37463
G1 X109.796 Y113.945 E145.55453
G1 X109.898 Y113.145 E145.62401
G1 X111.370 Y111.673 E145.80336
G1 X111.468 Y110.878 E145.87241
G1 X110.001 Y112.345 E146.05120
G1 X110.103 Y111.545 E146.12068
G1 X111.566 Y110.082 E146.29892
G1 X111.663 Y109.287 E146.36797
G1 X110.205 Y110.745 E146.54565
G1 X110.307 Y109.945 E146.61514
G1 X111.761 Y108.491 E146.79227
G1 X111.859 Y107.696 E146.86132
G1 X110.410 Y109.145 E147.03789
G1 X110.512 Y108.345 E147.10738
G1 X111.956 Y106.900 E147.28340
G1 X112.054 Y106.105 E147.35245
G1 X110.614 Y107.545 E147.52792
G1 X110.716 Y106.745 E147.59741
G1 X112.152 Y105.309 E147.77233
G1 X112.249 Y104.514 E147.84138
G1 X110.818 Y105.945 E148.01574
G1 X110.921 Y105.145 E148.08523
G1 X112.347 Y103.718 E148.25904
G1 X112.445 Y102.923 E148.32809
G1 X111.023 Y104.345 E148.50134
G1 X111.125 Y103.545 E148.57083
G1 X112.542 Y102.127 E148.74353
G1 X112.640 Y101.332 E148.81258
G1 X111.227 Y102.745 E148.98473
G1 X111.329 Y101.945 E149.05422
G1 X112.738 Y100.537 E149.22582
G1 X112.835 Y99.741 E149.29487
G1 X111.432 Y101.145 E149.46591
G1 X111.534 Y100.345 E149.53540
G1 X112.933 Y98.946 E149.70589
G1 X113.031 Y98.150 E149.77494
G1 X111.636 Y99.545 E149.94487
G1 X111.738 Y98.745 E150.01436
G1 X113.128 Y97.355 E150.18374
G1 X113.226 Y96.559 E150.25279
G1 X111.841 Y97.945 E150.42162
G1 X111.943 Y97.145 E150.49111
G1 X113.324 Y95.764 E150.65939
G1 X113.421 Y94.968 E150.72844
G1 X112.045 Y96.345 E150.89616
G1 X112.147 Y95.545 E150.96565
G1 X113.519 Y94.173 E151.13282
G1 X113.617 Y93.377 E151.20187
G1 X112.249 Y94.745 E151.36849
G1 X112.352 Y93.945 E151.43797
G1 X113.714 Y92.582 E151.60404
G1 X113.812 Y91.786 E151.67309
G1 X112.454 Y93.145 E151.83860
G1 X112.556 Y92.345 E151.90808
G1 X113.910 Y90.991 E152.07304
G1 X114.007 Y90.195 E152.14209
G1 X112.658 Y91.545 E152.30649
G1 X112.760 Y90.745 E152.37598
G1 X114.105 Y89.400 E152.53983
G1 X114.203 Y88.605 E152.60888
G1 X112.863 Y89.945 E152.77218
G1 X112.965 Y89.145 E152.84167
G1 X114.300 Y87.809 E153.00441
G1 X114.398 Y87.014 E153.07346
G1 X113.067 Y88.345 E153.23565
G1 X113.169 Y87.545 E153.30514
G1 X114.496 Y86.218 E153.46677
G1 X114.593 Y85.423 E153.53582
G1 X113.271 Y86.745 E153.69691
G1 X113.374 Y85.945 E153.76639
G1 X114.691 Y84.627 E153.92692
G1 X114.789 Y83.832 E153.99597
G1 X113.476 Y85.145 E154.15595
G1 X113.578 Y84.345 E154.22544
G1 X114.886 Y83.036 E154.38486
G1 X114.984 Y82.241 E154.45391
G1 X113.680 Y83.545 E154.61278
G1 X113.783 Y82.745 E154.68227
G1 X115.082 Y81.445 E154.84059
G1 X115.180 Y80.650 E154.90964
G1 X113.885 Y81.945 E155.06740
G1 X113.987 Y81.145 E155.13689
G1 X115.277 Y79.854 E155.29410
G1 X115.375 Y79.059 E155.36315
G1 X114.089 Y80.345 E155.51981
G1 X114.191 Y79.545 E155.58929
G1 X115.473 Y78.263 E155.74540
G1 X115.570 Y77.468 E155.81445
G1 X114.294 Y78.745 E155.97000
G1 X114.396 Y77.945 E156.03949
G1 X115.668 Y76.672 E156.19448
G1 X115.766 Y75.877 E156.26353
G1 X114.498 Y77.145 E156.41798
G1 X114.600 Y76.345 E156.48746
G1 X115.863 Y75.082 E156.64135
G1 X115.961 Y74.286 E156.71040
G1 X114.702 Y75.545 E156.86374
G1 X114.805 Y74.745 E156.93323
G1 X116.059 Y73.491 E157.08601
G1 X116.156 Y72.695 E157.15506
G1 X114.907 Y73.945 E157.30729
G1 X115.009 Y73.145 E157.37678
G1 X116.254 Y71.900 E157.52846
G1 X116.352 Y71.104 E157.59751
G1 X115.111 Y72.345 E157.74863
G1 X115.213 Y71.544 E157.81812
G1 X116.449 Y70.309 E157.96869
G1 X116.476 Y69.584 E158.03119
G1 X115.316 Y70.744 E158.17262
G1 X115.418 Y69.944 E158.24211
G1 X116.578 Y68.784 E158.38349
G1 X116.680 Y67.985 E158.45294
G1 X115.520 Y69.144 E158.59428
G1 X115.622 Y68.344 E158.66377
G1 X116.782 Y67.185 E158.80506
G1 X116.884 Y66.385 E158.87451
G1 X115.725 Y67.544 E159.01576
G1 X115.827 Y66.744 E159.08525
G1 X116.986 Y65.586 E159.22645
G1 X117.087 Y64.786 E159.29591
G1 X115.929 Y65.944 E159.43707
G1 X116.031 Y65.144 E159.50656
G1 X117.189 Y63.986 E159.64767
G1 X117.291 Y63.187 E159.71713
G1 X116.133 Y64.344 E159.85820
G1 X116.236 Y63.544 E159.92769
G1 X117.393 Y62.387 E160.06872
G1 X117.495 Y61.587 E160.13817
G1 X116.338 Y62.744 E160.27915
G1 X116.440 Y61.944 E160.34864
G1 X117.597 Y60.788 E160.48958
G1 X117.699 Y59.988 E160.55903
G1 X116.542 Y61.144 E160.69993
G1 X116.644 Y60.344 E160.76942
G1 X117.800 Y59.188 E160.91027
G1 X117.902 Y58.389 E160.97972
G1 X116.747 Y59.544 E161.12053
G1 X116.849 Y58.744 E161.19002
G1 X118.004 Y57.589 E161.33079
G1 X118.106 Y56.789 E161.40024
G1 X116.951 Y57.944 E161.54096
G1 X117.053 Y57.144 E161.61045
G1 X118.200 Y55.998 E161.75013
G1 X118.254 Y55.246 E161.81511
G1 X117.155 Y56.344 E161.94898
G1 X117.297 Y55.505 E162.02228
G1 X118.309 Y54.494 E162.14557
G1 X118.363 Y53.741 E162.21055
G1 X117.444 Y54.661 E162.32258
G1 X117.590 Y53.816 E162.39644
G1 X118.417 Y52.989 E162.49721
G1 X118.137 Y52.456 F6000.000
G1 X118.647 Y48.308 E163.27633 F1200.000
G1 X118.647 Y48.308 F6000.000
G1 X119.008 Y45.367 E163.53024 F1200.000
G1 X119.335 Y42.700 F6000.000
G1 X119.845 Y38.551 E164.30936 F1200.000
G1 X119.845 Y38.551 F6000.000
G1 X120.032 Y37.007 E164.44270 F1200.000
G1 X120.024 Y36.665 E164.47202
G1 X119.851 Y36.147 E164.51880
G1 E162.51880 F2400.00000
G92 E0
G1 X80.088 Y36.330 F6000.000
G1 X80.088 Y36.330 F6000.000
G1 X80.149 Y36.147 F6000.000
G1 E2.00000 F2400.00000
G1 X79.976 Y36.665 E2.04678 F1200.000
G1 X79.968 Y37.007 E2.07610
G1 X80.155 Y38.551 E2.20944
G1 X80.155 Y38.551 F6000.000
G1 X80.665 Y42.700 E2.98855 F1200.000
G1 X80.992 Y45.367 F6000.000
G1 X81.353 Y48.308 E3.24247 F1200.000
G1 X81.353 Y48.308 F6000.000
G1 X81.863 Y52.456 E4.02158 F1200.000
G1 X82.302 Y52.986 F6000.000
G1 X81.617 Y53.671 E4.10507 F1200.000
G1 X81.664 Y54.322 E4.16135
G1 X82.405 Y53.581 E4.25170
G1 X82.508 Y54.176 E4.30376
G1 X81.711 Y54.973 E4.40097
G1 X81.758 Y55.624 E4.45726
G1 X82.612 Y54.771 E4.56134
G1 X82.715 Y55.366 E4.61340
G1 X81.805 Y56.276 E4.72435
G1 X81.881 Y56.898 E4.77839
G1 X82.819 Y55.961 E4.89268
G1 X82.901 Y56.577 E4.94628
G1 X81.960 Y57.517 E5.06096
G1 X82.039 Y58.137 E5.11479
G1 X82.980 Y57.196 E5.22950
G1 X83.059 Y57.815 E5.28332
G1 X82.118 Y58.756 E5.39806
G1 X82.197 Y59.375 E5.45189
G1 X83.138 Y58.434 E5.56665
G1 X83.217 Y59.053 E5.62047
G1 X82.276 Y59.995 E5.73526
G1 X82.355 Y60.614 E5.78909
G1 X83.296 Y59.672 E5.90391
G1 X83.375 Y60.292 E5.95772
G1 X82.434 Y61.234 E6.07257
G1 X82.512 Y61.853 E6.12640
G1 X83.455 Y60.911 E6.24127
G1 X83.534 Y61.530 E6.29508
G1 X82.591 Y62.472 E6.40998
G1 X82.670 Y63.092 E6.46381
G1 X83.613 Y62.149 E6.57873
G1 X83.692 Y62.768 E6.63255
G1 X82.749 Y63.711 E6.74750
G1 X82.828 Y64.330 E6.80133
G1 X83.771 Y63.387 E6.91630
G1 X83.850 Y64.007 E6.97012
G1 X82.907 Y64.950 E7.08512
G1 X82.986 Y65.569 E7.13895
G1 X83.929 Y64.626 E7.25398
G1 X84.008 Y65.245 E7.30780
G1 X83.065 Y66.189 E7.42285
G1 X83.144 Y66.808 E7.47668
G1 X84.087 Y65.864 E7.59176
G1 X84.166 Y66.483 E7.64558
G1 X83.222 Y67.427 E7.76069
G1 X83.301 Y68.047 E7.81452
G1 X84.246 Y67.102 E7.92965
G1 X84.325 Y67.722 E7.98347
G1 X83.380 Y68.666 E8.09863
G1 X83.459 Y69.285 E8.15246
G1 X84.404 Y68.341 E8.26765
G1 X84.483 Y68.960 E8.32146
G1 X83.538 Y69.905 E8.43667
G1 X83.559 Y70.582 E8.49511
G1 X84.562 Y69.579 E8.61743
G1 X84.641 Y70.198 E8.67124
G1 X83.635 Y71.204 E8.79390
G1 X83.711 Y71.826 E8.84792
G1 X84.720 Y70.817 E8.97091
G1 X84.799 Y71.436 E9.02473
G1 X83.788 Y72.448 E9.14805
G1 X83.864 Y73.070 E9.20207
G1 X84.878 Y72.056 E9.32573
G1 X84.958 Y72.675 E9.37955
G1 X83.941 Y73.692 E9.50354
G1 X84.017 Y74.314 E9.55756
G1 X85.037 Y73.294 E9.68189
G1 X85.116 Y73.913 E9.73571
G1 X84.093 Y74.936 E9.86037
G1 X84.170 Y75.557 E9.91439
G1 X85.195 Y74.532 E10.03939
G1 X85.274 Y75.151 E10.09321
G1 X84.246 Y76.179 E10.21854
G1 X84.322 Y76.801 E10.27256
G1 X85.353 Y75.771 E10.39823
G1 X85.432 Y76.390 E10.45205
G1 X84.399 Y77.423 E10.57805
G1 X84.475 Y78.045 E10.63207
G1 X85.511 Y77.009 E10.75841
G1 X85.590 Y77.628 E10.81223
G1 X84.551 Y78.667 E10.93890
G1 X84.628 Y79.289 E10.99292
G1 X85.669 Y78.247 E11.11993
G1 X85.749 Y78.866 E11.17374
G1 X84.704 Y79.911 E11.30109
G1 X84.781 Y80.533 E11.35511
G1 X85.828 Y79.486 E11.48278
G1 X85.907 Y80.105 E11.53660
G1 X84.857 Y81.155 E11.66461
G1 X84.933 Y81.776 E11.71863
G1 X85.986 Y80.724 E11.84698
G1 X86.065 Y81.343 E11.90079
G1 X85.010 Y82.398 E12.02948
G1 X85.086 Y83.020 E12.08350
G1 X86.144 Y81.962 E12.21251
G1 X86.223 Y82.581 E12.26633
G1 X85.162 Y83.642 E12.39568
G1 X85.239 Y84.264 E12.44970
G1 X86.302 Y83.200 E12.57939
G1 X86.381 Y83.820 E12.63320
G1 X85.315 Y84.886 E12.76322
G1 X85.391 Y85.508 E12.81725
G1 X86.461 Y84.439 E12.94760
G1 X86.540 Y85.058 E13.00142
G1 X85.468 Y86.130 E13.13211
G1 X85.544 Y86.752 E13.18613
G1 X86.619 Y85.677 E13.31715
G1 X86.698 Y86.296 E13.37097
G1 X85.620 Y87.374 E13.50233
G1 X85.697 Y87.996 E13.55635
G1 X86.777 Y86.915 E13.68805
G1 X86.856 Y87.535 E13.74186
G1 X85.773 Y88.617 E13.87389
G1 X85.850 Y89.239 E13.92791
G1 X86.935 Y88.154 E14.06028
G1 X87.014 Y88.773 E14.11409
G1 X85.926 Y89.861 E14.24679
G1 X86.002 Y90.483 E14.30081
G1 X87.093 Y89.392 E14.43385
G1 X87.172 Y90.011 E14.48766
G1 X86.079 Y91.105 E14.62103
G1 X86.155 Y91.727 E14.67505
G1 X87.252 Y90.630 E14.80876
G1 X87.331 Y91.250 E14.86257
G1 X86.231 Y92.349 E14.99661
G1 X86.308 Y92.971 E15.05063
G1 X87.410 Y91.869 E15.18501
G1 X87.489 Y92.488 E15.23882
G1 X86.384 Y93.593 E15.37353
G1 X86.460 Y94.215 E15.42755
G1 X87.568 Y93.107 E15.56259
G1 X87.647 Y93.726 E15.61641
G1 X86.537 Y94.836 E15.75179
G1 X86.613 Y95.458 E15.80581
G1 X87.726 Y94.345 E15.94152
G1 X87.805 Y94.964 E15.99534
G1 X86.690 Y96.080 E16.13138
G1 X86.766 Y96.702 E16.18540
G1 X87.884 Y95.584 E16.32179
G1 X87.964 Y96.203 E16.37560
G1 X86.842 Y97.324 E16.51232
G1 X86.919 Y97.946 E16.56634
G1 X88.043 Y96.822 E16.70339
G1 X88.122 Y97.441 E16.75721
G1 X86.995 Y98.568 E16.89459
G1 X87.071 Y99.190 E16.94861
G1 X88.201 Y98.060 E17.08634
G1 X88.280 Y98.679 E17.14015
G1 X87.148 Y99.812 E17.27821
G1 X87.224 Y100.434 E17.33223
G1 X88.359 Y99.299 E17.47062
G1 X88.438 Y99.918 E17.52444
G1 X87.300 Y101.056 E17.66316
G1 X87.377 Y101.677 E17.71718
G1 X88.517 Y100.537 E17.85624
G1 X88.596 Y101.156 E17.91006
G1 X87.453 Y102.299 E18.04945
G1 X87.529 Y102.921 E18.10348
G1 X88.675 Y101.775 E18.24321
G1 X88.755 Y102.394 E18.29702
G1 X87.606 Y103.543 E18.43709
G1 X87.682 Y104.165 E18.49111
G1 X88.834 Y103.014 E18.63151
G1 X88.913 Y103.633 E18.68532
G1 X87.759 Y104.787 E18.82606
G1 X87.835 Y105.409 E18.88008
G1 X88.992 Y104.252 E19.02115
G1 X89.071 Y104.871 E19.07496
G1 X87.911 Y106.031 E19.21637
G1 X87.988 Y106.653 E19.27039
G1 X89.150 Y105.490 E19.41213
G1 X89.229 Y106.109 E19.46594
G1 X88.064 Y107.275 E19.60802
G1 X88.140 Y107.896 E19.66204
G1 X89.308 Y106.728 E19.80445
G1 X89.387 Y107.348 E19.85826
G1 X88.217 Y108.518 E20.00101
G1 X88.293 Y109.140 E20.05503
G1 X89.467 Y107.967 E20.19811
G1 X89.546 Y108.586 E20.25192
G1 X88.369 Y109.762 E20.39533
G1 X88.446 Y110.384 E20.44936
G1 X89.625 Y109.205 E20.59310
G1 X89.704 Y109.824 E20.64692
G1 X88.522 Y111.006 E20.79100
G1 X88.599 Y111.628 E20.84502
G1 X89.783 Y110.443 E20.98944
G1 X89.862 Y111.063 E21.04326
G1 X88.675 Y112.250 E21.18801
G1 X88.751 Y112.872 E21.24203
G1 X89.941 Y111.682 E21.38712
G1 X90.020 Y112.301 E21.44093
G1 X88.828 Y113.494 E21.58635
G1 X89.155 Y113.865 E21.62901
G1 X90.099 Y112.920 E21.74417
G1 X90.178 Y113.539 E21.79798
G1 X89.234 Y114.484 E21.91315
G1 X89.313 Y115.103 E21.96696
G1 X90.258 Y114.158 E22.08212
G1 X90.337 Y114.778 E22.13594
G1 X89.392 Y115.722 E22.25110
G1 X89.471 Y116.341 E22.30492
G1 X90.416 Y115.397 E22.42008
G1 X90.495 Y116.016 E22.47389
G1 X89.550 Y116.960 E22.58906
G1 X89.630 Y117.580 E22.64287
G1 X90.574 Y116.635 E22.75803
G1 X90.653 Y117.254 E22.81185
G1 X89.709 Y118.199 E22.92701
G1 X89.788 Y118.818 E22.98082
G1 X90.732 Y117.873 E23.09599
G1 X90.811 Y118.492 E23.14980
G1 X89.867 Y119.437 E23.26496
G1 X89.946 Y120.056 E23.31878
G1 X90.890 Y119.112 E23.43394
G1 X90.970 Y119.731 E23.48775
G1 X90.025 Y120.675 E23.60292
G1 X90.104 Y121.294 E23.65673
G1 X91.049 Y120.350 E23.77189
G1 X91.128 Y120.969 E23.82571
G1 X90.183 Y121.914 E23.94087
G1 X90.262 Y122.533 E23.99468
G1 X91.207 Y121.588 E24.10984
G1 X91.286 Y122.207 E24.16366
G1 X90.341 Y123.152 E24.27882
G1 X90.421 Y123.771 E24.33264
G1 X91.365 Y122.827 E24.44780
G1 X91.444 Y123.446 E24.50161
G1 X90.500 Y124.390 E24.61677
G1 X90.579 Y125.009 E24.67059
G1 X91.523 Y124.065 E24.78575
G1 X91.602 Y124.684 E24.83956
G1 X90.658 Y125.629 E24.95472
G1 X90.737 Y126.248 E25.00854
G1 X91.681 Y125.303 E25.12370
G1 X91.761 Y125.922 E25.17751
G1 X90.816 Y126.867 E25.29267
G1 X90.895 Y127.486 E25.34649
G1 X91.840 Y126.542 E25.46165
G1 X91.919 Y127.161 E25.51546
G1 X90.974 Y128.105 E25.63062
G1 X91.053 Y128.724 E25.68444
G1 X91.998 Y127.780 E25.79960
G1 X92.077 Y128.399 E25.85342
G1 X91.133 Y129.344 E25.96857
G1 X91.212 Y129.963 E26.02239
G1 X92.156 Y129.018 E26.13755
G1 X92.235 Y129.637 E26.19136
G1 X91.291 Y130.582 E26.30652
G1 X91.370 Y131.201 E26.36034
G1 X92.314 Y130.256 E26.47550
G1 X92.393 Y130.876 E26.52931
G1 X91.449 Y131.820 E26.64447
G1 X91.528 Y132.439 E26.69829
G1 X92.473 Y131.495 E26.81345
G1 X92.552 Y132.114 E26.86726
G1 X91.607 Y133.058 E26.98242
G1 X91.686 Y133.678 E27.03624
G1 X92.631 Y132.733 E27.15140
G1 X92.710 Y133.352 E27.20521
G1 X91.765 Y134.297 E27.32037
G1 X91.844 Y134.916 E27.37419
G1 X92.789 Y133.971 E27.48934
G1 X92.868 Y134.591 E27.54316
G1 X91.924 Y135.535 E27.65832
G1 X92.003 Y136.154 E27.71213
G1 X92.947 Y135.210 E27.82729
G1 X93.026 Y135.829 E27.88111
G1 X92.082 Y136.773 E27.99626
G1 X92.161 Y137.393 E28.05008
G1 X93.105 Y136.448 E28.16524
G1 X93.184 Y137.067 E28.21905
G1 X92.240 Y138.012 E28.33421
G1 X92.319 Y138.631 E28.38803
G1 X93.264 Y137.686 E28.50318
G1 X93.343 Y138.306 E28.55700
G1 X92.398 Y139.250 E28.67216
G1 X92.477 Y139.869 E28.72597
G1 X93.422 Y138.925 E28.84113
G1 X93.501 Y139.544 E28.89495
G1 X92.556 Y140.488 E29.01010
G1 X92.636 Y141.107 E29.06392
G1 X93.580 Y140.163 E29.17908
G1 X93.659 Y140.782 E29.23289
G1 X92.715 Y141.727 E29.34805
G1 X92.794 Y142.346 E29.40186
G1 X93.738 Y141.401 E29.51702
G1 X93.817 Y142.021 E29.57084
G1 X92.873 Y142.965 E29.68599
G1 X92.952 Y143.584 E29.73981
G1 X93.896 Y142.640 E29.85497
G1 X93.976 Y143.259 E29.90878
G1 X93.031 Y144.203 E30.02394
G1 X93.110 Y144.822 E30.07775
G1 X94.055 Y143.878 E30.19291
G1 X94.134 Y144.497 E30.24673
G1 X93.189 Y145.442 E30.36188
G1 X93.268 Y146.061 E30.41570
G1 X94.213 Y145.116 E30.53085
G1 X94.292 Y145.735 E30.58467
G1 X93.348 Y146.680 E30.69983
G1 X93.427 Y147.299 E30.75364
G1 X94.371 Y146.355 E30.86880
G1 X94.450 Y146.974 E30.92261
G1 X93.506 Y147.918 E31.03777
G1 X93.585 Y148.537 E31.09158
G1 X94.529 Y147.593 E31.20674
G1 X94.608 Y148.212 E31.26056
G1 X93.664 Y149.157 E31.37571
G1 X93.743 Y149.776 E31.42953
G1 X94.688 Y148.831 E31.54468
G1 X94.767 Y149.450 E31.59850
G1 X93.822 Y150.395 E31.71365
G1 X93.901 Y151.014 E31.76747
G1 X94.846 Y150.070 E31.88263
G1 X94.925 Y150.689 E31.93644
G1 X93.980 Y151.633 E32.05160
G1 X94.059 Y152.252 E32.10541
G1 X95.004 Y151.308 E32.22057
G1 X95.083 Y151.927 E32.27438
G1 X94.139 Y152.871 E32.38954
G1 X94.218 Y153.491 E32.44335
G1 X95.162 Y152.546 E32.55851
G1 X95.241 Y153.165 E32.61232
G1 X94.297 Y154.110 E32.72748
G1 X94.376 Y154.729 E32.78129
G1 X95.264 Y153.841 E32.88952
G1 X95.264 Y154.540 E32.94972
G1 X94.455 Y155.348 E33.04830
G1 X94.534 Y155.967 E33.10212
G1 X95.264 Y155.238 E33.19106
G1 X95.264 Y155.936 E33.25126
G1 X94.644 Y156.556 E33.32679
G1 X95.264 Y156.634 E33.38063
G1 X95.021 Y156.877 E33.41019
G1 X95.023 Y157.200 F6000.000
G1 X94.720 Y157.579 E33.45180 F1200.000
G1 X94.643 Y157.602 E33.45867
G1 X94.509 Y157.806 E33.47961
G1 X94.118 Y158.519 E33.54929
G1 X93.816 Y159.281 E33.61957
G1 X93.614 Y160.068 E33.68922
G1 X93.557 Y160.472 E33.72419
G1 X93.512 Y160.879 E33.75923
G1 X93.512 Y161.691 E33.82887
G1 X93.614 Y162.505 E33.89917
G1 X93.818 Y163.295 E33.96911
G1 X93.964 Y163.699 E34.00592
G1 X94.123 Y164.052 E34.03911
G1 X94.303 Y164.419 E34.07416
G1 X94.516 Y164.767 E34.10912
G1 X94.729 Y165.091 E34.14236
G1 X94.993 Y165.431 E34.17923
G1 X95.279 Y165.755 E34.21632
G1 X95.856 Y166.296 E34.28404
G1 X96.499 Y166.764 E34.35228
G1 X96.887 Y166.993 E34.39087
G1 X97.235 Y167.164 E34.42409
G1 X97.589 Y167.323 E34.45738
G1 X97.993 Y167.469 E34.49419
G1 X98.408 Y167.589 E34.53120
G1 X99.182 Y167.736 E34.59871
G1 X99.974 Y167.787 E34.66680
G1 X100.408 Y167.774 E34.70400
G1 X100.815 Y167.736 E34.73898
G1 X101.617 Y167.584 E34.80894
G1 X102.394 Y167.331 E34.87905
G1 X103.132 Y166.983 E34.94893
G1 X103.501 Y166.764 E34.98569
G1 X103.817 Y166.541 E35.01886
G1 X104.127 Y166.308 E35.05214
G1 X104.451 Y166.024 E35.08908
G1 X104.756 Y165.717 E35.12614
G1 X105.257 Y165.111 E35.19355
G1 X105.698 Y164.416 E35.26414
G1 X106.044 Y163.679 E35.33383
G1 X106.190 Y163.270 E35.37112
G1 X106.380 Y162.531 E35.43652
G1 X106.451 Y162.081 E35.47554
G1 X106.482 Y161.694 E35.50881
G1 X106.501 Y161.287 E35.54378
G1 X106.482 Y160.879 E35.57875
G1 X106.450 Y160.472 E35.61380
G1 X106.298 Y159.674 E35.68338
G1 X106.045 Y158.894 E35.75372
G1 X105.695 Y158.151 E35.82405
G1 X105.362 Y157.608 E35.87867
G1 X105.287 Y157.604 E35.88513
G1 X105.211 Y157.500 E35.89612
G1 Z1.300 F6000.000
G1 X111.153 Y113.668 F6000.000
G1 X105.573 Y157.345 E39.67036 F2100.000
G1 X105.964 Y158.008 E39.73628
G1 X106.158 Y158.389 E39.77298
G1 X106.328 Y158.781 E39.80961
G1 X106.473 Y159.184 E39.84628
G1 X106.592 Y159.594 E39.88287
G1 X106.685 Y160.011 E39.91955
G1 X106.752 Y160.433 E39.95617
G1 X106.793 Y160.860 E39.99287
G1 X106.806 Y161.287 E40.02950
G1 X106.793 Y161.714 E40.06613
G1 X106.752 Y162.140 E40.10283
G1 X106.685 Y162.562 E40.13945
G1 X106.592 Y162.980 E40.17613
G1 X106.473 Y163.390 E40.21272
G1 X106.328 Y163.792 E40.24939
G1 X106.158 Y164.184 E40.28602
G1 X105.964 Y164.566 E40.32272
G1 X105.747 Y164.934 E40.35935
G1 X105.507 Y165.286 E40.39592
G1 X105.244 Y165.625 E40.43260
G1 X104.961 Y165.946 E40.46930
G1 X104.659 Y166.248 E40.50596
G1 X104.339 Y166.531 E40.54254
G1 X104.000 Y166.793 E40.57926
G1 X103.647 Y167.033 E40.61586
G1 X103.279 Y167.250 E40.65251
G1 X102.898 Y167.445 E40.68921
G1 X102.506 Y167.614 E40.72574
G1 X102.103 Y167.759 E40.76251
G1 X101.692 Y167.879 E40.79914
G1 X101.276 Y167.972 E40.83573
G1 X100.853 Y168.039 E40.87242
G1 X100.427 Y168.079 E40.90905
G1 X100.000 Y168.093 E40.94571
G1 X99.573 Y168.079 E40.98236
G1 X99.147 Y168.039 E41.01899
G1 X98.724 Y167.972 E41.05568
G1 X98.308 Y167.879 E41.09228
G1 X97.897 Y167.759 E41.12891
G1 X97.494 Y167.614 E41.16568
G1 X97.102 Y167.445 E41.20221
G1 X96.721 Y167.250 E41.23891
G1 X96.353 Y167.033 E41.27555
G1 X96.000 Y166.793 E41.31215
G1 X95.661 Y166.531 E41.34887
G1 X95.341 Y166.248 E41.38545
G1 X95.039 Y165.946 E41.42211
G1 X94.756 Y165.625 E41.45881
G1 X94.493 Y165.286 E41.49549
G1 X94.253 Y164.934 E41.53206
G1 X94.036 Y164.566 E41.56870
G1 X93.842 Y164.184 E41.60539
G1 X93.672 Y163.792 E41.64203
G1 X93.527 Y163.390 E41.67869
G1 X93.408 Y162.980 E41.71529
G1 X93.315 Y162.562 E41.75197
G1 X93.248 Y162.140 E41.78859
G1 X93.207 Y161.714 E41.82529
G1 X93.194 Y161.287 E41.86191
G1 X93.207 Y160.860 E41.89854
G1 X93.248 Y160.433 E41.93524
G1 X93.315 Y160.011 E41.97186
G1 X93.408 Y159.594 E42.00854
G1 X93.527 Y159.184 E42.04513
G1 X93.672 Y158.781 E42.08180
G1 X93.842 Y158.389 E42.11843
G1 X94.036 Y158.008 E42.15514
G1 X94.427 Y157.345 E42.22106
G1 X88.847 Y113.668 E45.99530
G1 X88.570 Y113.702 E46.01921
G1 X83.234 Y70.247 E49.77185
G1 X83.298 Y70.239 E49.77732
G1 X81.518 Y56.270 E50.98433
G1 X80.555 Y42.960 E52.12816
G1 X80.834 Y42.926 E52.15218
G1 X83.120 Y56.079 E53.29649
G1 X95.557 Y153.419 E61.70769
G1 X95.557 Y156.976 E62.01264
G1 X95.215 Y157.353 E62.05625
G1 X94.769 Y157.967 E62.12128
G1 X94.394 Y158.649 E62.18795
G1 X94.108 Y159.372 E62.25467
G1 X93.914 Y160.126 E62.32134
G1 X93.816 Y160.898 E62.38804
G1 X93.816 Y161.676 E62.45474
G1 X93.914 Y162.448 E62.52143
G1 X94.103 Y163.183 E62.58647
G1 X94.247 Y163.585 E62.62309
G1 X94.571 Y164.272 E62.68819
G1 X94.978 Y164.913 E62.75327
G1 X95.227 Y165.235 E62.78817
G1 X95.497 Y165.541 E62.82313
G1 X96.051 Y166.061 E62.88826
G1 X96.665 Y166.507 E62.95333
G1 X97.032 Y166.725 E62.98993
G1 X97.703 Y167.040 E63.05346
G1 X98.477 Y167.291 E63.12318
G1 X99.224 Y167.434 E63.18836
G1 X99.982 Y167.481 E63.25348
G1 X100.794 Y167.431 E63.32325
G1 X101.541 Y167.288 E63.38842
G1 X102.280 Y167.048 E63.45506
G1 X102.968 Y166.725 E63.52015
G1 X103.335 Y166.507 E63.55674
G1 X103.934 Y166.072 E63.62023
G1 X104.240 Y165.802 E63.65520
G1 X104.528 Y165.514 E63.69013
G1 X105.012 Y164.929 E63.75523
G1 X105.429 Y164.272 E63.82189
G1 X105.753 Y163.585 E63.88699
G1 X105.897 Y163.183 E63.92360
G1 X106.081 Y162.466 E63.98703
G1 X106.148 Y162.045 E64.02358
G1 X106.196 Y161.287 E64.08869
G1 X106.147 Y160.510 E64.15542
G1 X106.001 Y159.746 E64.22203
G1 X105.761 Y159.006 E64.28878
G1 X105.429 Y158.302 E64.35549
G1 X105.012 Y157.645 E64.42216
G1 X104.443 Y156.976 E64.49741
G1 X104.443 Y153.419 E64.80236
G1 X116.880 Y56.079 E73.21356
G1 X119.166 Y42.926 E74.35787
G1 X119.444 Y42.960 E74.38188
G1 X118.482 Y56.270 E75.52572
G1 X116.702 Y70.239 E76.73272
G1 X116.766 Y70.247 E76.73819
G1 X111.430 Y113.702 E80.49084
G1 X111.228 Y113.677 E80.50832
G1 X111.578 Y114.214 F6000.000
G1 X106.081 Y157.241 E84.22626 F2100.000
G1 X106.394 Y157.771 E84.27907
G1 X106.603 Y158.180 E84.31841
G1 X106.785 Y158.600 E84.35768
G1 X106.940 Y159.032 E84.39699
G1 X107.068 Y159.472 E84.43623
G1 X107.168 Y159.919 E84.47556
G1 X107.240 Y160.372 E84.51482
G1 X107.283 Y160.829 E84.55417
G1 X107.297 Y161.287 E84.59344
G1 X107.283 Y161.745 E84.63271
G1 X107.240 Y162.202 E84.67205
G1 X107.168 Y162.654 E84.71131
G1 X107.068 Y163.102 E84.75065
G1 X106.940 Y163.541 E84.78988
G1 X106.785 Y163.973 E84.82919
G1 X106.603 Y164.393 E84.86847
G1 X106.394 Y164.802 E84.90780
G1 X106.161 Y165.197 E84.94709
G1 X105.904 Y165.575 E84.98632
G1 X105.623 Y165.938 E85.02563
G1 X105.319 Y166.282 E85.06495
G1 X104.995 Y166.606 E85.10427
G1 X104.652 Y166.909 E85.14351
G1 X104.289 Y167.190 E85.18285
G1 X103.910 Y167.448 E85.22212
G1 X103.515 Y167.681 E85.26140
G1 X103.107 Y167.890 E85.30074
G1 X102.687 Y168.071 E85.33995
G1 X102.255 Y168.226 E85.37931
G1 X101.815 Y168.355 E85.41860
G1 X101.368 Y168.454 E85.45786
G1 X100.915 Y168.526 E85.49718
G1 X100.458 Y168.569 E85.53646
G1 X100.000 Y168.584 E85.57576
G1 X99.542 Y168.569 E85.61505
G1 X99.085 Y168.526 E85.65434
G1 X98.632 Y168.454 E85.69365
G1 X98.185 Y168.355 E85.73291
G1 X97.745 Y168.226 E85.77220
G1 X97.313 Y168.071 E85.81156
G1 X96.893 Y167.890 E85.85078
G1 X96.485 Y167.681 E85.89012
G1 X96.090 Y167.448 E85.92939
G1 X95.711 Y167.190 E85.96867
G1 X95.348 Y166.909 E86.00800
G1 X95.005 Y166.606 E86.04724
G1 X94.681 Y166.282 E86.08656
G1 X94.377 Y165.938 E86.12588
G1 X94.096 Y165.575 E86.16519
G1 X93.839 Y165.197 E86.20442
G1 X93.606 Y164.802 E86.24372
G1 X93.397 Y164.393 E86.28304
G1 X93.215 Y163.973 E86.32232
G1 X93.060 Y163.541 E86.36163
G1 X92.932 Y163.102 E86.40087
G1 X92.832 Y162.654 E86.44020
G1 X92.760 Y162.202 E86.47946
G1 X92.717 Y161.745 E86.51881
G1 X92.703 Y161.287 E86.55808
G1 X92.717 Y160.829 E86.59734
G1 X92.760 Y160.372 E86.63669
G1 X92.832 Y159.919 E86.67595
G1 X92.932 Y159.472 E86.71528
G1 X93.060 Y159.032 E86.75452
G1 X93.215 Y158.600 E86.79383
G1 X93.397 Y158.180 E86.83311
G1 X93.606 Y157.771 E86.87244
G1 X93.919 Y157.241 E86.92525
G1 X88.422 Y114.214 E90.64320
G1 X88.142 Y114.249 E90.66731
G1 X82.687 Y69.820 E94.50405
G1 X82.748 Y69.813 E94.50933
G1 X81.030 Y56.319 E95.67527
G1 X79.602 Y36.580 E97.37164
G1 X80.261 Y35.433 E97.48501
G1 X80.489 Y35.509 E97.50567
G1 X80.304 Y37.012 E97.63546
G1 X83.606 Y56.006 E99.28796
G1 X96.047 Y153.387 E107.70278
G1 X96.047 Y157.188 E108.02851
G1 X95.849 Y157.376 E108.05195
G1 X95.598 Y157.660 E108.08445
G1 X95.184 Y158.230 E108.14487
G1 X94.839 Y158.858 E108.20625
G1 X94.575 Y159.524 E108.26767
G1 X94.397 Y160.218 E108.32905
G1 X94.307 Y160.929 E108.39045
G1 X94.307 Y161.645 E108.45185
G1 X94.397 Y162.356 E108.51326
G1 X94.572 Y163.038 E108.57368
G1 X94.701 Y163.397 E108.60632
G1 X95.002 Y164.035 E108.66678
G1 X95.380 Y164.630 E108.72722
G1 X95.850 Y165.199 E108.79047
G1 X96.364 Y165.682 E108.85095
G1 X96.935 Y166.096 E108.91139
G1 X97.262 Y166.290 E108.94401
G1 X97.891 Y166.586 E109.00355
G1 X98.592 Y166.813 E109.06673
G1 X99.285 Y166.946 E109.12723
G1 X99.989 Y166.990 E109.18771
G1 X100.725 Y166.944 E109.25092
G1 X101.419 Y166.811 E109.31142
G1 X102.100 Y166.590 E109.37279
G1 X102.738 Y166.290 E109.43323
G1 X103.065 Y166.096 E109.46585
G1 X103.627 Y165.688 E109.52536
G1 X103.904 Y165.444 E109.55703
G1 X104.165 Y165.183 E109.58866
G1 X104.615 Y164.639 E109.64912
G1 X104.998 Y164.035 E109.71050
G1 X105.299 Y163.397 E109.77096
G1 X105.428 Y163.038 E109.80360
G1 X105.600 Y162.366 E109.86307
G1 X105.660 Y161.991 E109.89565
G1 X105.704 Y161.287 E109.95613
G1 X105.659 Y160.571 E110.01756
G1 X105.525 Y159.869 E110.07888
G1 X105.303 Y159.187 E110.14034
G1 X104.998 Y158.539 E110.20174
G1 X104.615 Y157.934 E110.26312
G1 X104.159 Y157.383 E110.32440
G1 X103.953 Y157.188 E110.34877
G1 X103.953 Y153.387 E110.67450
G1 X116.394 Y56.006 E119.08932
G1 X119.696 Y37.012 E120.74182
G1 X119.511 Y35.509 E120.87161
G1 X119.739 Y35.433 E120.89227
G1 X120.398 Y36.580 E121.00564
G1 X118.970 Y56.319 E122.70201
G1 X117.252 Y69.813 E123.86795
G1 X117.313 Y69.820 E123.87323
G1 X111.858 Y114.249 E127.70997
G1 X111.653 Y114.223 E127.72765
G1 X111.970 Y114.718 F6000.000
G1 X106.550 Y157.144 E130.82077 F1050.000
G1 X106.791 Y157.553 E130.85513
G1 X107.012 Y157.987 E130.89036
G1 X107.206 Y158.434 E130.92555
G1 X107.371 Y158.892 E130.96077
G1 X107.506 Y159.359 E130.99594
G1 X107.613 Y159.835 E131.03118
G1 X107.689 Y160.315 E131.06636
G1 X107.735 Y160.800 E131.10162
G1 X107.750 Y161.287 E131.13681
G1 X107.735 Y161.773 E131.17199
G1 X107.689 Y162.258 E131.20725
G1 X107.613 Y162.739 E131.24243
G1 X107.506 Y163.214 E131.27767
G1 X107.371 Y163.681 E131.31284
G1 X107.206 Y164.140 E131.34806
G1 X107.012 Y164.586 E131.38325
G1 X106.791 Y165.020 E131.41848
G1 X106.543 Y165.440 E131.45371
G1 X106.270 Y165.842 E131.48887
G1 X105.971 Y166.226 E131.52408
G1 X105.649 Y166.592 E131.55930
G1 X105.305 Y166.936 E131.59454
G1 X104.940 Y167.258 E131.62972
G1 X104.555 Y167.556 E131.66494
G1 X104.153 Y167.830 E131.70016
G1 X103.734 Y168.078 E131.73534
G1 X103.300 Y168.299 E131.77058
G1 X102.853 Y168.492 E131.80576
G1 X102.395 Y168.657 E131.84098
G1 X101.927 Y168.793 E131.87620
G1 X101.452 Y168.899 E131.91139
G1 X100.971 Y168.976 E131.94661
G1 X100.487 Y169.021 E131.98182
G1 X100.000 Y169.037 E132.01703
G1 X99.513 Y169.021 E132.05224
G1 X99.029 Y168.976 E132.08744
G1 X98.548 Y168.899 E132.12266
G1 X98.073 Y168.793 E132.15786
G1 X97.605 Y168.657 E132.19307
G1 X97.147 Y168.492 E132.22830
G1 X96.700 Y168.299 E132.26347
G1 X96.266 Y168.078 E132.29871
G1 X95.847 Y167.830 E132.33390
G1 X95.445 Y167.556 E132.36912
G1 X95.060 Y167.258 E132.40434
G1 X94.695 Y166.936 E132.43952
G1 X94.351 Y166.592 E132.47476
G1 X94.029 Y166.226 E132.50997
G1 X93.730 Y165.842 E132.54518
G1 X93.457 Y165.440 E132.58035
G1 X93.209 Y165.020 E132.61558
G1 X92.988 Y164.586 E132.65080
G1 X92.794 Y164.140 E132.68600
G1 X92.629 Y163.681 E132.72122
G1 X92.494 Y163.214 E132.75638
G1 X92.387 Y162.739 E132.79163
G1 X92.311 Y162.258 E132.82681
G1 X92.265 Y161.773 E132.86206
G1 X92.250 Y161.287 E132.89725
G1 X92.265 Y160.800 E132.93244
G1 X92.311 Y160.315 E132.96769
G1 X92.387 Y159.835 E133.00288
G1 X92.494 Y159.359 E133.03812
G1 X92.629 Y158.892 E133.07329
G1 X92.794 Y158.434 E133.10851
G1 X92.988 Y157.987 E133.14370
G1 X93.209 Y157.553 E133.17893
G1 X93.450 Y157.144 E133.21329
G1 X88.030 Y114.718 E136.30640
G1 X87.748 Y114.753 E136.32691
G1 X82.183 Y69.427 E139.62944
G1 X82.242 Y69.420 E139.63375
G1 X80.579 Y56.364 E140.58554
G1 X79.140 Y36.474 E142.02769
G1 X80.285 Y34.481 E142.19392
G1 X80.906 Y34.405 E142.23912
G1 X80.993 Y35.119 E142.29113
G1 X80.761 Y37.001 E142.42826
G1 X84.053 Y55.939 E143.81837
G1 X96.500 Y153.359 E150.92094
G1 X96.500 Y157.382 E151.21191
G1 X96.175 Y157.690 E151.24429
G1 X95.952 Y157.943 E151.26869
G1 X95.567 Y158.473 E151.31608
G1 X95.249 Y159.051 E151.36375
G1 X95.006 Y159.664 E151.41145
G1 X94.843 Y160.303 E151.45912
G1 X94.760 Y160.957 E151.50681
G1 X94.760 Y161.616 E151.55450
G1 X94.843 Y162.271 E151.60219
G1 X95.006 Y162.905 E151.64957
G1 X95.120 Y163.223 E151.67402
G1 X95.399 Y163.816 E151.72142
G1 X95.750 Y164.370 E151.76881
G1 X96.175 Y164.884 E151.81706
G1 X96.653 Y165.333 E151.86447
G1 X97.183 Y165.718 E151.91187
G1 X97.474 Y165.890 E151.93630
G1 X98.064 Y166.167 E151.98341
G1 X98.698 Y166.373 E152.03163
G1 X99.342 Y166.496 E152.07905
G1 X99.996 Y166.537 E152.12646
G1 X100.662 Y166.496 E152.17469
G1 X101.306 Y166.372 E152.22210
G1 X101.933 Y166.169 E152.26978
G1 X102.526 Y165.890 E152.31717
G1 X102.817 Y165.718 E152.34160
G1 X103.344 Y165.335 E152.38871
G1 X103.830 Y164.878 E152.43697
G1 X104.248 Y164.373 E152.48438
G1 X104.601 Y163.816 E152.53205
G1 X104.880 Y163.223 E152.57944
G1 X104.994 Y162.905 E152.60390
G1 X105.157 Y162.274 E152.65099
G1 X105.209 Y161.941 E152.67540
G1 X105.250 Y161.287 E152.72282
G1 X105.209 Y160.628 E152.77053
G1 X105.086 Y159.981 E152.81816
G1 X104.882 Y159.354 E152.86590
G1 X104.601 Y158.757 E152.91358
G1 X104.248 Y158.200 E152.96125
G1 X103.828 Y157.693 E153.00890
G1 X103.500 Y157.382 E153.04156
G1 X103.500 Y153.359 E153.33254
G1 X115.947 Y55.939 E160.43510
G1 X119.239 Y37.001 E161.82521
G1 X119.007 Y35.119 E161.96234
G1 X119.094 Y34.405 E162.01435
G1 X119.715 Y34.481 E162.05955
G1 X120.860 Y36.474 E162.22578
G1 X119.421 Y56.364 E163.66794
G1 X117.758 Y69.420 E164.61973
G1 X117.817 Y69.427 E164.62403
G1 X112.252 Y114.753 E167.92656
G1 X112.045 Y114.727 E167.94165
G1 X111.474 Y114.656 F6000.000
G1 X104.736 Y156.023 F6000.000
G1 X105.377 Y156.664 E168.01933 F1200.000
G1 X105.456 Y156.048 E168.07258
G1 X104.736 Y155.328 E168.15981
G1 X104.736 Y154.634 E168.21939
G1 X105.534 Y155.432 E168.31616
G1 X105.613 Y154.816 E168.36941
G1 X104.736 Y153.939 E168.47573
G1 X104.747 Y153.255 E168.53439
G1 X105.692 Y154.200 E168.64894
G1 X105.770 Y153.584 E168.70220
G1 X104.826 Y152.639 E168.81675
G1 X104.905 Y152.024 E168.87001
G1 X105.849 Y152.968 E168.98456
G1 X105.928 Y152.352 E169.03782
G1 X104.983 Y151.408 E169.15237
G1 X105.062 Y150.792 E169.20563
G1 X106.006 Y151.736 E169.32018
G1 X106.085 Y151.120 E169.37344
G1 X105.141 Y150.176 E169.48799
G1 X105.219 Y149.560 E169.54125
G1 X106.164 Y150.504 E169.65580
G1 X106.243 Y149.888 E169.70906
G1 X105.298 Y148.944 E169.82361
G1 X105.377 Y148.328 E169.87687
G1 X106.321 Y149.272 E169.99142
G1 X106.400 Y148.656 E170.04468
G1 X105.455 Y147.712 E170.15924
G1 X105.534 Y147.096 E170.21249
G1 X106.479 Y148.041 E170.32705
G1 X106.557 Y147.425 E170.38030
G1 X105.613 Y146.480 E170.49486
G1 X105.692 Y145.864 E170.54811
G1 X106.636 Y146.809 E170.66267
G1 X106.715 Y146.193 E170.71593
G1 X105.770 Y145.248 E170.83048
G1 X105.849 Y144.632 E170.88374
G1 X106.793 Y145.577 E170.99829
G1 X106.872 Y144.961 E171.05155
G1 X105.928 Y144.016 E171.16610
G1 X106.006 Y143.401 E171.21936
G1 X106.951 Y144.345 E171.33392
G1 X107.029 Y143.729 E171.38717
G1 X106.085 Y142.785 E171.50173
G1 X106.164 Y142.169 E171.55498
G1 X107.108 Y143.113 E171.66954
G1 X107.187 Y142.497 E171.72280
G1 X106.242 Y141.553 E171.83735
G1 X106.321 Y140.937 E171.89061
G1 X107.266 Y141.881 E172.00516
G1 X107.344 Y141.265 E172.05842
G1 X106.400 Y140.321 E172.17298
G1 X106.478 Y139.705 E172.22623
G1 X107.423 Y140.649 E172.34079
G1 X107.502 Y140.033 E172.39404
G1 X106.557 Y139.089 E172.50860
G1 X106.636 Y138.473 E172.56186
G1 X107.580 Y139.418 E172.67641
G1 X107.659 Y138.802 E172.72967
G1 X106.715 Y137.857 E172.84423
G1 X106.793 Y137.241 E172.89748
G1 X107.738 Y138.186 E173.01204
G1 X107.816 Y137.570 E173.06529
G1 X106.872 Y136.625 E173.17985
G1 X106.951 Y136.009 E173.23311
G1 X107.895 Y136.954 E173.34767
G1 X107.974 Y136.338 E173.40092
G1 X107.029 Y135.393 E173.51548
G1 X107.108 Y134.777 E173.56873
G1 X108.053 Y135.722 E173.68329
G1 X108.131 Y135.106 E173.73655
G1 X107.187 Y134.162 E173.85110
G1 X107.265 Y133.546 E173.90436
G1 X108.210 Y134.490 E174.01892
G1 X108.289 Y133.874 E174.07217
G1 X107.344 Y132.930 E174.18673
G1 X107.423 Y132.314 E174.23999
G1 X108.367 Y133.258 E174.35455
G1 X108.446 Y132.642 E174.40780
G1 X107.502 Y131.698 E174.52236
G1 X107.580 Y131.082 E174.57562
G1 X108.525 Y132.026 E174.69017
G1 X108.603 Y131.410 E174.74343
G1 X107.659 Y130.466 E174.85799
G1 X107.738 Y129.850 E174.91124
G1 X108.682 Y130.795 E175.02580
G1 X108.761 Y130.179 E175.07906
G1 X107.816 Y129.234 E175.19362
G1 X107.895 Y128.618 E175.24687
G1 X108.839 Y129.563 E175.36143
G1 X108.918 Y128.947 E175.41469
G1 X107.974 Y128.002 E175.52924
G1 X108.052 Y127.386 E175.58250
G1 X108.997 Y128.331 E175.69706
G1 X109.076 Y127.715 E175.75031
G1 X108.131 Y126.770 E175.86487
G1 X108.210 Y126.154 E175.91813
G1 X109.154 Y127.099 E176.03269
G1 X109.233 Y126.483 E176.08594
G1 X108.288 Y125.539 E176.20050
G1 X108.367 Y124.923 E176.25376
G1 X109.312 Y125.867 E176.36832
G1 X109.390 Y125.251 E176.42157
G1 X108.446 Y124.307 E176.53613
G1 X108.525 Y123.691 E176.58939
G1 X109.469 Y124.635 E176.70395
G1 X109.548 Y124.019 E176.75720
G1 X108.603 Y123.075 E176.87176
G1 X108.682 Y122.459 E176.92502
G1 X109.626 Y123.403 E177.03958
G1 X109.705 Y122.787 E177.09283
G1 X108.761 Y121.843 E177.20739
G1 X108.839 Y121.227 E177.26065
G1 X109.784 Y122.171 E177.37521
G1 X109.862 Y121.556 E177.42847
G1 X108.918 Y120.611 E177.54303
G1 X108.997 Y119.995 E177.59628
G1 X109.941 Y120.940 E177.71084
G1 X110.020 Y120.324 E177.76410
G1 X109.075 Y119.379 E177.87866
G1 X109.154 Y118.763 E177.93191
G1 X110.099 Y119.708 E178.04647
G1 X110.177 Y119.092 E178.09973
G1 X109.233 Y118.147 E178.21429
G1 X109.311 Y117.531 E178.26755
G1 X110.256 Y118.476 E178.38211
G1 X110.335 Y117.860 E178.43536
G1 X109.390 Y116.915 E178.54992
G1 X109.469 Y116.300 E178.60318
G1 X110.413 Y117.244 E178.71774
G1 X110.492 Y116.628 E178.77099
G1 X109.548 Y115.684 E178.88556
G1 X109.626 Y115.068 E178.93881
G1 X110.571 Y116.012 E179.05337
G1 X110.649 Y115.396 E179.10663
G1 X109.705 Y114.452 E179.22119
G1 X109.784 Y113.836 E179.27444
G1 X110.728 Y114.780 E179.38901
G1 X110.807 Y114.164 E179.44226
G1 X109.862 Y113.220 E179.55682
G1 X109.941 Y112.604 E179.61008
G1 X110.886 Y113.548 E179.72464
G1 X111.211 Y113.179 E179.76685
G1 X110.020 Y111.988 E179.91134
G1 X110.098 Y111.372 E179.96460
G1 X111.287 Y112.561 E180.10876
G1 X111.363 Y111.942 E180.16222
G1 X110.177 Y110.756 E180.30605
G1 X110.256 Y110.140 E180.35931
G1 X111.439 Y111.323 E180.50281
G1 X111.515 Y110.705 E180.55627
G1 X110.334 Y109.524 E180.69944
G1 X110.413 Y108.908 E180.75269
G1 X111.591 Y110.086 E180.89553
G1 X111.667 Y109.467 E180.94899
G1 X110.492 Y108.292 E181.09149
G1 X110.571 Y107.677 E181.14475
G1 X111.743 Y108.849 E181.28693
G1 X111.819 Y108.230 E181.34038
G1 X110.649 Y107.061 E181.48223
G1 X110.728 Y106.445 E181.53548
G1 X111.895 Y107.611 E181.67700
G1 X111.971 Y106.993 E181.73046
G1 X110.807 Y105.829 E181.87164
G1 X110.885 Y105.213 E181.92489
G1 X112.047 Y106.374 E182.06574
G1 X112.123 Y105.755 E182.11920
G1 X110.964 Y104.597 E182.25972
G1 X111.043 Y103.981 E182.31298
G1 X112.198 Y105.137 E182.45316
G1 X112.274 Y104.518 E182.50662
G1 X111.121 Y103.365 E182.64648
G1 X111.200 Y102.749 E182.69973
G1 X112.350 Y103.899 E182.83926
G1 X112.426 Y103.281 E182.89272
G1 X111.279 Y102.133 E183.03191
G1 X111.357 Y101.517 E183.08517
G1 X112.502 Y102.662 E183.22403
G1 X112.578 Y102.043 E183.27749
G1 X111.436 Y100.901 E183.41602
G1 X111.515 Y100.285 E183.46927
G1 X112.654 Y101.425 E183.60747
G1 X112.730 Y100.806 E183.66093
G1 X111.594 Y99.669 E183.79880
G1 X111.672 Y99.053 E183.85206
G1 X112.806 Y100.187 E183.98959
G1 X112.882 Y99.569 E184.04305
G1 X111.751 Y98.438 E184.18026
G1 X111.830 Y97.822 E184.23351
G1 X112.958 Y98.950 E184.37039
G1 X113.034 Y98.331 E184.42385
G1 X111.908 Y97.206 E184.56039
G1 X111.987 Y96.590 E184.61365
G1 X113.110 Y97.713 E184.74986
G1 X113.186 Y97.094 E184.80332
G1 X112.066 Y95.974 E184.93920
G1 X112.144 Y95.358 E184.99245
G1 X113.262 Y96.475 E185.12800
G1 X113.338 Y95.857 E185.18146
G1 X112.223 Y94.742 E185.31668
G1 X112.302 Y94.126 E185.36994
G1 X113.414 Y95.238 E185.50482
G1 X113.490 Y94.619 E185.55828
G1 X112.380 Y93.510 E185.69284
G1 X112.459 Y92.894 E185.74609
G1 X113.566 Y94.001 E185.88032
G1 X113.642 Y93.382 E185.93378
G1 X112.538 Y92.278 E186.06767
G1 X112.617 Y91.662 E186.12092
G1 X113.718 Y92.763 E186.25449
G1 X113.794 Y92.145 E186.30795
G1 X112.695 Y91.046 E186.44118
G1 X112.774 Y90.430 E186.49443
G1 X113.870 Y91.526 E186.62733
G1 X113.946 Y90.907 E186.68079
G1 X112.853 Y89.815 E186.81336
G1 X112.931 Y89.199 E186.86661
G1 X114.022 Y90.289 E186.99885
G1 X114.098 Y89.670 E187.05231
G1 X113.010 Y88.583 E187.18421
G1 X113.089 Y87.967 E187.23747
G1 X114.173 Y89.051 E187.36904
G1 X114.249 Y88.433 E187.42250
G1 X113.167 Y87.351 E187.55374
G1 X113.246 Y86.735 E187.60700
G1 X114.325 Y87.814 E187.73791
G1 X114.401 Y87.195 E187.79137
G1 X113.325 Y86.119 E187.92195
G1 X113.403 Y85.503 E187.97521
G1 X114.477 Y86.577 E188.10545
G1 X114.553 Y85.958 E188.15891
G1 X113.482 Y84.887 E188.28883
G1 X113.561 Y84.271 E188.34209
G1 X114.629 Y85.340 E188.47167
G1 X114.705 Y84.721 E188.52513
G1 X113.640 Y83.655 E188.65439
G1 X113.718 Y83.039 E188.70764
G1 X114.781 Y84.102 E188.83656
G1 X114.857 Y83.484 E188.89002
G1 X113.797 Y82.423 E189.01862
G1 X113.876 Y81.807 E189.07187
G1 X114.933 Y82.865 E189.20013
G1 X115.009 Y82.246 E189.25359
G1 X113.954 Y81.191 E189.38152
G1 X114.033 Y80.576 E189.43478
G1 X115.085 Y81.628 E189.56237
G1 X115.161 Y81.009 E189.61583
G1 X114.112 Y79.960 E189.74310
G1 X114.190 Y79.344 E189.79636
G1 X115.237 Y80.390 E189.92329
G1 X115.313 Y79.772 E189.97675
G1 X114.269 Y78.728 E190.10335
G1 X114.348 Y78.112 E190.15661
G1 X115.389 Y79.153 E190.28288
G1 X115.465 Y78.534 E190.33634
G1 X114.427 Y77.496 E190.46228
G1 X114.505 Y76.880 E190.51554
G1 X115.541 Y77.916 E190.64115
G1 X115.617 Y77.297 E190.69461
G1 X114.584 Y76.264 E190.81989
G1 X114.663 Y75.648 E190.87314
G1 X115.693 Y76.678 E190.99809
G1 X115.769 Y76.060 E191.05155
G1 X114.741 Y75.032 E191.17617
G1 X114.820 Y74.416 E191.22942
G1 X115.845 Y75.441 E191.35371
G1 X115.921 Y74.822 E191.40717
G1 X114.899 Y73.800 E191.53112
G1 X114.977 Y73.184 E191.58438
G1 X115.997 Y74.204 E191.70800
G1 X116.073 Y73.585 E191.76146
G1 X115.056 Y72.568 E191.88475
G1 X115.135 Y71.953 E191.93800
G1 X116.148 Y72.966 E192.06096
G1 X116.224 Y72.348 E192.11442
G1 X115.213 Y71.337 E192.23705
G1 X115.292 Y70.721 E192.29031
G1 X116.300 Y71.729 E192.41260
G1 X116.376 Y71.110 E192.46606
G1 X115.371 Y70.105 E192.58803
G1 X115.450 Y69.489 E192.64129
G1 X116.395 Y70.434 E192.75591
G1 X116.473 Y69.818 E192.80918
G1 X115.528 Y68.873 E192.92377
G1 X115.607 Y68.257 E192.97703
G1 X116.551 Y69.202 E193.09160
G1 X116.630 Y68.585 E193.14487
G1 X115.686 Y67.641 E193.25942
G1 X115.764 Y67.025 E193.31267
G1 X116.708 Y67.969 E193.42719
G1 X116.787 Y67.353 E193.48046
G1 X115.843 Y66.409 E193.59495
G1 X115.922 Y65.793 E193.64821
G1 X116.865 Y66.737 E193.76268
G1 X116.944 Y66.121 E193.81595
G1 X116.000 Y65.177 E193.93039
G1 X116.079 Y64.561 E193.98365
G1 X117.022 Y65.505 E194.09806
G1 X117.101 Y64.889 E194.15134
G1 X116.158 Y63.945 E194.26573
G1 X116.236 Y63.329 E194.31898
G1 X117.179 Y64.272 E194.43335
G1 X117.258 Y63.656 E194.48662
G1 X116.315 Y62.714 E194.60096
G1 X116.394 Y62.098 E194.65422
G1 X117.336 Y63.040 E194.76853
G1 X117.415 Y62.424 E194.82180
G1 X116.473 Y61.482 E194.93609
G1 X116.551 Y60.866 E194.98935
G1 X117.493 Y61.808 E195.10361
G1 X117.572 Y61.192 E195.15688
G1 X116.630 Y60.250 E195.27112
G1 X116.709 Y59.634 E195.32438
G1 X117.650 Y60.576 E195.43859
G1 X117.729 Y59.959 E195.49186
G1 X116.787 Y59.018 E195.60605
G1 X116.866 Y58.402 E195.65930
G1 X117.807 Y59.343 E195.77347
G1 X117.886 Y58.727 E195.82674
G1 X116.945 Y57.786 E195.94087
G1 X117.023 Y57.170 E195.99413
G1 X117.964 Y58.111 E196.10824
G1 X118.043 Y57.495 E196.16151
G1 X117.102 Y56.554 E196.27560
G1 X117.185 Y55.942 E196.32857
G1 X118.121 Y56.879 E196.44218
G1 X118.196 Y56.259 E196.49573
G1 X117.287 Y55.350 E196.60592
G1 X117.390 Y54.759 E196.65743
G1 X118.243 Y55.611 E196.76083
G1 X118.290 Y54.963 E196.81653
G1 X117.493 Y54.167 E196.91314
G1 X117.596 Y53.575 E196.96465
G1 X118.336 Y54.316 E197.05446
G1 X118.383 Y53.668 E197.11016
G1 X117.699 Y52.983 E197.19317
G1 X118.180 Y52.770 E197.23833
G1 X118.430 Y53.020 E197.26864
G1 X118.137 Y52.456 F6000.000
G1 X118.647 Y48.308 E198.04775 F1200.000
G1 X119.008 Y45.367 E198.30167 F1200.000
G1 X119.335 Y42.700 F6000.000
G1 X119.845 Y38.551 E199.08078 F1200.000
G1 X120.032 Y37.007 E199.21413 F1200.000
G1 X120.024 Y36.665 E199.24344
G1 X119.851 Y36.147 E199.29022
G1 E197.29022 F2400.00000
G92 E0
G1 X80.088 Y36.330 F6000.000
G1 X80.088 Y36.330 F6000.000
G1 X80.149 Y36.147 F6000.000
G1 E2.00000 F2400.00000
G1 X79.976 Y36.665 E2.04678 F1200.000
G1 X79.968 Y37.007 E2.07610
G1 X80.155 Y38.551 E2.20944
G1 X80.155 Y38.551 F6000.000
G1 X80.665 Y42.700 E2.98855 F1200.000
G1 X80.992 Y45.367 F6000.000
G1 X81.353 Y48.308 E3.24247 F1200.000
G1 X81.353 Y48.308 F6000.000
G1 X81.863 Y52.456 E4.02158 F1200.000
G1 X82.263 Y52.972 F6000.000
G1 X82.012 Y52.721 E4.05200 F1200.000
G1 X81.582 Y52.986 E4.09529
G1 X82.409 Y53.812 E4.19555
G1 X81.637 Y53.735 E4.26214
G1 X82.555 Y54.653 E4.37356
G1 X82.701 Y55.494 E4.44675
G1 X81.691 Y54.483 E4.56933
G1 X81.745 Y55.232 E4.63372
G1 X82.843 Y56.330 E4.76687
G1 X82.944 Y57.126 E4.83572
G1 X81.799 Y55.981 E4.97464
G1 X81.891 Y56.768 E5.04259
G1 X83.046 Y57.923 E5.18266
G1 X83.148 Y58.719 E5.25152
G1 X81.993 Y57.564 E5.39164
G1 X82.094 Y58.360 E5.46046
G1 X83.250 Y59.515 E5.60062
G1 X83.351 Y60.312 E5.66948
G1 X82.195 Y59.156 E5.80968
G1 X82.297 Y59.952 E5.87851
G1 X83.453 Y61.108 E6.01875
G1 X83.555 Y61.904 E6.08761
G1 X82.398 Y60.748 E6.22790
G1 X82.500 Y61.544 E6.29672
G1 X83.657 Y62.701 E6.43705
G1 X83.758 Y63.497 E6.50591
G1 X82.601 Y62.340 E6.64629
G1 X82.702 Y63.136 E6.71511
G1 X83.860 Y64.294 E6.85553
G1 X83.962 Y65.090 E6.92438
G1 X82.804 Y63.932 E7.06484
G1 X82.905 Y64.728 E7.13366
G1 X84.064 Y65.886 E7.27417
G1 X84.165 Y66.683 E7.34302
G1 X83.007 Y65.524 E7.48357
G1 X83.108 Y66.320 E7.55239
G1 X84.267 Y67.479 E7.69298
G1 X84.369 Y68.275 E7.76183
G1 X83.209 Y67.116 E7.90247
G1 X83.311 Y67.912 E7.97129
G1 X84.471 Y69.072 E8.11196
G1 X84.572 Y69.868 E8.18082
G1 X83.412 Y68.708 E8.32153
G1 X83.514 Y69.504 E8.39036
G1 X84.674 Y70.664 E8.53111
G1 X84.776 Y71.461 E8.59997
G1 X83.615 Y70.300 E8.74077
G1 X83.638 Y71.017 E8.80233
G1 X84.878 Y72.257 E8.95271
G1 X84.979 Y73.054 E9.02156
G1 X83.735 Y71.809 E9.17249
G1 X83.832 Y72.601 E9.24091
G1 X85.081 Y73.850 E9.39238
G1 X85.183 Y74.646 E9.46124
G1 X83.929 Y73.393 E9.61326
G1 X84.027 Y74.185 E9.68168
G1 X85.285 Y75.443 E9.83425
G1 X85.386 Y76.239 E9.90310
G1 X84.124 Y74.977 E10.05622
G1 X84.221 Y75.768 E10.12464
G1 X85.488 Y77.035 E10.27830
G1 X85.590 Y77.832 E10.34716
G1 X84.318 Y76.560 E10.50137
G1 X84.416 Y77.352 E10.56979
G1 X85.692 Y78.628 E10.72455
G1 X85.793 Y79.424 E10.79341
G1 X84.513 Y78.144 E10.94872
G1 X84.610 Y78.936 E11.01714
G1 X85.895 Y80.221 E11.17300
G1 X85.997 Y81.017 E11.24185
G1 X84.707 Y79.728 E11.39826
G1 X84.804 Y80.519 E11.46668
G1 X86.099 Y81.813 E11.62364
G1 X86.200 Y82.610 E11.69249
G1 X84.902 Y81.311 E11.84999
G1 X84.999 Y82.103 E11.91842
G1 X86.302 Y83.406 E12.07647
G1 X86.404 Y84.203 E12.14532
G1 X85.096 Y82.895 E12.30392
G1 X85.193 Y83.687 E12.37234
G1 X86.505 Y84.999 E12.53149
G1 X86.607 Y85.795 E12.60035
G1 X85.291 Y84.479 E12.76004
G1 X85.388 Y85.270 E12.82846
G1 X86.709 Y86.592 E12.98871
G1 X86.811 Y87.388 E13.05756
G1 X85.485 Y86.062 E13.21835
G1 X85.582 Y86.854 E13.28678
G1 X86.912 Y88.184 E13.44811
G1 X87.014 Y88.981 E13.51697
G1 X85.680 Y87.646 E13.67886
G1 X85.777 Y88.438 E13.74728
G1 X87.116 Y89.777 E13.90972
G1 X87.218 Y90.573 E13.97857
G1 X85.874 Y89.230 E14.14156
G1 X85.971 Y90.022 E14.20998
G1 X87.319 Y91.370 E14.37351
G1 X87.421 Y92.166 E14.44237
G1 X86.068 Y90.813 E14.60645
G1 X86.166 Y91.605 E14.67487
G1 X87.523 Y92.963 E14.83950
G1 X87.625 Y93.759 E14.90836
G1 X86.263 Y92.397 E15.07353
G1 X86.360 Y93.189 E15.14196
G1 X87.726 Y94.555 E15.30768
G1 X87.828 Y95.352 E15.37654
G1 X86.457 Y93.981 E15.54281
G1 X86.555 Y94.773 E15.61123
G1 X87.930 Y96.148 E15.77806
G1 X88.032 Y96.944 E15.84691
G1 X86.652 Y95.564 E16.01428
G1 X86.749 Y96.356 E16.08270
G1 X88.133 Y97.741 E16.25062
G1 X88.235 Y98.537 E16.31948
G1 X86.846 Y97.148 E16.48794
G1 X86.943 Y97.940 E16.55637
G1 X88.337 Y99.333 E16.72538
G1 X88.439 Y100.130 E16.79424
G1 X87.041 Y98.732 E16.96380
G1 X87.138 Y99.524 E17.03222
G1 X88.540 Y100.926 E17.20234
G1 X88.642 Y101.722 E17.27119
G1 X87.235 Y100.315 E17.44185
G1 X87.332 Y101.107 E17.51027
G1 X88.744 Y102.519 E17.68148
G1 X88.846 Y103.315 E17.75034
G1 X87.430 Y101.899 E17.92209
G1 X87.527 Y102.691 E17.99052
G1 X88.947 Y104.112 E18.16282
G1 X89.049 Y104.908 E18.23168
G1 X87.624 Y103.483 E18.40453
G1 X87.721 Y104.275 E18.47295
G1 X89.151 Y105.704 E18.64635
G1 X89.253 Y106.501 E18.71521
G1 X87.818 Y105.067 E18.88916
G1 X87.916 Y105.858 E18.95758
G1 X89.354 Y107.297 E19.13208
G1 X89.456 Y108.093 E19.20093
G1 X88.013 Y106.650 E19.37598
G1 X88.110 Y107.442 E19.44440
G1 X89.558 Y108.890 E19.62000
G1 X89.660 Y109.686 E19.68885
G1 X88.207 Y108.234 E19.86499
G1 X88.305 Y109.026 E19.93342
G1 X89.761 Y110.482 E20.11011
G1 X89.863 Y111.279 E20.17896
G1 X88.402 Y109.818 E20.35620
G1 X88.499 Y110.609 E20.42462
G1 X89.965 Y112.075 E20.60241
G1 X90.067 Y112.872 E20.67127
G1 X88.596 Y111.401 E20.84960
G1 X88.693 Y112.193 E20.91802
G1 X90.168 Y113.668 E21.09691
G1 X90.270 Y114.464 E21.16576
G1 X88.791 Y112.985 E21.34519
G1 X89.212 Y114.100 F6000.000
G1 X90.372 Y115.261 E21.48591 F1200.000
G1 X90.474 Y116.057 E21.55477
G1 X89.313 Y114.897 E21.69549
G1 X89.415 Y115.693 E21.76435
G1 X90.575 Y116.853 E21.90507
G1 X90.677 Y117.650 E21.97392
G1 X89.517 Y116.490 E22.11464
G1 X89.619 Y117.286 E22.18350
G1 X90.779 Y118.446 E22.32422
G1 X90.881 Y119.242 E22.39307
G1 X89.720 Y118.082 E22.53379
G1 X89.822 Y118.879 E22.60265
G1 X90.982 Y120.039 E22.74337
G1 X91.084 Y120.835 E22.81222
G1 X89.924 Y119.675 E22.95294
G1 X90.026 Y120.471 E23.02180
G1 X91.186 Y121.632 E23.16252
G1 X91.288 Y122.428 E23.23137
G1 X90.127 Y121.268 E23.37209
G1 X90.229 Y122.064 E23.44095
G1 X91.389 Y123.224 E23.58167
G1 X91.491 Y124.021 E23.65052
G1 X90.331 Y122.860 E23.79124
G1 X90.433 Y123.657 E23.86010
G1 X91.593 Y124.817 E24.00081
G1 X91.695 Y125.613 E24.06967
G1 X90.534 Y124.453 E24.21039
G1 X90.636 Y125.250 E24.27924
G1 X91.796 Y126.410 E24.41996
G1 X91.898 Y127.206 E24.48882
G1 X90.738 Y126.046 E24.62954
G1 X90.840 Y126.842 E24.69839
G1 X92.000 Y128.002 E24.83911
G1 X92.101 Y128.799 E24.90797
G1 X90.941 Y127.639 E25.04868
G1 X91.043 Y128.435 E25.11754
G1 X92.203 Y129.595 E25.25826
G1 X92.305 Y130.391 E25.32711
G1 X91.145 Y129.231 E25.46783
G1 X91.247 Y130.028 E25.53668
G1 X92.407 Y131.188 E25.67740
G1 X92.508 Y131.984 E25.74626
G1 X91.348 Y130.824 E25.88697
G1 X91.450 Y131.620 E25.95583
G1 X92.610 Y132.781 E26.09655
G1 X92.712 Y133.577 E26.16540
G1 X91.552 Y132.417 E26.30612
G1 X91.654 Y133.213 E26.37498
G1 X92.814 Y134.373 E26.51569
G1 X92.915 Y135.170 E26.58455
G1 X91.755 Y134.009 E26.72526
G1 X91.857 Y134.806 E26.79412
G1 X93.017 Y135.966 E26.93484
G1 X93.119 Y136.762 E27.00369
G1 X91.959 Y135.602 E27.14441
G1 X92.061 Y136.399 E27.21326
G1 X93.221 Y137.559 E27.35398
G1 X93.322 Y138.355 E27.42283
G1 X92.162 Y137.195 E27.56355
G1 X92.264 Y137.991 E27.63241
G1 X93.424 Y139.151 E27.77312
G1 X93.526 Y139.948 E27.84198
G1 X92.366 Y138.788 E27.98269
G1 X92.468 Y139.584 E28.05155
G1 X93.628 Y140.744 E28.19226
G1 X93.729 Y141.541 E28.26112
G1 X92.569 Y140.380 E28.40183
G1 X92.671 Y141.177 E28.47069
G1 X93.831 Y142.337 E28.61140
G1 X93.933 Y143.133 E28.68026
G1 X92.773 Y141.973 E28.82097
G1 X92.875 Y142.769 E28.88983
G1 X94.035 Y143.930 E29.03055
G1 X94.136 Y144.726 E29.09940
G1 X92.976 Y143.566 E29.24012
G1 X93.078 Y144.362 E29.30897
G1 X94.238 Y145.522 E29.44969
G1 X94.340 Y146.319 E29.51854
G1 X93.180 Y145.159 E29.65925
G1 X93.281 Y145.955 E29.72811
G1 X94.442 Y147.115 E29.86882
G1 X94.543 Y147.911 E29.93768
G1 X93.383 Y146.751 E30.07839
G1 X93.485 Y147.548 E30.14725
G1 X94.645 Y148.708 E30.28796
G1 X94.747 Y149.504 E30.35682
G1 X93.587 Y148.344 E30.49753
G1 X93.688 Y149.140 E30.56639
G1 X94.849 Y150.300 E30.70710
G1 X94.950 Y151.097 E30.77596
G1 X93.790 Y149.937 E30.91667
G1 X93.892 Y150.733 E30.98553
G1 X95.052 Y151.893 E31.12624
G1 X95.154 Y152.690 E31.19509
G1 X93.994 Y151.529 E31.33581
G1 X94.095 Y152.326 E31.40466
G1 X95.256 Y153.486 E31.54538
G1 X95.264 Y154.188 E31.60563
G1 X94.197 Y153.122 E31.73497
G1 X94.299 Y153.919 E31.80382
G1 X95.264 Y154.883 E31.92082
G1 X95.264 Y155.578 E31.98039
G1 X94.401 Y154.715 E32.08504
G1 X94.502 Y155.511 E32.15390
G1 X95.264 Y156.272 E32.24621
G1 X95.023 Y157.200 F6000.000
G1 X94.720 Y157.579 E32.28782 F1200.000
G1 X94.643 Y157.602 E32.29469
G1 X94.509 Y157.806 E32.31563
G1 X94.118 Y158.519 E32.38530
G1 X93.816 Y159.281 E32.45559
G1 X93.614 Y160.068 E32.52524
G1 X93.557 Y160.472 E32.56020
G1 X93.512 Y160.879 E32.59525
G1 X93.512 Y161.691 E32.66489
G1 X93.614 Y162.505 E32.73518
G1 X93.818 Y163.295 E32.80513
G1 X93.964 Y163.699 E32.84193
G1 X94.123 Y164.052 E32.87512
G1 X94.303 Y164.419 E32.91017
G1 X94.516 Y164.767 E32.94514
G1 X94.729 Y165.091 E32.97838
G1 X94.993 Y165.431 E33.01525
G1 X95.279 Y165.755 E33.05233
G1 X95.856 Y166.296 E33.12005
G1 X96.499 Y166.764 E33.18830
G1 X96.887 Y166.993 E33.22688
G1 X97.235 Y167.164 E33.26010
G1 X97.589 Y167.323 E33.29339
G1 X97.993 Y167.469 E33.33021
G1 X98.408 Y167.589 E33.36721
G1 X99.182 Y167.736 E33.43472
G1 X99.974 Y167.787 E33.50282
G1 X100.408 Y167.774 E33.54002
G1 X100.815 Y167.736 E33.57500
G1 X101.617 Y167.584 E33.64496
G1 X102.394 Y167.331 E33.71506
G1 X103.132 Y166.983 E33.78495
G1 X103.501 Y166.764 E33.82171
G1 X103.817 Y166.541 E33.85488
G1 X104.127 Y166.308 E33.88815
G1 X104.451 Y166.024 E33.92510
G1 X104.756 Y165.717 E33.96216
G1 X105.257 Y165.111 E34.02957
G1 X105.698 Y164.416 E34.10015
G1 X106.044 Y163.679 E34.16985
G1 X106.190 Y163.270 E34.20713
G1 X106.380 Y162.531 E34.27253
G1 X106.451 Y162.081 E34.31156
G1 X106.482 Y161.694 E34.34482
G1 X106.501 Y161.287 E34.37980
G1 X106.482 Y160.879 E34.41477
G1 X106.450 Y160.472 E34.44981
G1 X106.298 Y159.674 E34.51939
G1 X106.045 Y158.894 E34.58973
G1 X105.695 Y158.151 E34.66006
G1 X105.362 Y157.608 E34.71469
G1 X105.287 Y157.604 E34.72114
G1 X105.211 Y157.500 E34.73213
G1 Z1.700 F6000.000
G1 X111.194 Y113.346 F6000.000
G1 X105.573 Y157.345 E38.53414 F2100.000
G1 X105.964 Y158.008 E38.60006
G1 X106.158 Y158.389 E38.63676
G1 X106.328 Y158.781 E38.67339
G1 X106.473 Y159.184 E38.71006
G1 X106.592 Y159.594 E38.74665
G1 X106.685 Y160.011 E38.78333
G1 X106.752 Y160.433 E38.81995
G1 X106.793 Y160.860 E38.85665
G1 X106.806 Y161.287 E38.89328
G1 X106.793 Y161.714 E38.92991
G1 X106.752 Y162.140 E38.96660
G1 X106.685 Y162.562 E39.00322
G1 X106.592 Y162.980 E39.03991
G1 X106.473 Y163.390 E39.07650
G1 X106.328 Y163.792 E39.11317
G1 X106.158 Y164.184 E39.14980
G1 X105.964 Y164.566 E39.18649
G1 X105.747 Y164.934 E39.22313
G1 X105.507 Y165.286 E39.25970
G1 X105.244 Y165.625 E39.29638
G1 X104.961 Y165.946 E39.33308
G1 X104.664 Y166.243 E39.36910
G1 X104.245 Y166.603 E39.41643
G1 X103.647 Y167.033 E39.47959
G1 X103.279 Y167.250 E39.51624
G1 X102.898 Y167.445 E39.55294
G1 X102.506 Y167.614 E39.58947
G1 X102.103 Y167.759 E39.62624
G1 X101.692 Y167.879 E39.66287
G1 X101.276 Y167.972 E39.69947
G1 X100.853 Y168.039 E39.73615
G1 X100.427 Y168.079 E39.77278
G1 X100.000 Y168.093 E39.80944
G1 X99.573 Y168.079 E39.84610
G1 X99.147 Y168.039 E39.88273
G1 X98.724 Y167.972 E39.91941
G1 X98.308 Y167.879 E39.95601
G1 X97.897 Y167.759 E39.99264
G1 X97.494 Y167.614 E40.02941
G1 X97.102 Y167.445 E40.06594
G1 X96.721 Y167.250 E40.10264
G1 X96.353 Y167.033 E40.13928
G1 X96.000 Y166.793 E40.17589
G1 X95.661 Y166.531 E40.21260
G1 X95.341 Y166.248 E40.24918
G1 X95.039 Y165.946 E40.28584
G1 X94.756 Y165.625 E40.32254
G1 X94.493 Y165.286 E40.35922
G1 X94.253 Y164.934 E40.39580
G1 X94.036 Y164.566 E40.43243
G1 X93.842 Y164.184 E40.46913
G1 X93.672 Y163.792 E40.50576
G1 X93.527 Y163.390 E40.54243
G1 X93.408 Y162.980 E40.57902
G1 X93.315 Y162.562 E40.61570
G1 X93.248 Y162.140 E40.65232
G1 X93.207 Y161.714 E40.68902
G1 X93.194 Y161.287 E40.72564
G1 X93.207 Y160.860 E40.76227
G1 X93.248 Y160.433 E40.79897
G1 X93.315 Y160.011 E40.83559
G1 X93.408 Y159.594 E40.87227
G1 X93.527 Y159.184 E40.90886
G1 X93.672 Y158.781 E40.94553
G1 X93.842 Y158.389 E40.98217
G1 X94.036 Y158.008 E41.01887
G1 X94.427 Y157.345 E41.08479
G1 X88.806 Y113.346 E44.88679
G1 X88.530 Y113.380 E44.91056
G1 X83.274 Y70.569 E48.60768
G1 X83.339 Y70.560 E48.61329
G1 X81.518 Y56.270 E49.84806
G1 X80.555 Y42.960 E50.99190
G1 X80.834 Y42.926 E51.01591
G1 X83.120 Y56.079 E52.16023
G1 X95.557 Y153.419 E60.57142
G1 X95.557 Y156.976 E60.87637
G1 X95.215 Y157.353 E60.91998
G1 X94.769 Y157.967 E60.98501
G1 X94.394 Y158.649 E61.05169
G1 X94.108 Y159.372 E61.11840
G1 X93.914 Y160.126 E61.18507
G1 X93.816 Y160.898 E61.25177
G1 X93.816 Y161.676 E61.31847
G1 X93.914 Y162.448 E61.38517
G1 X94.103 Y163.183 E61.45021
G1 X94.247 Y163.585 E61.48682
G1 X94.571 Y164.272 E61.55192
G1 X94.978 Y164.913 E61.61700
G1 X95.227 Y165.235 E61.65190
G1 X95.497 Y165.541 E61.68686
G1 X96.051 Y166.061 E61.75199
G1 X96.665 Y166.507 E61.81707
G1 X97.032 Y166.725 E61.85366
G1 X97.703 Y167.040 E61.91719
G1 X98.477 Y167.291 E61.98691
G1 X99.224 Y167.434 E62.05209
G1 X99.982 Y167.481 E62.11722
G1 X100.794 Y167.431 E62.18698
G1 X101.541 Y167.288 E62.25216
G1 X102.280 Y167.048 E62.31880
G1 X102.968 Y166.725 E62.38388
G1 X103.335 Y166.507 E62.42048
G1 X103.934 Y166.072 E62.48396
G1 X104.240 Y165.802 E62.51893
G1 X104.528 Y165.514 E62.55386
G1 X105.012 Y164.929 E62.61896
G1 X105.429 Y164.272 E62.68562
G1 X105.753 Y163.585 E62.75072
G1 X105.897 Y163.183 E62.78734
G1 X106.081 Y162.466 E62.85076
G1 X106.148 Y162.045 E62.88731
G1 X106.196 Y161.287 E62.95243
G1 X106.147 Y160.510 E63.01916
G1 X106.001 Y159.746 E63.08576
G1 X105.761 Y159.006 E63.15252
G1 X105.429 Y158.302 E63.21922
G1 X105.012 Y157.645 E63.28589
G1 X104.443 Y156.976 E63.36114
G1 X104.443 Y153.419 E63.66609
G1 X116.880 Y56.079 E72.07729
G1 X119.166 Y42.926 E73.22160
G1 X119.444 Y42.960 E73.24561
G1 X118.482 Y56.270 E74.38945
G1 X116.661 Y70.560 E75.62422
G1 X116.726 Y70.569 E75.62983
G1 X111.470 Y113.380 E79.32694
G1 X111.269 Y113.355 E79.34429
G1 X111.619 Y113.893 F6000.000
G1 X106.081 Y157.241 E83.09000 F2100.000
G1 X106.394 Y157.771 E83.14281
G1 X106.603 Y158.180 E83.18214
G1 X106.785 Y158.600 E83.22141
G1 X106.940 Y159.032 E83.26072
G1 X107.068 Y159.472 E83.29996
G1 X107.168 Y159.919 E83.33929
G1 X107.240 Y160.372 E83.37856
G1 X107.283 Y160.829 E83.41790
G1 X107.297 Y161.287 E83.45717
G1 X107.283 Y161.745 E83.49644
G1 X107.240 Y162.202 E83.53578
G1 X107.168 Y162.654 E83.57505
G1 X107.068 Y163.102 E83.61438
G1 X106.940 Y163.541 E83.65362
G1 X106.785 Y163.973 E83.69293
G1 X106.603 Y164.393 E83.73220
G1 X106.394 Y164.802 E83.77153
G1 X106.161 Y165.197 E83.81083
G1 X105.904 Y165.575 E83.85005
G1 X105.623 Y165.938 E83.88936
G1 X105.319 Y166.282 E83.92869
G1 X104.998 Y166.603 E83.96763
G1 X104.556 Y166.983 E84.01762
G1 X103.910 Y167.448 E84.08581
G1 X103.515 Y167.681 E84.12508
G1 X103.107 Y167.890 E84.16442
G1 X102.687 Y168.071 E84.20363
G1 X102.255 Y168.226 E84.24300
G1 X101.815 Y168.355 E84.28229
G1 X101.368 Y168.454 E84.32154
G1 X100.915 Y168.526 E84.36086
G1 X100.458 Y168.569 E84.40014
G1 X100.000 Y168.584 E84.43944
G1 X99.542 Y168.569 E84.47874
G1 X99.085 Y168.526 E84.51802
G1 X98.632 Y168.454 E84.55734
G1 X98.185 Y168.355 E84.59660
G1 X97.745 Y168.226 E84.63588
G1 X97.313 Y168.071 E84.67525
G1 X96.893 Y167.890 E84.71446
G1 X96.485 Y167.681 E84.75380
G1 X96.090 Y167.448 E84.79307
G1 X95.711 Y167.190 E84.83235
G1 X95.348 Y166.909 E84.87168
G1 X95.005 Y166.606 E84.91093
G1 X94.681 Y166.282 E84.95024
G1 X94.377 Y165.938 E84.98957
G1 X94.096 Y165.575 E85.02888
G1 X93.839 Y165.197 E85.06810
G1 X93.606 Y164.802 E85.10740
G1 X93.397 Y164.393 E85.14673
G1 X93.215 Y163.973 E85.18600
G1 X93.060 Y163.541 E85.22531
G1 X92.932 Y163.102 E85.26455
G1 X92.832 Y162.654 E85.30388
G1 X92.760 Y162.202 E85.34315
G1 X92.717 Y161.745 E85.38249
G1 X92.703 Y161.287 E85.42176
G1 X92.717 Y160.829 E85.46103
G1 X92.760 Y160.372 E85.50037
G1 X92.832 Y159.919 E85.53964
G1 X92.932 Y159.472 E85.57897
G1 X93.060 Y159.032 E85.61821
G1 X93.215 Y158.600 E85.65752
G1 X93.397 Y158.180 E85.69679
G1 X93.606 Y157.771 E85.73612
G1 X93.919 Y157.241 E85.78893
G1 X88.381 Y113.893 E89.53464
G1 X88.103 Y113.927 E89.55862
G1 X82.727 Y70.142 E93.33983
G1 X82.790 Y70.134 E93.34525
G1 X81.030 Y56.319 E94.53895
G1 X79.602 Y36.580 E96.23533
G1 X80.261 Y35.433 E96.34870
G1 X80.489 Y35.509 E96.36935
G1 X80.304 Y37.012 E96.49915
G1 X83.606 Y56.006 E98.15164
G1 X96.047 Y153.387 E106.56647
G1 X96.047 Y157.188 E106.89219
G1 X95.849 Y157.376 E106.91564
G1 X95.598 Y157.660 E106.94814
G1 X95.184 Y158.230 E107.00855
G1 X94.839 Y158.858 E107.06994
G1 X94.575 Y159.524 E107.13135
G1 X94.397 Y160.218 E107.19273
G1 X94.307 Y160.929 E107.25413
G1 X94.307 Y161.645 E107.31554
G1 X94.397 Y162.356 E107.37694
G1 X94.572 Y163.038 E107.43736
G1 X94.701 Y163.397 E107.47000
G1 X95.002 Y164.035 E107.53046
G1 X95.380 Y164.630 E107.59090
G1 X95.850 Y165.199 E107.65415
G1 X96.364 Y165.682 E107.71464
G1 X96.935 Y166.096 E107.77508
G1 X97.262 Y166.290 E107.80770
G1 X97.891 Y166.586 E107.86723
G1 X98.592 Y166.813 E107.93041
G1 X99.285 Y166.946 E107.99092
G1 X99.989 Y166.990 E108.05139
G1 X100.725 Y166.944 E108.11460
G1 X101.419 Y166.811 E108.17511
G1 X102.100 Y166.590 E108.23647
G1 X102.738 Y166.290 E108.29692
G1 X103.065 Y166.096 E108.32954
G1 X103.627 Y165.688 E108.38904
G1 X103.904 Y165.444 E108.42071
G1 X104.165 Y165.183 E108.45235
G1 X104.615 Y164.639 E108.51281
G1 X104.998 Y164.035 E108.57419
G1 X105.299 Y163.397 E108.63464
G1 X105.428 Y163.038 E108.66728
G1 X105.600 Y162.366 E108.72675
G1 X105.660 Y161.991 E108.75934
G1 X105.704 Y161.287 E108.81982
G1 X105.659 Y160.571 E108.88125
G1 X105.525 Y159.869 E108.94257
G1 X105.303 Y159.187 E109.00403
G1 X104.998 Y158.539 E109.06543
G1 X104.615 Y157.934 E109.12681
G1 X104.159 Y157.383 E109.18808
G1 X103.953 Y157.188 E109.21246
G1 X103.953 Y153.387 E109.53818
G1 X116.394 Y56.006 E117.95301
G1 X119.696 Y37.012 E119.60550
G1 X119.511 Y35.509 E119.73530
G1 X119.739 Y35.433 E119.75595
G1 X120.398 Y36.580 E119.86932
G1 X118.970 Y56.319 E121.56569
G1 X117.210 Y70.134 E122.75940
G1 X117.273 Y70.142 E122.76482
G1 X111.897 Y113.927 E126.54603
G1 X111.694 Y113.902 E126.56358
G1 X112.011 Y114.397 F6000.000
G1 X106.550 Y157.144 E129.68012 F1050.000
G1 X106.791 Y157.553 E129.71448
G1 X107.012 Y157.987 E129.74970
G1 X107.206 Y158.434 E129.78490
G1 X107.371 Y158.892 E129.82012
G1 X107.506 Y159.359 E129.85528
G1 X107.613 Y159.835 E129.89053
G1 X107.689 Y160.315 E129.92571
G1 X107.735 Y160.800 E129.96097
G1 X107.750 Y161.287 E129.99615
G1 X107.735 Y161.773 E130.03134
G1 X107.689 Y162.258 E130.06660
G1 X107.613 Y162.739 E130.10178
G1 X107.506 Y163.214 E130.13702
G1 X107.371 Y163.681 E130.17219
G1 X107.206 Y164.140 E130.20741
G1 X107.012 Y164.586 E130.24260
G1 X106.791 Y165.020 E130.27783
G1 X106.543 Y165.440 E130.31306
G1 X106.270 Y165.842 E130.34822
G1 X105.971 Y166.226 E130.38343
G1 X105.649 Y166.592 E130.41865
G1 X105.306 Y166.935 E130.45377
G1 X104.842 Y167.334 E130.49803
G1 X104.555 Y167.556 E130.52427
G1 X104.153 Y167.830 E130.55949
G1 X103.734 Y168.078 E130.59468
G1 X103.300 Y168.299 E130.62992
G1 X102.853 Y168.492 E130.66509
G1 X102.395 Y168.657 E130.70032
G1 X101.927 Y168.793 E130.73553
G1 X101.452 Y168.899 E130.77073
G1 X100.971 Y168.976 E130.80595
G1 X100.487 Y169.021 E130.84115
G1 X100.000 Y169.037 E130.87636
G1 X99.513 Y169.021 E130.91157
G1 X99.029 Y168.976 E130.94678
G1 X98.548 Y168.899 E130.98200
G1 X98.073 Y168.793 E131.01719
G1 X97.605 Y168.657 E131.05241
G1 X97.147 Y168.492 E131.08763
G1 X96.700 Y168.299 E131.12281
G1 X96.266 Y168.078 E131.15805
G1 X95.847 Y167.830 E131.19323
G1 X95.445 Y167.556 E131.22845
G1 X95.060 Y167.258 E131.26367
G1 X94.695 Y166.936 E131.29885
G1 X94.351 Y166.592 E131.33409
G1 X94.029 Y166.226 E131.36931
G1 X93.730 Y165.842 E131.40452
G1 X93.457 Y165.440 E131.43968
G1 X93.209 Y165.020 E131.47491
G1 X92.988 Y164.586 E131.51014
G1 X92.794 Y164.140 E131.54533
G1 X92.629 Y163.681 E131.58055
G1 X92.494 Y163.214 E131.61572
G1 X92.387 Y162.739 E131.65096
G1 X92.311 Y162.258 E131.68614
G1 X92.265 Y161.773 E131.72140
G1 X92.250 Y161.287 E131.75658
G1 X92.265 Y160.800 E131.79177
G1 X92.311 Y160.315 E131.82703
G1 X92.387 Y159.835 E131.86221
G1 X92.494 Y159.359 E131.89745
G1 X92.629 Y158.892 E131.93262
G1 X92.794 Y158.434 E131.96784
G1 X92.988 Y157.987 E132.00303
G1 X93.209 Y157.553 E132.03826
G1 X93.450 Y157.144 E132.07262
G1 X87.989 Y114.397 E135.18916
G1 X87.709 Y114.431 E135.20955
G1 X82.223 Y69.748 E138.46523
G1 X82.283 Y69.741 E138.46965
G1 X80.579 Y56.364 E139.44487
G1 X79.140 Y36.474 E140.88703
G1 X80.285 Y34.481 E141.05326
G1 X80.906 Y34.405 E141.09846
G1 X80.993 Y35.119 E141.15047
G1 X80.761 Y37.001 E141.28759
G1 X84.053 Y55.939 E142.67771
G1 X96.500 Y153.359 E149.78027
G1 X96.500 Y157.382 E150.07125
G1 X96.175 Y157.690 E150.10362
G1 X95.952 Y157.943 E150.12803
G1 X95.567 Y158.473 E150.17542
G1 X95.249 Y159.051 E150.22309
G1 X95.006 Y159.664 E150.27078
G1 X94.843 Y160.303 E150.31846
G1 X94.760 Y160.957 E150.36614
G1 X94.760 Y161.616 E150.41383
G1 X94.843 Y162.271 E150.46152
G1 X95.006 Y162.905 E150.50890
G1 X95.120 Y163.223 E150.53336
G1 X95.399 Y163.816 E150.58075
G1 X95.750 Y164.370 E150.62814
G1 X96.175 Y164.884 E150.67639
G1 X96.653 Y165.333 E150.72381
G1 X97.183 Y165.718 E150.77120
G1 X97.474 Y165.890 E150.79563
G1 X98.064 Y166.167 E150.84275
G1 X98.698 Y166.373 E150.89097
G1 X99.342 Y166.496 E150.93839
G1 X99.996 Y166.537 E150.98579
G1 X100.662 Y166.496 E151.03402
G1 X101.306 Y166.372 E151.08144
G1 X101.933 Y166.169 E151.12911
G1 X102.526 Y165.890 E151.17650
G1 X102.817 Y165.718 E151.20093
G1 X103.344 Y165.335 E151.24805
G1 X103.830 Y164.878 E151.29630
G1 X104.248 Y164.373 E151.34371
G1 X104.601 Y163.816 E151.39138
G1 X104.880 Y163.223 E151.43878
G1 X104.994 Y162.905 E151.46323
G1 X105.157 Y162.274 E151.51033
G1 X105.209 Y161.941 E151.53473
G1 X105.250 Y161.287 E151.58216
G1 X105.209 Y160.628 E151.62987
G1 X105.086 Y159.981 E151.67749
G1 X104.882 Y159.354 E151.72523
G1 X104.601 Y158.757 E151.77291
G1 X104.248 Y158.200 E151.82058
G1 X103.828 Y157.693 E151.86824
G1 X103.500 Y157.382 E151.90089
G1 X103.500 Y153.359 E152.19187
G1 X115.947 Y55.939 E159.29443
G1 X119.239 Y37.001 E160.68454
G1 X119.007 Y35.119 E160.82167
G1 X119.094 Y34.405 E160.87368
G1 X119.715 Y34.481 E160.91888
G1 X120.860 Y36.474 E161.08511
G1 X119.421 Y56.364 E162.52727
G1 X117.717 Y69.741 E163.50249
G1 X117.777 Y69.748 E163.50691
G1 X112.291 Y114.431 E166.76259
G1 X112.086 Y114.406 E166.77755
G1 X111.515 Y114.334 F6000.000
G1 X104.866 Y153.407 F6000.000
G1 X105.655 Y153.407 E166.84526 F3000.000
G1 X105.486 Y148.548 E167.26196
G1 X106.276 Y148.548 E167.32966
G1 X106.120 Y143.589 E167.75493
G1 X106.910 Y143.589 E167.82264
G1 X106.741 Y138.731 E168.23933
G1 X107.016 Y138.731 E168.26292
G1 X107.066 Y138.680 E168.26900
G1 X107.537 Y138.680 E168.30937
G1 X107.368 Y133.822 E168.72607
G1 X108.158 Y133.822 E168.79378
G1 X108.001 Y128.863 E169.21904
G1 X108.791 Y128.863 E169.28675
G1 X108.622 Y124.004 E169.70345
G1 X109.412 Y124.004 E169.77116
G1 X109.256 Y119.045 E170.19642
G1 X110.046 Y119.045 E170.26413
G1 X109.876 Y114.187 E170.68083
G1 X110.666 Y114.187 E170.74854
G1 X110.510 Y109.228 E171.17381
G1 X111.559 Y109.228 E171.26373
G1 X111.131 Y104.369 E171.68179
G1 X111.924 Y104.369 E171.74983
G1 X111.975 Y104.319 E171.75592
G1 X112.162 Y104.319 E171.77195
G1 X112.758 Y99.461 E172.19153
G1 X111.975 Y99.461 E172.25870
G1 X111.924 Y99.411 E172.26478
G1 X111.764 Y99.411 E172.27852
G1 X112.391 Y94.502 E172.70269
G1 X113.367 Y94.502 E172.78633
G1 X113.012 Y89.643 E173.20388
G1 X113.964 Y89.643 E173.28545
G1 X113.646 Y84.684 E173.71138
G1 X114.573 Y84.684 E173.79083
G1 X114.266 Y79.826 E174.20810
G1 X115.169 Y79.826 E174.28548
G1 X114.900 Y74.867 E174.71116
G1 X115.778 Y74.867 E174.78642
G1 X115.521 Y70.008 E175.20345
G1 X116.311 Y70.008 E175.27119
G1 X116.883 Y65.100 E175.69479
G1 X116.833 Y65.049 E175.70087
G1 X116.154 Y65.049 E175.75906
G1 X116.775 Y60.191 E176.17889
G1 X116.833 Y60.191 E176.18388
G1 X116.883 Y60.141 E176.18996
G1 X118.137 Y52.456 F6000.000
G1 X118.647 Y48.308 E176.96907 F1200.000
G1 X119.008 Y45.367 E177.22299 F1200.000
G1 X119.335 Y42.700 F6000.000
G1 X119.845 Y38.551 E178.00210 F1200.000
G1 X119.845 Y38.551 F6000.000
G1 X120.032 Y37.007 E178.13545 F1200.000
G1 X120.024 Y36.665 E178.16477
G1 X119.851 Y36.147 E178.21154
G1 E176.21154 F2400.00000
G92 E0
G1 X80.088 Y36.330 F6000.000
G1 X80.088 Y36.330 F6000.000
G1 X80.149 Y36.147 F6000.000
G1 E2.00000 F2400.00000
G1 X79.976 Y36.665 E2.04678 F1200.000
G1 X79.968 Y37.007 E2.07610
G1 X80.155 Y38.551 E2.20944
G1 X80.155 Y38.551 F6000.000
G1 X80.665 Y42.700 E2.98855 F1200.000
G1 X80.992 Y45.367 F6000.000
G1 X81.353 Y48.308 E3.24247 F1200.000
G1 X81.353 Y48.308 F6000.000
G1 X81.863 Y52.456 E4.02158 F1200.000
G1 X81.865 Y55.282 F6000.000
G1 X82.472 Y55.282 E4.07360 F3000.000
G1 X82.522 Y55.232 E4.07969
G1 X82.549 Y55.232 E4.08202
G1 X82.432 Y60.141 E4.50289
G1 X82.472 Y60.141 E4.50632
G1 X82.522 Y60.191 E4.51241
G1 X83.225 Y60.191 E4.57264
G1 X83.057 Y65.049 E4.98933
G1 X83.846 Y65.049 E5.05691
G1 X83.689 Y70.008 E5.48218
G1 X84.479 Y70.008 E5.54991
G1 X84.222 Y74.867 E5.96694
G1 X85.100 Y74.867 E6.04221
G1 X84.831 Y79.826 E6.46788
G1 X85.734 Y79.826 E6.54526
G1 X85.427 Y84.684 E6.96253
G1 X86.354 Y84.684 E7.04198
G1 X86.036 Y89.643 E7.46791
G1 X86.988 Y89.643 E7.54948
G1 X86.633 Y94.502 E7.96703
G1 X87.381 Y94.502 E8.03115
G1 X87.431 Y94.552 E8.03723
G1 X87.615 Y94.552 E8.05301
G1 X88.236 Y99.411 E8.47284
G1 X87.431 Y99.411 E8.54182
G1 X87.381 Y99.461 E8.54791
G1 X87.242 Y99.461 E8.55983
G1 X87.844 Y104.369 E8.98374
G1 X88.869 Y104.369 E9.07159
G1 X88.441 Y109.228 E9.48965
G1 X89.490 Y109.228 E9.57958
G1 X89.334 Y114.187 E10.00484
G1 X90.124 Y114.187 E10.07255
G1 X89.954 Y119.045 E10.48925
G1 X90.744 Y119.045 E10.55696
G1 X90.588 Y124.004 E10.98222
G1 X91.378 Y124.004 E11.04993
G1 X91.209 Y128.863 E11.46663
G1 X91.999 Y128.863 E11.53434
G1 X92.626 Y133.772 E11.95851
G1 X92.340 Y133.772 E11.98303
G1 X92.290 Y133.822 E11.98912
G1 X91.842 Y133.822 E12.02745
G1 X92.469 Y138.731 E12.45162
G1 X93.259 Y138.731 E12.51933
G1 X93.090 Y143.589 E12.93602
G1 X93.880 Y143.589 E13.00373
G1 X93.724 Y148.548 E13.42899
G1 X94.514 Y148.548 E13.49670
G1 X94.345 Y153.407 E13.91340
G1 X95.134 Y153.407 E13.98111
G1 X95.023 Y157.200 F6000.000
G1 X94.720 Y157.579 E14.02271 F1200.000
G1 X94.643 Y157.602 E14.02958
G1 X94.509 Y157.806 E14.05052
G1 X94.118 Y158.519 E14.12020
G1 X93.816 Y159.281 E14.19049
G1 X93.614 Y160.069 E14.26013
G1 X93.557 Y160.472 E14.29510
G1 X93.512 Y160.879 E14.33014
G1 X93.512 Y161.691 E14.39978
G1 X93.614 Y162.505 E14.47008
G1 X93.818 Y163.295 E14.54002
G1 X93.964 Y163.699 E14.57683
G1 X94.123 Y164.052 E14.61002
G1 X94.303 Y164.419 E14.64507
G1 X94.516 Y164.767 E14.68004
G1 X94.729 Y165.091 E14.71328
G1 X94.993 Y165.431 E14.75014
G1 X95.279 Y165.755 E14.78723
G1 X95.856 Y166.296 E14.85495
G1 X96.499 Y166.764 E14.92319
G1 X96.887 Y166.993 E14.96178
G1 X97.235 Y167.164 E14.99500
G1 X97.589 Y167.323 E15.02829
G1 X97.993 Y167.469 E15.06511
G1 X98.408 Y167.589 E15.10211
G1 X99.182 Y167.736 E15.16962
G1 X99.974 Y167.787 E15.23771
G1 X100.408 Y167.774 E15.27491
G1 X100.815 Y167.736 E15.30989
G1 X101.617 Y167.584 E15.37985
G1 X102.394 Y167.331 E15.44996
G1 X103.132 Y166.983 E15.51985
G1 X103.501 Y166.764 E15.55661
G1 X103.817 Y166.541 E15.58978
G1 X104.122 Y166.310 E15.62257
G1 X104.456 Y166.019 E15.66056
G1 X104.756 Y165.717 E15.69704
G1 X105.257 Y165.111 E15.76445
G1 X105.698 Y164.416 E15.83503
G1 X106.044 Y163.679 E15.90473
G1 X106.190 Y163.270 E15.94201
G1 X106.380 Y162.531 E16.00741
G1 X106.451 Y162.081 E16.04644
G1 X106.482 Y161.694 E16.07970
G1 X106.501 Y161.287 E16.11468
G1 X106.482 Y160.879 E16.14965
G1 X106.450 Y160.472 E16.18469
G1 X106.298 Y159.674 E16.25427
G1 X106.045 Y158.894 E16.32461
G1 X105.695 Y158.151 E16.39495
G1 X105.362 Y157.608 E16.44957
G1 X105.287 Y157.604 E16.45603
G1 X105.211 Y157.500 E16.46701
G1 Z2.100 F6000.000
G1 X111.235 Y113.025 F6000.000
G1 X105.573 Y157.345 E20.29678 F2100.000
G1 X105.964 Y158.008 E20.36270
G1 X106.158 Y158.389 E20.39940
G1 X106.328 Y158.781 E20.43604
G1 X106.473 Y159.184 E20.47270
G1 X106.592 Y159.594 E20.50929
G1 X106.685 Y160.011 E20.54598
G1 X106.752 Y160.433 E20.58260
G1 X106.793 Y160.860 E20.61930
G1 X106.806 Y161.287 E20.65592
G1 X106.793 Y161.714 E20.69255
G1 X106.752 Y162.140 E20.72925
G1 X106.685 Y162.562 E20.76587
G1 X106.592 Y162.980 E20.80255
G1 X106.473 Y163.390 E20.83914
G1 X106.328 Y163.792 E20.87581
G1 X106.158 Y164.184 E20.91244
G1 X105.964 Y164.566 E20.94914
G1 X105.747 Y164.934 E20.98577
G1 X105.507 Y165.286 E21.02234
G1 X105.244 Y165.625 E21.05902
G1 X104.961 Y165.946 E21.09572
G1 X104.659 Y166.248 E21.13238
G1 X104.339 Y166.531 E21.16896
G1 X104.000 Y166.793 E21.20568
G1 X103.647 Y167.033 E21.24228
G1 X103.279 Y167.250 E21.27893
G1 X102.898 Y167.445 E21.31563
G1 X102.506 Y167.614 E21.35216
G1 X102.103 Y167.759 E21.38893
G1 X101.692 Y167.879 E21.42556
G1 X101.276 Y167.972 E21.46216
G1 X100.853 Y168.039 E21.49884
G1 X100.427 Y168.079 E21.53547
G1 X100.000 Y168.093 E21.57213
G1 X99.573 Y168.079 E21.60879
G1 X99.147 Y168.039 E21.64542
G1 X98.724 Y167.972 E21.68210
G1 X98.308 Y167.879 E21.71870
G1 X97.897 Y167.759 E21.75533
G1 X97.494 Y167.614 E21.79210
G1 X97.102 Y167.445 E21.82863
G1 X96.721 Y167.250 E21.86533
G1 X96.353 Y167.033 E21.90197
G1 X96.000 Y166.793 E21.93858
G1 X95.661 Y166.531 E21.97529
G1 X95.341 Y166.248 E22.01188
G1 X95.039 Y165.946 E22.04853
G1 X94.756 Y165.625 E22.08523
G1 X94.493 Y165.286 E22.12191
G1 X94.253 Y164.934 E22.15849
G1 X94.036 Y164.566 E22.19512
G1 X93.842 Y164.184 E22.23182
G1 X93.672 Y163.792 E22.26845
G1 X93.527 Y163.390 E22.30512
G1 X93.408 Y162.980 E22.34171
G1 X93.315 Y162.562 E22.37839
G1 X93.248 Y162.140 E22.41501
G1 X93.207 Y161.714 E22.45171
G1 X93.194 Y161.287 E22.48834
G1 X93.207 Y160.860 E22.52496
G1 X93.248 Y160.433 E22.56166
G1 X93.315 Y160.011 E22.59828
G1 X93.408 Y159.594 E22.63496
G1 X93.527 Y159.184 E22.67155
G1 X93.672 Y158.781 E22.70822
G1 X93.842 Y158.389 E22.74486
G1 X94.036 Y158.008 E22.78156
G1 X94.427 Y157.345 E22.84748
G1 X88.765 Y113.025 E26.67725
G1 X88.491 Y113.059 E26.70088
G1 X83.313 Y70.891 E30.34236
G1 X83.380 Y70.883 E30.34810
G1 X81.518 Y56.270 E31.61076
G1 X80.555 Y42.960 E32.75459
G1 X80.834 Y42.926 E32.77861
G1 X83.120 Y56.079 E33.92292
G1 X95.557 Y153.419 E42.33412
G1 X95.557 Y156.976 E42.63907
G1 X94.988 Y157.645 E42.71432
G1 X94.571 Y158.302 E42.78099
G1 X94.239 Y159.006 E42.84769
G1 X93.999 Y159.746 E42.91445
G1 X93.853 Y160.510 E42.98105
G1 X93.804 Y161.287 E43.04778
G1 X93.852 Y162.045 E43.11289
G1 X93.919 Y162.466 E43.14945
G1 X94.103 Y163.183 E43.21287
G1 X94.247 Y163.585 E43.24948
G1 X94.571 Y164.272 E43.31459
G1 X94.988 Y164.929 E43.38125
G1 X95.472 Y165.514 E43.44635
G1 X95.760 Y165.802 E43.48128
G1 X96.066 Y166.072 E43.51625
G1 X96.665 Y166.507 E43.57973
G1 X97.032 Y166.725 E43.61633
G1 X97.720 Y167.048 E43.68141
G1 X98.459 Y167.288 E43.74805
G1 X99.206 Y167.431 E43.81323
G1 X99.612 Y167.468 E43.84819
G1 X100.018 Y167.481 E43.88303
G1 X100.776 Y167.434 E43.94815
G1 X101.523 Y167.291 E44.01333
G1 X102.297 Y167.040 E44.08305
G1 X102.968 Y166.725 E44.14658
G1 X103.335 Y166.507 E44.18318
G1 X103.949 Y166.061 E44.24825
G1 X104.503 Y165.541 E44.31338
G1 X104.773 Y165.235 E44.34834
G1 X105.022 Y164.913 E44.38324
G1 X105.429 Y164.272 E44.44832
G1 X105.753 Y163.585 E44.51342
G1 X105.897 Y163.183 E44.55003
G1 X106.086 Y162.448 E44.61507
G1 X106.184 Y161.676 E44.68177
G1 X106.184 Y160.898 E44.74847
G1 X106.086 Y160.126 E44.81517
G1 X105.892 Y159.372 E44.88184
G1 X105.606 Y158.649 E44.94855
G1 X105.231 Y157.967 E45.01523
G1 X104.785 Y157.353 E45.08026
G1 X104.443 Y156.976 E45.12387
G1 X104.443 Y153.419 E45.42882
G1 X116.880 Y56.079 E53.84002
G1 X119.166 Y42.926 E54.98433
G1 X119.444 Y42.960 E55.00834
G1 X118.482 Y56.270 E56.15218
G1 X116.620 Y70.883 E57.41483
G1 X116.687 Y70.891 E57.42058
G1 X111.509 Y113.059 E61.06205
G1 X111.310 Y113.034 E61.07926
G1 X111.660 Y113.572 F6000.000
G1 X106.081 Y157.241 E64.85273 F2100.000
G1 X106.394 Y157.771 E64.90554
G1 X106.603 Y158.180 E64.94488
G1 X106.785 Y158.600 E64.98415
G1 X106.940 Y159.032 E65.02346
G1 X107.068 Y159.472 E65.06270
G1 X107.168 Y159.919 E65.10203
G1 X107.240 Y160.372 E65.14129
G1 X107.283 Y160.829 E65.18064
G1 X107.297 Y161.287 E65.21991
G1 X107.283 Y161.745 E65.25918
G1 X107.240 Y162.202 E65.29852
G1 X107.168 Y162.654 E65.33779
G1 X107.068 Y163.102 E65.37712
