; filename = Task.3w
; print_time = 4223
; machine = daVinciJR10
; filamentid = 50,50
; layer_height = 0.30
; fill_density = 0.10
; raft_layers = 0
; support_material = 0
; support_material_extruder = 1
; support_density = 0.15
; shells = 2
; speed = 15
; brim_width = 0
; total_layers = 173
; version = 15072012
; total_filament = 3193.84
; extruder_filament = 3193.84:0.00
; dimension = 40.94:40.94:51.95
; extruder = 1
G21 ; set units to millimeters
M107
;M104 S0 ; set temperature
;M109 S0 ; wait for temperature to be reached
G90 ; use absolute coordinates
G92 E0
M82 ; use absolute distances for extrusion
G1 F900.000 E-4.00000
G92 E0
G1 Z0.350 F6000.000
G1 X3.000 Y131.000
G1 F900.000 E4.00000
G1 X3.000 Y31.000 F300.000 E27.12274
G1 X5.000 Y31.000 E27.58519
G1 X5.000 Y131.000 E50.70793
G1 X4.250 Y131.000 E50.88011
G1 F900.000 E46.88011
G92 E0
G1 X61.250 Y88.738 F6000.000
G1 F900.000 E4.00000
G1 X55.550 Y74.988 F300.000 E5.37605
G1 X61.250 Y61.250 E6.75211
G1 X74.988 Y55.550 E8.12816
G1 X88.738 Y61.250 E9.50422
G1 X94.438 Y74.988 E10.88027
G1 X88.738 Y88.738 E12.25632
G1 X74.988 Y94.438 E13.63238
G1 X61.713 Y88.925 E14.96199
G1 X60.763 Y89.225 F6000.000
G1 X54.863 Y74.988 F300.000 E16.38674
G1 X60.763 Y60.763 E17.81150
G1 X74.988 Y54.863 E19.23626
G1 X89.225 Y60.763 E20.66101
G1 X95.125 Y74.988 E22.08577
G1 X89.225 Y89.225 E23.51053
G1 X74.988 Y95.125 E24.93528
G1 X61.225 Y89.413 E26.31359
G1 X61.000 Y88.638 F6000.000
G1 X61.213 Y87.450
G1 X62.538 Y88.775 F300.000 E26.48821
G1 X64.088 Y89.413 F6000.000
G1 X60.575 Y85.900 F300.000 E26.95034
G1 X59.938 Y84.363 F6000.000
G1 X65.625 Y90.050 F300.000 E27.69999
G1 X67.175 Y90.700 F6000.000
G1 X59.288 Y82.813 F300.000 E28.73717
G1 X58.650 Y81.275 F6000.000
G1 X68.713 Y91.338 F300.000 E30.06187
G1 X70.263 Y91.975 F6000.000
G1 X58.013 Y79.725 F300.000 E31.67410
G1 X57.375 Y78.188 F6000.000
G1 X71.800 Y92.613 F300.000 E33.57384
G1 X73.350 Y93.250 F6000.000
G1 X56.738 Y76.638 F300.000 E35.76111
G1 F900.000 E31.76111
G92 E0
G1 X74.900 Y93.888 F6000.000
G1 F900.000 E4.00000
G1 X56.100 Y75.088 F300.000 E6.47479
G1 X56.300 Y74.400 E6.54256
G1 X75.588 Y93.688 E9.08203
G1 X76.238 Y93.425 E9.14649
G1 X56.563 Y73.750 E11.73530
G1 X56.838 Y73.113 E11.79975
G1 X76.875 Y93.150 E14.43789
G1 X77.513 Y92.888 E14.50235
G1 X57.100 Y72.475 E17.18982
G1 X57.363 Y71.838 E17.25427
G1 X78.150 Y92.625 E19.99107
G1 X78.788 Y92.363 E20.05553
G1 X57.625 Y71.200 E22.84166
G1 X57.888 Y70.563 E22.90612
G1 X79.425 Y92.100 E25.74158
G1 X80.075 Y91.825 E25.80603
G1 X58.163 Y69.913 E28.69083
G1 X58.425 Y69.275 E28.75528
G1 X80.713 Y91.563 E31.68941
G1 X81.350 Y91.300 E31.75386
G1 X58.688 Y68.638 E34.73732
G1 X58.950 Y68.000 E34.80178
G1 X81.988 Y91.038 E37.83456
G1 X82.625 Y90.775 E37.89902
G1 X59.213 Y67.363 E40.98114
G1 X59.488 Y66.725 E41.04559
G1 X83.263 Y90.500 E44.17704
G1 X83.913 Y90.238 E44.24150
G1 X59.750 Y66.075 E47.42228
G1 X60.013 Y65.438 E47.48673
G1 X84.550 Y89.975 E50.71685
G1 X85.188 Y89.713 E50.78130
G1 X60.275 Y64.800 E54.06074
G1 X60.538 Y64.163 E54.12520
G1 X85.825 Y89.450 E57.45397
G1 X86.463 Y89.188 E57.51843
G1 X60.800 Y63.525 E60.89653
G1 X61.075 Y62.875 E60.96099
G1 X87.113 Y88.913 E64.38842
G1 X87.750 Y88.650 E64.45288
G1 X61.338 Y62.238 E67.92965
G1 X61.600 Y61.600 E67.99410
G1 X88.388 Y88.388 E71.52019
G1 X88.650 Y87.750 E71.58465
G1 X62.238 Y61.338 E75.06141
G1 X62.875 Y61.075 E75.12587
G1 X88.913 Y87.113 E78.55330
G1 X89.188 Y86.463 E78.61775
G1 X63.525 Y60.800 E81.99585
G1 X64.163 Y60.538 E82.06031
G1 X89.450 Y85.825 E85.38908
G1 X89.713 Y85.188 E85.45353
G1 X64.800 Y60.275 E88.73297
G1 X65.438 Y60.013 E88.79743
G1 X89.975 Y84.550 E92.02754
G1 X90.238 Y83.913 E92.09199
G1 X66.075 Y59.750 E95.27277
G1 X66.725 Y59.488 E95.33722
G1 X90.500 Y83.263 E98.46867
G1 X90.775 Y82.625 E98.53312
G1 X67.363 Y59.213 E101.61524
G1 X68.000 Y58.950 E101.67969
G1 X91.038 Y81.988 E104.71248
G1 X91.300 Y81.350 E104.77693
G1 X68.638 Y58.688 E107.76038
G1 X69.275 Y58.425 E107.82484
G1 X91.563 Y80.713 E110.75896
G1 X91.825 Y80.075 E110.82341
G1 X69.913 Y58.163 E113.70820
G1 X70.563 Y57.888 E113.77266
G1 X92.100 Y79.425 E116.60812
G1 X92.363 Y78.788 E116.67257
G1 X71.200 Y57.625 E119.45870
G1 X71.838 Y57.363 E119.52316
G1 X92.625 Y78.150 E122.25995
G1 X92.888 Y77.513 E122.32441
G1 X72.475 Y57.100 E125.01187
G1 X73.113 Y56.838 E125.07633
G1 X93.150 Y76.875 E127.71446
G1 X93.425 Y76.238 E127.77892
G1 X73.750 Y56.563 E130.36772
G1 X74.400 Y56.300 E130.43218
G1 X93.688 Y75.588 E132.97165
G1 X93.888 Y74.900 E133.03942
G1 X75.088 Y56.100 E135.51419
G1 X76.638 Y56.738 F6000.000
G1 X93.250 Y73.350 F300.000 E137.70143
G1 X92.613 Y71.800 F6000.000
G1 X78.188 Y57.375 F300.000 E139.60115
G1 X79.725 Y58.013 F6000.000
G1 X91.975 Y70.263 F300.000 E141.21335
G1 X91.338 Y68.713 F6000.000
G1 X81.275 Y58.650 F300.000 E142.53802
G1 X82.813 Y59.288 F6000.000
G1 X90.700 Y67.175 F300.000 E143.57518
G1 X90.050 Y65.625 F6000.000
G1 X84.363 Y59.938 F300.000 E144.32481
G1 X85.900 Y60.575 F6000.000
G1 X89.413 Y64.088 F300.000 E144.78691
G1 X88.775 Y62.538 F6000.000
G1 X87.450 Y61.213 F300.000 E144.96150
G1 F900.000 E140.96150
G92 E0
G1 Z0.650 F6000.000
G1 X60.975 Y89.013
G1 F900.000 E4.00000
G1 X55.175 Y74.988 F900.000 E4.75686
G1 X60.975 Y60.975 E5.51372
G1 X74.988 Y55.175 E6.27058
G1 X89.013 Y60.975 E7.02744
G1 X94.813 Y74.988 E7.78430
G1 X89.013 Y89.013 E8.54116
G1 X74.988 Y94.813 E9.29802
G1 X61.275 Y89.125 E10.03911
G1 X60.675 Y89.313 F6000.000
G1 X54.738 Y74.988 F900.000 E10.81250
G1 X60.675 Y60.675 E11.58589
G1 X74.988 Y54.738 E12.35929
G1 X89.313 Y60.675 E13.13268
G1 X95.250 Y74.988 E13.90607
G1 X89.313 Y89.313 E14.67946
G1 X74.988 Y95.250 E15.45285
G1 X60.963 Y89.438 E16.21048
G1 X60.825 Y88.950 F6000.000
G1 F900.000 E12.21048
G92 E0
G1 X75.213 Y94.400 F6000.000
G1 F900.000 E4.00000
G1 X94.400 Y75.213 F900.000 E5.42166
G1 X94.363 Y74.663 E5.45045
G1 X74.663 Y94.363 E6.90927
G1 X74.250 Y94.188 E6.93308
G1 X94.188 Y74.250 E8.41012
G1 X94.013 Y73.825 E8.43392
G1 X73.825 Y94.013 E9.92918
G1 X73.400 Y93.838 E9.95299
G1 X93.838 Y73.400 E11.46647
G1 X93.663 Y72.988 E11.49027
G1 X72.988 Y93.663 E13.02197
G1 X72.563 Y93.488 E13.04578
G1 X93.488 Y72.563 E14.59569
G1 X93.313 Y72.150 E14.61950
G1 X72.150 Y93.313 E16.18763
G1 X71.725 Y93.138 E16.21144
G1 X93.138 Y71.725 E17.79779
G1 X92.963 Y71.300 E17.82160
G1 X71.300 Y92.963 E19.42617
G1 X70.888 Y92.800 E19.44998
G1 X92.800 Y70.888 E21.07277
G1 X92.625 Y70.463 E21.09657
G1 X70.463 Y92.625 E22.73759
G1 X70.050 Y92.450 E22.76139
G1 X92.450 Y70.050 E24.42062
G1 X92.275 Y69.625 E24.44443
G1 X69.625 Y92.275 E26.12188
G1 X69.200 Y92.100 E26.14568
G1 X92.100 Y69.200 E27.84135
G1 X91.925 Y68.788 E27.86515
G1 X68.788 Y91.925 E29.57904
G1 X68.363 Y91.750 E29.60285
G1 X91.750 Y68.363 E31.33495
G1 X91.575 Y67.950 E31.35876
G1 X67.950 Y91.575 E33.10908
G1 X67.525 Y91.400 E33.13289
G1 X91.400 Y67.525 E34.90143
G1 X91.225 Y67.100 E34.92524
G1 X67.100 Y91.225 E36.71200
G1 X66.688 Y91.050 E36.73581
G1 X91.050 Y66.688 E38.54079
G1 X90.888 Y66.263 E38.56459
G1 X66.263 Y90.888 E40.38780
G1 X65.850 Y90.713 E40.41160
G1 X90.713 Y65.850 E42.25302
G1 X90.538 Y65.425 E42.27682
G1 X65.425 Y90.538 E44.13646
G1 X65.013 Y90.363 E44.16027
G1 X90.363 Y65.013 E46.03813
G1 X90.188 Y64.588 E46.06193
G1 X64.588 Y90.188 E47.95801
G1 X64.163 Y90.013 E47.98181
G1 X90.013 Y64.163 E49.89611
G1 X89.838 Y63.750 E49.91991
G1 X63.750 Y89.838 E51.85243
G1 X63.325 Y89.663 E51.87623
G1 X89.663 Y63.325 E53.82697
G1 X89.488 Y62.913 E53.85077
G1 X62.913 Y89.488 E55.81973
G1 X62.488 Y89.313 E55.84353
G1 X89.313 Y62.488 E57.83070
G1 X89.138 Y62.063 E57.85451
G1 X62.063 Y89.138 E59.85990
G1 X61.650 Y88.963 E59.88370
G1 X88.963 Y61.650 E61.90731
G1 X88.800 Y61.225 E61.93112
G1 X61.225 Y88.800 E63.97295
G1 X61.038 Y88.388 E63.99637
G1 X88.388 Y61.038 E66.02207
G1 X87.963 Y60.863 E66.04587
G1 X60.863 Y87.963 E68.05334
G1 X60.688 Y87.550 E68.07715
G1 X87.550 Y60.688 E70.06640
G1 X87.125 Y60.513 E70.09020
G1 X60.513 Y87.125 E72.06124
G1 X60.338 Y86.713 E72.08504
G1 X86.713 Y60.338 E74.03785
G1 X86.288 Y60.175 E74.06166
G1 X60.175 Y86.288 E75.99625
G1 X60.000 Y85.875 E76.02006
G1 X85.875 Y60.000 E77.93644
G1 X85.450 Y59.825 E77.96024
G1 X59.825 Y85.450 E79.85840
G1 X59.650 Y85.025 E79.88220
G1 X85.025 Y59.650 E81.76214
G1 X84.613 Y59.475 E81.78595
G1 X59.475 Y84.613 E83.64767
G1 X59.300 Y84.188 E83.67147
G1 X84.188 Y59.300 E85.51497
G1 X83.775 Y59.125 E85.53877
G1 X59.125 Y83.775 E87.36406
G1 X58.950 Y83.350 E87.38786
G1 X83.350 Y58.950 E89.19492
G1 X82.925 Y58.775 E89.21873
G1 X58.775 Y82.925 E91.00757
G1 X58.600 Y82.513 E91.03138
G1 X82.513 Y58.600 E92.80200
G1 X82.088 Y58.425 E92.82581
G1 X58.425 Y82.088 E94.57821
G1 X58.250 Y81.675 E94.60202
G1 X81.675 Y58.250 E96.33620
G1 X81.250 Y58.088 E96.36001
G1 X58.088 Y81.250 E98.07597
G1 X57.913 Y80.825 E98.09978
G1 X80.825 Y57.913 E99.79753
G1 X80.413 Y57.738 E99.82133
G1 X57.738 Y80.413 E101.50086
G1 X57.563 Y79.988 E101.52467
G1 X79.988 Y57.563 E103.18598
G1 X79.575 Y57.388 E103.20978
G1 X57.388 Y79.575 E104.85287
G1 X57.213 Y79.150 E104.87668
G1 X79.150 Y57.213 E106.50155
G1 X78.725 Y57.038 E106.52536
G1 X57.038 Y78.725 E108.13201
G1 X56.863 Y78.313 E108.15581
G1 X78.313 Y56.863 E109.74425
G1 X77.888 Y56.688 E109.76805
G1 X56.688 Y77.888 E111.33827
G1 X56.513 Y77.475 E111.36208
G1 X77.475 Y56.513 E112.91407
G1 X77.050 Y56.338 E112.93788
G1 X56.338 Y77.050 E114.47166
G1 X56.175 Y76.625 E114.49546
G1 X76.625 Y56.175 E116.01102
G1 X76.213 Y56.000 E116.03482
G1 X56.000 Y76.213 E117.53216
G1 X55.825 Y75.788 E117.55597
G1 X75.788 Y55.825 E119.03509
G1 X75.375 Y55.650 E119.05889
G1 X55.650 Y75.375 E120.51980
G1 X55.538 Y74.888 E120.54563
G1 X74.888 Y55.538 E121.97942
G1 X73.875 Y55.950 F6000.000
G1 X55.950 Y73.875 F900.000 E123.30701
G1 X56.375 Y72.863 F6000.000
G1 X72.863 Y56.375 F900.000 E124.52842
G1 X71.850 Y56.788 F6000.000
G1 X56.788 Y71.850 F900.000 E125.64364
G1 X57.213 Y70.838 F6000.000
G1 X70.838 Y57.213 F900.000 E126.65267
G1 X69.825 Y57.638 F6000.000
G1 X57.638 Y69.825 F900.000 E127.55551
G1 X58.050 Y68.813 F6000.000
G1 X68.813 Y58.050 F900.000 E128.35217
G1 X67.800 Y58.475 F6000.000
G1 X58.475 Y67.800 F900.000 E129.04263
G1 X58.888 Y66.775 F6000.000
G1 X66.775 Y58.888 F900.000 E129.62691
G1 X65.763 Y59.313 F6000.000
G1 X59.313 Y65.763 F900.000 E130.10500
G1 X59.738 Y64.750 F6000.000
G1 X64.750 Y59.738 F900.000 E130.47691
G1 X63.738 Y60.150 F6000.000
G1 X60.150 Y63.738 F900.000 E130.74262
G1 X60.575 Y62.725 F6000.000
G1 X62.725 Y60.575 F900.000 E130.90215
G1 X61.713 Y60.988 F6000.000
G1 X60.988 Y61.713 F900.000 E130.95549
G1 F900.000 E126.95549
G92 E0
G1 X76.225 Y93.988 F6000.000
G1 F900.000 E4.00000
G1 X93.988 Y76.225 F900.000 E5.31547
G1 X93.563 Y77.238 F6000.000
G1 X77.238 Y93.563 F900.000 E6.52476
G1 X78.250 Y93.150 F6000.000
G1 X93.150 Y78.250 F900.000 E7.62785
G1 X92.725 Y79.263 F6000.000
G1 X79.263 Y92.725 F900.000 E8.62476
G1 X80.275 Y92.313 F6000.000
G1 X92.313 Y80.275 F900.000 E9.51548
G1 X91.888 Y81.300 F6000.000
G1 X81.300 Y91.888 F900.000 E10.30001
G1 X82.313 Y91.463 F6000.000
G1 X91.463 Y82.313 F900.000 E10.97835
G1 X91.050 Y83.325 F6000.000
G1 X83.325 Y91.050 F900.000 E11.55051
G1 X84.338 Y90.625 F6000.000
G1 X90.625 Y84.338 F900.000 E12.01648
G1 X90.213 Y85.350 F6000.000
G1 X85.350 Y90.213 F900.000 E12.37626
G1 X86.363 Y89.788 F6000.000
G1 X89.788 Y86.363 F900.000 E12.62985
G1 X89.363 Y87.375 F6000.000
G1 X87.375 Y89.363 F900.000 E12.77725
G1 X88.388 Y88.950 F6000.000
G1 X88.950 Y88.388 F900.000 E12.81847
G1 F900.000 E8.81847
G92 E0
G1 Z0.950 F6000.000
G1 X60.975 Y89.013
G1 F900.000 E4.00000
G1 X55.175 Y74.988 F900.000 E4.75686
G1 X60.975 Y60.975 E5.51372
G1 X74.988 Y55.175 E6.27058
G1 X89.013 Y60.975 E7.02744
G1 X94.813 Y74.988 E7.78430
G1 X89.013 Y89.013 E8.54116
G1 X74.988 Y94.813 E9.29802
G1 X61.275 Y89.125 E10.03911
G1 X60.675 Y89.313 F6000.000
G1 X54.738 Y74.988 F900.000 E10.81250
G1 X60.675 Y60.675 E11.58589
G1 X74.988 Y54.738 E12.35929
G1 X89.313 Y60.675 E13.13268
G1 X95.250 Y74.988 E13.90607
G1 X89.313 Y89.313 E14.67946
G1 X74.988 Y95.250 E15.45285
G1 X60.963 Y89.438 E16.21048
G1 X60.825 Y88.950 F6000.000
G1 X60.800 Y87.825
G1 X62.163 Y89.188 F900.000 E16.31085
G1 X63.175 Y89.600 F6000.000
G1 X60.388 Y86.813 F900.000 E16.51741
G1 X59.963 Y85.800 F6000.000
G1 X64.188 Y90.025 F900.000 E16.83016
G1 X65.200 Y90.438 F6000.000
G1 X59.550 Y84.788 F900.000 E17.24909
G1 X59.125 Y83.775 F6000.000
G1 X66.213 Y90.863 F900.000 E17.77422
G1 X67.225 Y91.275 F6000.000
G1 X58.713 Y82.763 F900.000 E18.40553
G1 X58.288 Y81.738 F6000.000
G1 X68.250 Y91.700 F900.000 E19.14303
G1 X69.263 Y92.125 F6000.000
G1 X57.863 Y80.725 F900.000 E19.98672
G1 X57.450 Y79.713 F6000.000
G1 X70.275 Y92.538 F900.000 E20.93659
G1 X71.288 Y92.963 F6000.000
G1 X57.025 Y78.700 F900.000 E21.99266
G1 X56.613 Y77.688 F6000.000
G1 X72.300 Y93.375 F900.000 E23.15491
G1 X73.313 Y93.800 F6000.000
G1 X56.188 Y76.675 F900.000 E24.42335
G1 F900.000 E20.42335
G92 E0
G1 X74.325 Y94.225 F6000.000
G1 F900.000 E4.00000
G1 X55.763 Y75.663 F900.000 E5.37463
G1 X55.550 Y74.850 E5.41859
G1 X75.138 Y94.438 E6.86934
G1 X75.563 Y94.263 E6.89314
G1 X55.725 Y74.425 E8.36212
G1 X55.900 Y74.013 E8.38592
G1 X75.975 Y94.088 E9.87311
G1 X76.400 Y93.913 E9.89692
G1 X56.075 Y73.588 E11.40233
G1 X56.250 Y73.175 E11.42613
G1 X76.813 Y93.738 E12.94976
G1 X77.238 Y93.563 E12.97356
G1 X56.425 Y72.750 E14.51541
G1 X56.600 Y72.325 E14.53922
G1 X77.663 Y93.388 E16.09928
G1 X78.075 Y93.225 E16.12309
G1 X56.763 Y71.913 E17.70137
G1 X56.938 Y71.488 E17.72518
G1 X78.500 Y93.050 E19.32168
G1 X78.913 Y92.875 E19.34549
G1 X57.113 Y71.075 E20.96021
G1 X57.288 Y70.650 E20.98402
G1 X79.338 Y92.700 E22.61696
G1 X79.763 Y92.525 E22.64076
G1 X57.463 Y70.225 E24.29193
G1 X57.638 Y69.813 E24.31573
G1 X80.175 Y92.350 E25.98511
G1 X80.600 Y92.175 E26.00891
G1 X57.813 Y69.388 E27.69651
G1 X57.988 Y68.975 E27.72032
G1 X81.013 Y92.000 E29.42614
G1 X81.438 Y91.825 E29.44994
G1 X58.163 Y68.550 E31.17398
G1 X58.338 Y68.138 E31.19778
G1 X81.850 Y91.650 E32.94004
G1 X82.275 Y91.475 E32.96384
G1 X58.513 Y67.713 E34.72432
G1 X58.675 Y67.288 E34.74812
G1 X82.700 Y91.313 E36.52682
G1 X83.113 Y91.138 E36.55062
G1 X58.850 Y66.875 E38.34754
G1 X59.025 Y66.450 E38.37134
G1 X83.538 Y90.963 E40.18647
G1 X83.950 Y90.788 E40.21028
G1 X59.200 Y66.038 E42.04363
G1 X59.375 Y65.613 E42.06743
G1 X84.375 Y90.613 E43.91900
G1 X84.800 Y90.438 E43.94281
G1 X59.550 Y65.188 E45.81260
G1 X59.725 Y64.775 E45.83640
G1 X85.213 Y90.263 E47.72441
G1 X85.638 Y90.088 E47.74821
G1 X59.900 Y64.350 E49.65444
G1 X60.075 Y63.938 E49.67825
G1 X86.050 Y89.913 E51.60269
G1 X86.475 Y89.738 E51.62650
G1 X60.250 Y63.513 E53.56916
G1 X60.425 Y63.088 E53.59297
G1 X86.900 Y89.563 E55.55385
G1 X87.313 Y89.388 E55.57766
G1 X60.600 Y62.675 E57.55676
G1 X60.763 Y62.250 E57.58056
G1 X87.738 Y89.225 E59.57788
G1 X88.150 Y89.050 E59.60169
G1 X60.938 Y61.838 E61.61723
G1 X61.113 Y61.413 E61.64103
G1 X88.575 Y88.875 E63.67479
G1 X88.875 Y88.575 E63.69679
G1 X61.413 Y61.113 E65.73055
G1 X61.838 Y60.938 E65.75435
G1 X89.050 Y88.150 E67.76989
G1 X89.225 Y87.738 E67.79370
G1 X62.250 Y60.763 E69.79102
G1 X62.675 Y60.600 E69.81482
G1 X89.388 Y87.313 E71.79393
G1 X89.563 Y86.900 E71.81773
G1 X63.088 Y60.425 E73.77861
G1 X63.513 Y60.250 E73.80242
G1 X89.738 Y86.475 E75.74508
G1 X89.913 Y86.050 E75.76889
G1 X63.938 Y60.075 E77.69333
G1 X64.350 Y59.900 E77.71714
G1 X90.088 Y85.638 E79.62336
G1 X90.263 Y85.213 E79.64717
G1 X64.775 Y59.725 E81.53518
G1 X65.188 Y59.550 E81.55898
G1 X90.438 Y84.800 E83.42877
G1 X90.613 Y84.375 E83.45258
G1 X65.613 Y59.375 E85.30415
G1 X66.038 Y59.200 E85.32795
G1 X90.788 Y83.950 E87.16130
G1 X90.963 Y83.538 E87.18511
G1 X66.450 Y59.025 E89.00024
G1 X66.875 Y58.850 E89.02404
G1 X91.138 Y83.113 E90.82096
G1 X91.313 Y82.700 E90.84476
G1 X67.288 Y58.675 E92.62345
G1 X67.713 Y58.513 E92.64726
G1 X91.475 Y82.275 E94.40773
G1 X91.650 Y81.850 E94.43154
G1 X68.138 Y58.338 E96.17379
G1 X68.550 Y58.163 E96.19760
G1 X91.825 Y81.438 E97.92164
G1 X92.000 Y81.013 E97.94544
G1 X68.975 Y57.988 E99.65126
G1 X69.388 Y57.813 E99.67506
G1 X92.175 Y80.600 E101.36266
G1 X92.350 Y80.175 E101.38647
G1 X69.813 Y57.638 E103.05585
G1 X70.225 Y57.463 E103.07965
G1 X92.525 Y79.763 E104.73081
G1 X92.700 Y79.338 E104.75462
G1 X70.650 Y57.288 E106.38756
G1 X71.075 Y57.113 E106.41136
G1 X92.875 Y78.913 E108.02609
G1 X93.050 Y78.500 E108.04989
G1 X71.488 Y56.938 E109.64640
G1 X71.913 Y56.763 E109.67020
G1 X93.225 Y78.075 E111.24849
G1 X93.388 Y77.663 E111.27229
G1 X72.325 Y56.600 E112.83236
G1 X72.750 Y56.425 E112.85616
G1 X93.563 Y77.238 E114.39801
G1 X93.738 Y76.813 E114.42181
G1 X73.175 Y56.250 E115.94544
G1 X73.588 Y56.075 E115.96925
G1 X93.913 Y76.400 E117.47466
G1 X94.088 Y75.975 E117.49846
G1 X74.013 Y55.900 E118.98565
G1 X74.425 Y55.725 E119.00946
G1 X94.263 Y75.563 E120.47843
G1 X94.438 Y75.138 E120.50223
G1 X74.850 Y55.550 E121.95299
G1 X75.663 Y55.763 E121.99695
G1 X94.225 Y74.325 E123.37157
G1 X93.800 Y73.313 F6000.000
G1 X76.675 Y56.188 F900.000 E124.64001
G1 X77.688 Y56.613 F6000.000
G1 X93.375 Y72.300 F900.000 E125.80226
G1 X92.963 Y71.288 F6000.000
G1 X78.700 Y57.025 F900.000 E126.85833
G1 X79.713 Y57.450 F6000.000
G1 X92.538 Y70.275 F900.000 E127.80820
G1 X92.125 Y69.263 F6000.000
G1 X80.725 Y57.863 F900.000 E128.65189
G1 X81.738 Y58.288 F6000.000
G1 X91.700 Y68.250 F900.000 E129.38939
G1 X91.275 Y67.225 F6000.000
G1 X82.763 Y58.713 F900.000 E130.02070
G1 X83.775 Y59.125 F6000.000
G1 X90.863 Y66.213 F900.000 E130.54582
G1 X90.438 Y65.200 F6000.000
G1 X84.788 Y59.550 F900.000 E130.96475
G1 X85.800 Y59.963 F6000.000
G1 X90.025 Y64.188 F900.000 E131.27750
G1 X89.600 Y63.175 F6000.000
G1 X86.813 Y60.388 F900.000 E131.48406
G1 X87.825 Y60.800 F6000.000
G1 X89.188 Y62.163 F900.000 E131.58443
M106 S199.641
G1 F900.000 E127.58443
G92 E0
G1 Z1.250 F6000.000
G1 X60.975 Y89.013
G1 F900.000 E4.00000
G1 X55.175 Y74.988 F900.000 E4.75686
G1 X60.975 Y60.975 E5.51372
G1 X74.988 Y55.175 E6.27058
G1 X89.013 Y60.975 E7.02744
G1 X94.813 Y74.988 E7.78430
G1 X89.013 Y89.013 E8.54116
G1 X74.988 Y94.813 E9.29802
G1 X61.275 Y89.125 E10.03911
G1 X60.675 Y89.313 F6000.000
G1 X54.738 Y74.988 F900.000 E10.81250
G1 X60.675 Y60.675 E11.58589
G1 X74.988 Y54.738 E12.35929
G1 X89.313 Y60.675 E13.13268
G1 X95.250 Y74.988 E13.90607
G1 X89.313 Y89.313 E14.67946
G1 X74.988 Y95.250 E15.45285
G1 X60.963 Y89.438 E16.21048
G1 X60.825 Y88.950 F6000.000
G1 F900.000 E12.21048
G92 E0
G1 X62.825 Y89.450 F6000.000
G1 F900.000 E4.00000
G1 X63.475 Y87.013 F900.000 E4.13235
G1 X60.050 Y83.575 E4.38572
G1 X59.150 Y83.825 E4.43455
G1 F900.000 E0.43455
G92 E0
G1 X56.063 Y76.363 F6000.000
G1 F900.000 E4.00000
G1 X57.975 Y75.850 F900.000 E4.10386
G1 X61.413 Y79.275 E4.35723
G1 X60.338 Y83.300 E4.57441
G1 X63.763 Y86.725 E4.82778
G1 X67.775 Y85.650 E5.04496
G1 X71.213 Y89.075 E5.29833
G1 X70.275 Y92.538 E5.48571
G1 F900.000 E1.48571
G92 E0
G1 X78.413 Y93.075 F6000.000
G1 F900.000 E4.00000
G1 X78.938 Y91.150 F900.000 E4.10431
G1 X75.500 Y87.725 E4.35769
G1 X71.488 Y88.800 E4.57486
G1 X68.063 Y85.363 E4.82824
G1 X69.138 Y81.350 E5.04542
G1 X65.713 Y77.925 E5.29879
G1 X61.688 Y79.000 E5.51597
G1 X58.263 Y75.575 E5.76934
G1 X59.338 Y71.550 E5.98652
G1 X57.625 Y69.838 E6.11309
G1 X57.788 Y69.438 E6.13571
G1 X59.625 Y71.275 E6.27093
G1 X63.638 Y70.200 E6.48811
G1 X67.063 Y73.625 E6.74148
G1 X65.988 Y77.638 E6.95866
G1 X69.425 Y81.075 E7.21203
G1 X73.438 Y79.988 E7.42921
G1 X76.863 Y83.425 E7.68259
G1 X75.788 Y87.438 E7.89976
G1 X79.213 Y90.863 E8.15314
G1 X83.238 Y89.788 E8.37032
G1 X84.150 Y90.700 E8.43786
G1 X84.550 Y90.538 E8.46048
G1 X83.513 Y89.513 E8.53669
G1 X84.588 Y85.488 E8.75387
G1 X81.163 Y82.063 E9.00724
G1 X77.150 Y83.138 E9.22442
G1 X73.713 Y79.713 E9.47779
G1 X74.788 Y75.700 E9.69497
G1 X71.363 Y72.263 E9.94835
G1 X67.350 Y73.338 E10.16552
G1 X63.925 Y69.913 E10.41890
G1 X65.000 Y65.900 E10.63608
G1 X61.563 Y62.463 E10.88945
G1 X60.575 Y62.738 E10.94339
G1 X62.225 Y60.775 E11.07726
G1 X61.850 Y62.188 E11.15325
G1 X65.275 Y65.613 E11.40662
G1 X69.288 Y64.538 E11.62380
G1 X72.725 Y67.963 E11.87718
G1 X71.650 Y71.988 E12.09435
G1 X75.075 Y75.413 E12.34773
G1 X79.088 Y74.338 E12.56491
G1 X82.525 Y77.763 E12.81828
G1 X81.450 Y81.775 E13.03546
G1 X84.875 Y85.213 E13.28883
G1 X88.888 Y84.138 E13.50601
G1 X90.175 Y85.425 E13.60115
G1 X90.338 Y85.025 E13.62377
G1 X89.175 Y83.850 E13.71026
G1 X90.250 Y79.838 E13.92744
G1 X86.825 Y76.413 E14.18081
G1 X82.800 Y77.488 E14.39799
G1 X79.375 Y74.050 E14.65136
G1 X80.450 Y70.038 E14.86854
G1 X77.025 Y66.613 E15.12192
G1 X73.000 Y67.688 E15.33909
G1 X69.575 Y64.250 E15.59247
G1 X70.650 Y60.238 E15.80965
G1 X68.563 Y58.150 E15.96381
G1 X68.963 Y57.988 E15.98643
G1 X70.938 Y59.963 E16.13193
G1 X74.950 Y58.888 E16.34911
G1 X78.375 Y62.313 E16.60248
G1 X77.300 Y66.325 E16.81966
G1 X80.738 Y69.750 E17.07303
G1 X84.750 Y68.675 E17.29021
G1 X88.175 Y72.113 E17.54359
G1 X87.100 Y76.125 E17.76076
G1 X90.525 Y79.550 E18.01414
G1 X92.863 Y78.925 E18.14050
G1 X92.925 Y71.200 E18.54428
G1 X92.475 Y70.750 E18.57745
G1 X88.463 Y71.825 E18.79463
G1 X85.025 Y68.400 E19.04800
G1 X86.113 Y64.375 E19.26518
G1 X82.675 Y60.950 E19.51856
G1 X78.663 Y62.025 E19.73574
G1 X75.238 Y58.600 E19.98911
G1 X75.963 Y55.888 E20.13557
G1 F900.000 E16.13557
G92 E0
G1 X83.413 Y58.975 F6000.000
G1 F900.000 E4.00000
G1 X82.963 Y60.675 F900.000 E4.09143
G1 X86.388 Y64.100 E4.34481
G1 X89.625 Y63.238 E4.51976
M106 S197.109
G1 F900.000 E0.51976
G92 E0
G1 Z1.550 F6000.000
G1 X60.975 Y89.013
G1 F900.000 E4.00000
G1 X55.175 Y74.988 F900.000 E4.75686
G1 X60.975 Y60.975 E5.51372
G1 X74.988 Y55.175 E6.27058
G1 X89.013 Y60.975 E7.02744
G1 X94.813 Y74.988 E7.78430
G1 X89.013 Y89.013 E8.54116
G1 X74.988 Y94.813 E9.29802
G1 X61.275 Y89.125 E10.03911
G1 X60.675 Y89.313 F6000.000
G1 X54.738 Y74.988 F900.000 E10.81250
G1 X60.675 Y60.675 E11.58589
G1 X74.988 Y54.738 E12.35929
G1 X89.313 Y60.675 E13.13268
G1 X95.250 Y74.988 E13.90607
G1 X89.313 Y89.313 E14.67946
G1 X74.988 Y95.250 E15.45285
G1 X60.963 Y89.438 E16.21048
G1 X60.825 Y88.950 F6000.000
G1 F900.000 E12.21048
G92 E0
G1 X62.825 Y89.450 F6000.000
G1 F900.000 E4.00000
G1 X63.475 Y87.013 F900.000 E4.13235
G1 X68.163 Y85.750 E4.38573
G1 X71.100 Y88.688 E4.60290
G1 X75.788 Y87.438 E4.85628
G1 X76.863 Y83.425 E5.07346
G1 X81.550 Y82.163 E5.32683
G1 X84.488 Y85.113 E5.54401
G1 X89.175 Y83.850 E5.79738
G1 X90.250 Y79.838 E6.01456
G1 X92.775 Y79.163 E6.15101
G1 X92.963 Y78.700 E6.17735
G1 X90.150 Y79.450 E6.32983
G1 X87.200 Y76.513 E6.54701
G1 X82.525 Y77.763 E6.80038
G1 X81.450 Y81.775 E7.01756
G1 X76.763 Y83.038 E7.27093
G1 X73.825 Y80.100 E7.48811
G1 X69.138 Y81.350 E7.74149
G1 X68.063 Y85.363 E7.95866
G1 X63.375 Y86.625 E8.21204
G1 X60.438 Y83.688 E8.42922
G1 X59.225 Y84.013 E8.49477
G1 X59.075 Y83.638 E8.51585
G1 X60.338 Y83.300 E8.58415
G1 X61.413 Y79.275 E8.80133
G1 X66.088 Y78.025 E9.05470
G1 X69.038 Y80.963 E9.27188
G1 X73.713 Y79.713 E9.52526
G1 X74.788 Y75.700 E9.74243
G1 X79.475 Y74.438 E9.99581
G1 X82.413 Y77.375 E10.21299
G1 X87.100 Y76.125 E10.46636
G1 X88.175 Y72.113 E10.68354
G1 X92.788 Y70.875 E10.93299
G1 X92.638 Y70.500 E10.95407
G1 X88.075 Y71.725 E11.20077
G1 X85.138 Y68.788 E11.41795
G1 X80.450 Y70.038 E11.67133
G1 X79.375 Y74.050 E11.88850
G1 X74.688 Y75.313 E12.14188
G1 X71.750 Y72.375 E12.35906
G1 X67.063 Y73.625 E12.61243
G1 X65.988 Y77.638 E12.82961
G1 X61.300 Y78.900 E13.08298
G1 X58.363 Y75.950 E13.30016
G1 X56.138 Y76.550 E13.42074
G1 X55.988 Y76.175 E13.44182
G1 X58.263 Y75.575 E13.56515
G1 X59.338 Y71.550 E13.78232
G1 X64.025 Y70.300 E14.03570
G1 X66.963 Y73.238 E14.25288
G1 X71.650 Y71.988 E14.50625
G1 X72.725 Y67.963 E14.72343
G1 X77.413 Y66.713 E14.97680
G1 X80.350 Y69.650 E15.19398
G1 X85.025 Y68.400 E15.44736
G1 X86.113 Y64.375 E15.66453
G1 X89.700 Y63.413 E15.85896
G1 X89.550 Y63.050 E15.88004
G1 X86.000 Y64.000 E16.07172
G1 X83.063 Y61.050 E16.28890
G1 X78.375 Y62.313 E16.54227
G1 X77.300 Y66.325 E16.75945
G1 X72.625 Y67.575 E17.01282
G1 X69.675 Y64.638 E17.23000
G1 X65.000 Y65.900 E17.48338
G1 X63.925 Y69.913 E17.70055
G1 X59.238 Y71.163 E17.95393
G1 X57.713 Y69.638 E18.06672
G1 X60.475 Y62.963 E18.44408
G1 X61.950 Y62.575 E18.52413
G1 X64.888 Y65.513 E18.74131
G1 X69.575 Y64.250 E18.99469
G1 X70.650 Y60.238 E19.21186
G1 X75.338 Y58.988 E19.46524
G1 X78.275 Y61.925 E19.68242
G1 X82.963 Y60.675 E19.93579
G1 X83.413 Y58.975 E20.02722
G1 F900.000 E16.02722
G92 E0
G1 X75.963 Y55.888 F6000.000
G1 F900.000 E4.00000
G1 X75.238 Y58.600 F900.000 E4.14646
G1 X70.550 Y59.850 E4.39983
G1 X68.763 Y58.075 E4.53157
G1 X62.225 Y60.775 E4.90142
G1 X61.850 Y62.188 E4.97741
G1 X60.663 Y62.500 E5.04143
G1 F900.000 E1.04143
G92 E0
G1 X70.275 Y92.538 F6000.000
G1 F900.000 E4.00000
G1 X71.213 Y89.075 F900.000 E4.18738
G1 X75.888 Y87.825 E4.44075
G1 X78.825 Y90.763 E4.65793
G1 X83.513 Y89.513 E4.91130
G1 X84.588 Y85.488 E5.12848
G1 X89.275 Y84.238 E5.38186
G1 X90.263 Y85.225 E5.45457
G1 F900.000 E1.45457
G92 E0
G1 X84.350 Y90.625 F6000.000
G1 F900.000 E4.00000
G1 X83.625 Y89.900 F900.000 E4.05378
G1 X78.938 Y91.150 E4.30715
G1 X78.413 Y93.075 E4.41146
M106 S181.565
G1 F900.000 E0.41146
G92 E0
G1 Z1.850 F6000.000
G1 X60.975 Y89.013
G1 F900.000 E4.00000
G1 X55.175 Y74.988 F900.000 E4.75686
G1 X60.975 Y60.975 E5.51372
G1 X74.988 Y55.175 E6.27058
G1 X89.013 Y60.975 E7.02744
G1 X94.813 Y74.988 E7.78430
G1 X89.013 Y89.013 E8.54116
G1 X74.988 Y94.813 E9.29802
G1 X61.275 Y89.125 E10.03911
G1 X60.675 Y89.313 F6000.000
G1 X54.738 Y74.988 F900.000 E10.81250
G1 X60.675 Y60.675 E11.58589
G1 X74.988 Y54.738 E12.35929
G1 X89.313 Y60.675 E13.13268
G1 X95.250 Y74.988 E13.90607
G1 X89.313 Y89.313 E14.67946
G1 X74.988 Y95.250 E15.45285
G1 X60.963 Y89.438 E16.21048
G1 X60.825 Y88.950 F6000.000
G1 F900.000 E12.21048
G92 E0
G1 X56.063 Y76.363 F6000.000
G1 F900.000 E4.00000
G1 X57.975 Y75.850 F900.000 E4.10386
G1 X59.238 Y71.163 E4.35723
G1 X57.713 Y69.638 E4.47003
G1 X60.575 Y62.738 E4.86055
G1 X61.563 Y62.463 E4.91449
G1 X61.988 Y60.875 E5.00056
G1 X62.463 Y60.688 E5.02690
G1 X61.950 Y62.575 E5.12901
G1 X64.888 Y65.513 E5.34619
G1 X63.638 Y70.200 E5.59956
G1 X59.625 Y71.275 E5.81674
G1 X58.363 Y75.950 E6.07011
G1 X61.300 Y78.900 E6.28729
G1 X60.050 Y83.575 E6.54066
G1 X59.150 Y83.825 E6.58949
G1 X62.638 Y89.375 E6.93233
G1 X63.375 Y86.625 E7.08141
G1 X60.438 Y83.688 E7.29859
G1 X61.688 Y79.000 E7.55196
G1 X65.713 Y77.925 E7.76914
G1 X66.963 Y73.238 E8.02251
G1 X64.025 Y70.300 E8.23969
G1 X65.275 Y65.613 E8.49306
G1 X69.288 Y64.538 E8.71024
G1 X70.550 Y59.850 E8.96362
G1 X68.763 Y58.075 E9.09535
G1 X75.775 Y55.813 E9.47994
G1 X74.950 Y58.888 E9.64587
G1 X70.938 Y59.963 E9.86305
G1 X69.675 Y64.638 E10.11643
G1 X72.625 Y67.575 E10.33360
G1 X71.363 Y72.263 E10.58698
G1 X67.350 Y73.338 E10.80416
G1 X66.088 Y78.025 E11.05753
G1 X69.038 Y80.963 E11.27471
G1 X67.775 Y85.650 E11.52808
G1 X63.763 Y86.725 E11.74526
G1 X63.013 Y89.538 E11.89708
G1 X70.088 Y92.463 E12.29757
G1 X71.100 Y88.688 E12.50167
G1 X68.163 Y85.750 E12.71885
G1 X69.425 Y81.075 E12.97222
G1 X73.438 Y79.988 E13.18940
G1 X74.688 Y75.313 E13.44278
G1 X71.750 Y72.375 E13.65995
G1 X73.000 Y67.688 E13.91333
G1 X77.025 Y66.613 E14.13051
G1 X78.275 Y61.925 E14.38388
G1 X75.338 Y58.988 E14.60106
G1 X76.150 Y55.963 E14.76424
G1 X83.225 Y58.900 E15.16473
G1 X82.675 Y60.950 E15.27564
G1 X78.663 Y62.025 E15.49281
G1 X77.413 Y66.713 E15.74619
G1 X80.350 Y69.650 E15.96337
G1 X79.088 Y74.338 E16.21674
G1 X75.075 Y75.413 E16.43392
G1 X73.825 Y80.100 E16.68729
G1 X76.763 Y83.038 E16.90447
G1 X75.500 Y87.725 E17.15785
G1 X71.488 Y88.800 E17.37502
G1 X70.463 Y92.625 E17.58187
G1 X78.188 Y93.175 E17.98622
G1 X78.825 Y90.763 E18.11665
G1 X75.888 Y87.825 E18.33383
G1 X77.150 Y83.138 E18.58720
G1 X81.163 Y82.063 E18.80438
G1 X82.413 Y77.375 E19.05775
G1 X79.475 Y74.438 E19.27493
G1 X80.738 Y69.750 E19.52831
G1 X84.750 Y68.675 E19.74549
G1 X86.000 Y64.000 E19.99886
G1 X83.063 Y61.050 E20.21604
G1 X83.600 Y59.050 E20.32419
G1 X89.625 Y63.238 E20.70717
G1 X86.388 Y64.100 E20.88212
G1 X85.138 Y68.788 E21.13550
G1 X88.075 Y71.725 E21.35267
G1 X86.825 Y76.413 E21.60605
G1 X82.800 Y77.488 E21.82323
G1 X81.550 Y82.163 E22.07660
G1 X84.488 Y85.113 E22.29378
G1 X83.238 Y89.788 E22.54715
G1 X79.213 Y90.863 E22.76433
G1 X78.650 Y92.988 E22.87872
G1 X84.350 Y90.625 E23.20084
G1 X83.625 Y89.900 E23.25462
G1 X84.875 Y85.213 E23.50799
G1 X88.888 Y84.138 E23.72517
G1 X90.150 Y79.450 E23.97854
G1 X87.200 Y76.513 E24.19572
G1 X88.463 Y71.825 E24.44910
G1 X92.475 Y70.750 E24.66627
G1 X92.575 Y70.363 E24.68713
G1 F900.000 E20.68713
G92 E0
G1 X92.863 Y78.925 F6000.000
G1 F900.000 E4.00000
G1 X90.525 Y79.550 F900.000 E4.12637
G1 X89.275 Y84.238 E4.37974
G1 X90.263 Y85.225 E4.45246
M106 S199.641
G1 F900.000 E0.45246
G92 E0
G1 Z2.150 F6000.000
G1 X60.975 Y89.013
G1 F900.000 E4.00000
G1 X55.175 Y74.988 F900.000 E4.75686
G1 X60.975 Y60.975 E5.51372
G1 X74.988 Y55.175 E6.27058
G1 X89.013 Y60.975 E7.02744
G1 X94.813 Y74.988 E7.78430
G1 X89.013 Y89.013 E8.54116
G1 X74.988 Y94.813 E9.29802
G1 X61.275 Y89.125 E10.03911
G1 X60.675 Y89.313 F6000.000
G1 X54.738 Y74.988 F900.000 E10.81250
G1 X60.675 Y60.675 E11.58589
G1 X74.988 Y54.738 E12.35929
G1 X89.313 Y60.675 E13.13268
G1 X95.250 Y74.988 E13.90607
G1 X89.313 Y89.313 E14.67946
G1 X74.988 Y95.250 E15.45285
G1 X60.963 Y89.438 E16.21048
G1 X60.825 Y88.950 F6000.000
G1 F900.000 E12.21048
G92 E0
G1 X62.825 Y89.450 F6000.000
G1 F900.000 E4.00000
G1 X63.475 Y87.013 F900.000 E4.13235
G1 X60.050 Y83.575 E4.38572
G1 X59.150 Y83.825 E4.43455
G1 F900.000 E0.43455
G92 E0
G1 X56.063 Y76.363 F6000.000
G1 F900.000 E4.00000
G1 X57.975 Y75.850 F900.000 E4.10386
G1 X61.413 Y79.275 E4.35723
G1 X60.338 Y83.300 E4.57441
G1 X63.763 Y86.725 E4.82778
G1 X67.775 Y85.650 E5.04496
G1 X71.213 Y89.075 E5.29833
G1 X70.275 Y92.538 E5.48571
G1 F900.000 E1.48571
G92 E0
G1 X78.413 Y93.075 F6000.000
G1 F900.000 E4.00000
G1 X78.938 Y91.150 F900.000 E4.10431
G1 X75.500 Y87.725 E4.35769
G1 X71.488 Y88.800 E4.57486
G1 X68.063 Y85.363 E4.82824
G1 X69.138 Y81.350 E5.04542
G1 X65.713 Y77.925 E5.29879
G1 X61.688 Y79.000 E5.51597
G1 X58.263 Y75.575 E5.76934
G1 X59.338 Y71.550 E5.98652
G1 X57.625 Y69.838 E6.11309
G1 X57.788 Y69.438 E6.13571
G1 X59.625 Y71.275 E6.27093
G1 X63.638 Y70.200 E6.48811
G1 X67.063 Y73.625 E6.74148
G1 X65.988 Y77.638 E6.95866
G1 X69.425 Y81.075 E7.21203
G1 X73.438 Y79.988 E7.42921
G1 X76.863 Y83.425 E7.68259
G1 X75.788 Y87.438 E7.89976
G1 X79.213 Y90.863 E8.15314
G1 X83.238 Y89.788 E8.37032
G1 X84.150 Y90.700 E8.43786
G1 X84.550 Y90.538 E8.46048
G1 X83.513 Y89.513 E8.53669
G1 X84.588 Y85.488 E8.75387
G1 X81.163 Y82.063 E9.00724
G1 X77.150 Y83.138 E9.22442
G1 X73.713 Y79.713 E9.47779
G1 X74.788 Y75.700 E9.69497
G1 X71.363 Y72.263 E9.94835
G1 X67.350 Y73.338 E10.16552
G1 X63.925 Y69.913 E10.41890
G1 X65.000 Y65.900 E10.63608
G1 X61.563 Y62.463 E10.88945
G1 X60.575 Y62.738 E10.94339
G1 X62.225 Y60.775 E11.07726
G1 X61.850 Y62.188 E11.15325
G1 X65.275 Y65.613 E11.40662
G1 X69.288 Y64.538 E11.62380
G1 X72.725 Y67.963 E11.87718
G1 X71.650 Y71.988 E12.09435
G1 X75.075 Y75.413 E12.34773
G1 X79.088 Y74.338 E12.56491
G1 X82.525 Y77.763 E12.81828
G1 X81.450 Y81.775 E13.03546
G1 X84.875 Y85.213 E13.28883
G1 X88.888 Y84.138 E13.50601
G1 X90.175 Y85.425 E13.60115
G1 X90.338 Y85.025 E13.62377
G1 X89.175 Y83.850 E13.71026
G1 X90.250 Y79.838 E13.92744
G1 X86.825 Y76.413 E14.18081
G1 X82.800 Y77.488 E14.39799
G1 X79.375 Y74.050 E14.65136
G1 X80.450 Y70.038 E14.86854
G1 X77.025 Y66.613 E15.12192
G1 X73.000 Y67.688 E15.33909
G1 X69.575 Y64.250 E15.59247
G1 X70.650 Y60.238 E15.80965
G1 X68.563 Y58.150 E15.96381
G1 X68.963 Y57.988 E15.98643
G1 X70.938 Y59.963 E16.13193
G1 X74.950 Y58.888 E16.34911
G1 X78.375 Y62.313 E16.60248
G1 X77.300 Y66.325 E16.81966
G1 X80.738 Y69.750 E17.07303
G1 X84.750 Y68.675 E17.29021
G1 X88.175 Y72.113 E17.54359
G1 X87.100 Y76.125 E17.76076
G1 X90.525 Y79.550 E18.01414
G1 X92.863 Y78.925 E18.14050
G1 X92.925 Y71.200 E18.54428
G1 X92.475 Y70.750 E18.57745
G1 X88.463 Y71.825 E18.79463
G1 X85.025 Y68.400 E19.04800
G1 X86.113 Y64.375 E19.26518
G1 X82.675 Y60.950 E19.51856
G1 X78.663 Y62.025 E19.73574
G1 X75.238 Y58.600 E19.98911
G1 X75.963 Y55.888 E20.13557
G1 F900.000 E16.13557
G92 E0
G1 X83.413 Y58.975 F6000.000
G1 F900.000 E4.00000
G1 X82.963 Y60.675 F900.000 E4.09143
G1 X86.388 Y64.100 E4.34481
G1 X89.625 Y63.238 E4.51976
M106 S197.109
G1 F900.000 E0.51976
G92 E0
G1 Z2.450 F6000.000
G1 X60.975 Y89.013
G1 F900.000 E4.00000
G1 X55.175 Y74.988 F900.000 E4.75686
G1 X60.975 Y60.975 E5.51372
G1 X74.988 Y55.175 E6.27058
G1 X89.013 Y60.975 E7.02744
G1 X94.813 Y74.988 E7.78430
G1 X89.013 Y89.013 E8.54116
G1 X74.988 Y94.813 E9.29802
G1 X61.275 Y89.125 E10.03911
G1 X60.675 Y89.313 F6000.000
G1 X54.738 Y74.988 F900.000 E10.81250
G1 X60.675 Y60.675 E11.58589
G1 X74.988 Y54.738 E12.35929
G1 X89.313 Y60.675 E13.13268
G1 X95.250 Y74.988 E13.90607
G1 X89.313 Y89.313 E14.67946
G1 X74.988 Y95.250 E15.45285
G1 X60.963 Y89.438 E16.21048
G1 X60.825 Y88.950 F6000.000
G1 F900.000 E12.21048
G92 E0
G1 X62.825 Y89.450 F6000.000
G1 F900.000 E4.00000
G1 X63.475 Y87.013 F900.000 E4.13235
G1 X68.163 Y85.750 E4.38573
G1 X71.100 Y88.688 E4.60290
G1 X75.788 Y87.438 E4.85628
G1 X76.863 Y83.425 E5.07346
G1 X81.550 Y82.163 E5.32683
G1 X84.488 Y85.113 E5.54401
G1 X89.175 Y83.850 E5.79738
G1 X90.250 Y79.838 E6.01456
G1 X92.775 Y79.163 E6.15101
G1 X92.963 Y78.700 E6.17735
G1 X90.150 Y79.450 E6.32983
G1 X87.200 Y76.513 E6.54701
G1 X82.525 Y77.763 E6.80038
G1 X81.450 Y81.775 E7.01756
G1 X76.763 Y83.038 E7.27093
G1 X73.825 Y80.100 E7.48811
G1 X69.138 Y81.350 E7.74149
G1 X68.063 Y85.363 E7.95866
G1 X63.375 Y86.625 E8.21204
G1 X60.438 Y83.688 E8.42922
G1 X59.225 Y84.013 E8.49477
G1 X59.075 Y83.638 E8.51585
G1 X60.338 Y83.300 E8.58415
G1 X61.413 Y79.275 E8.80133
G1 X66.088 Y78.025 E9.05470
G1 X69.038 Y80.963 E9.27188
G1 X73.713 Y79.713 E9.52526
G1 X74.788 Y75.700 E9.74243
G1 X79.475 Y74.438 E9.99581
G1 X82.413 Y77.375 E10.21299
G1 X87.100 Y76.125 E10.46636
G1 X88.175 Y72.113 E10.68354
G1 X92.788 Y70.875 E10.93299
G1 X92.638 Y70.500 E10.95407
G1 X88.075 Y71.725 E11.20077
G1 X85.138 Y68.788 E11.41795
G1 X80.450 Y70.038 E11.67133
G1 X79.375 Y74.050 E11.88850
G1 X74.688 Y75.313 E12.14188
G1 X71.750 Y72.375 E12.35906
G1 X67.063 Y73.625 E12.61243
G1 X65.988 Y77.638 E12.82961
G1 X61.300 Y78.900 E13.08298
G1 X58.363 Y75.950 E13.30016
G1 X56.138 Y76.550 E13.42074
G1 X55.988 Y76.175 E13.44182
G1 X58.263 Y75.575 E13.56515
G1 X59.338 Y71.550 E13.78232
G1 X64.025 Y70.300 E14.03570
G1 X66.963 Y73.238 E14.25288
G1 X71.650 Y71.988 E14.50625
G1 X72.725 Y67.963 E14.72343
G1 X77.413 Y66.713 E14.97680
G1 X80.350 Y69.650 E15.19398
G1 X85.025 Y68.400 E15.44736
G1 X86.113 Y64.375 E15.66453
G1 X89.700 Y63.413 E15.85896
G1 X89.550 Y63.050 E15.88004
G1 X86.000 Y64.000 E16.07172
G1 X83.063 Y61.050 E16.28890
G1 X78.375 Y62.313 E16.54227
G1 X77.300 Y66.325 E16.75945
G1 X72.625 Y67.575 E17.01282
G1 X69.675 Y64.638 E17.23000
G1 X65.000 Y65.900 E17.48338
G1 X63.925 Y69.913 E17.70055
G1 X59.238 Y71.163 E17.95393
G1 X57.713 Y69.638 E18.06672
G1 X60.475 Y62.963 E18.44408
G1 X61.950 Y62.575 E18.52413
G1 X64.888 Y65.513 E18.74131
G1 X69.575 Y64.250 E18.99469
G1 X70.650 Y60.238 E19.21186
G1 X75.338 Y58.988 E19.46524
G1 X78.275 Y61.925 E19.68242
G1 X82.963 Y60.675 E19.93579
G1 X83.413 Y58.975 E20.02722
G1 F900.000 E16.02722
G92 E0
G1 X75.963 Y55.888 F6000.000
G1 F900.000 E4.00000
G1 X75.238 Y58.600 F900.000 E4.14646
G1 X70.550 Y59.850 E4.39983
G1 X68.763 Y58.075 E4.53157
G1 X62.225 Y60.775 E4.90142
G1 X61.850 Y62.188 E4.97741
G1 X60.663 Y62.500 E5.04143
G1 F900.000 E1.04143
G92 E0
G1 X70.275 Y92.538 F6000.000
G1 F900.000 E4.00000
G1 X71.213 Y89.075 F900.000 E4.18738
G1 X75.888 Y87.825 E4.44075
G1 X78.825 Y90.763 E4.65793
G1 X83.513 Y89.513 E4.91130
G1 X84.588 Y85.488 E5.12848
G1 X89.275 Y84.238 E5.38186
G1 X90.263 Y85.225 E5.45457
G1 F900.000 E1.45457
G92 E0
G1 X84.350 Y90.625 F6000.000
G1 F900.000 E4.00000
G1 X83.625 Y89.900 F900.000 E4.05378
G1 X78.938 Y91.150 E4.30715
G1 X78.413 Y93.075 E4.41146
M107
G1 F900.000 E0.41146
G92 E0
G1 Z2.750 F6000.000
G1 X60.975 Y89.013
G1 F900.000 E4.00000
G1 X55.175 Y74.988 F900.000 E4.75686
G1 X60.975 Y60.975 E5.51372
G1 X74.988 Y55.175 E6.27058
G1 X89.013 Y60.975 E7.02744
G1 X94.813 Y74.988 E7.78430
G1 X89.013 Y89.013 E8.54116
G1 X74.988 Y94.813 E9.29802
G1 X61.275 Y89.125 E10.03911
G1 X60.675 Y89.313 F6000.000
G1 X54.738 Y74.988 F900.000 E10.81250
G1 X60.675 Y60.675 E11.58589
G1 X74.988 Y54.738 E12.35929
G1 X89.313 Y60.675 E13.13268
G1 X95.250 Y74.988 E13.90607
G1 X89.313 Y89.313 E14.67946
G1 X74.988 Y95.250 E15.45285
G1 X60.963 Y89.438 E16.21048
G1 X60.825 Y88.950 F6000.000
G1 F900.000 E12.21048
G92 E0
G1 X63.213 Y63.825 F6000.000
G1 F900.000 E4.00000
G1 X64.888 Y65.513 F900.000 E4.12447
G1 X63.638 Y70.200 E4.37784
G1 X60.188 Y71.125 E4.56448
G1 X58.700 Y74.700 E4.76713
G1 X58.613 Y75.050 E4.78621
G1 X59.413 Y77.000 E4.89630
G1 X61.300 Y78.900 E5.03609
G1 X60.875 Y80.525 E5.12397
G1 X61.125 Y81.125 E5.15830
G1 X61.688 Y79.000 E5.27341
G1 X65.713 Y77.925 E5.49058
G1 X66.963 Y73.238 E5.74396
G1 X64.025 Y70.300 E5.96114
G1 X65.275 Y65.613 E6.21451
G1 X69.288 Y64.538 E6.43169
G1 X70.375 Y60.488 E6.65046
G1 X70.838 Y60.300 E6.67680
G1 X69.675 Y64.638 E6.91160
G1 X72.625 Y67.575 E7.12878
G1 X71.363 Y72.263 E7.38215
G1 X67.350 Y73.338 E7.59933
G1 X66.088 Y78.025 E7.85270
G1 X69.038 Y80.963 E8.06988
G1 X67.775 Y85.650 E8.32326
G1 X63.763 Y86.725 E8.54044
G1 X63.750 Y86.750 E8.54181
G1 X70.838 Y89.688 E8.94230
G1 X71.100 Y88.688 E8.99595
G1 X68.163 Y85.750 E9.21313
G1 X69.425 Y81.075 E9.46650
G1 X73.438 Y79.988 E9.68368
G1 X74.688 Y75.313 E9.93705
G1 X71.750 Y72.375 E10.15423
G1 X73.000 Y67.688 E10.40761
G1 X77.025 Y66.613 E10.62478
G1 X78.275 Y61.925 E10.87816
G1 X75.338 Y58.988 E11.09534
G1 X75.400 Y58.750 E11.10807
G1 X81.488 Y61.275 E11.45231
G1 X78.663 Y62.025 E11.60509
G1 X77.413 Y66.713 E11.85846
G1 X80.350 Y69.650 E12.07564
G1 X79.088 Y74.338 E12.32901
G1 X75.075 Y75.413 E12.54619
G1 X73.825 Y80.100 E12.79957
G1 X76.763 Y83.038 E13.01674
G1 X75.500 Y87.725 E13.27012
G1 X71.488 Y88.800 E13.48730
G1 X71.213 Y89.838 E13.54370
G1 X78.163 Y90.100 E13.90711
G1 X75.888 Y87.825 E14.07483
G1 X77.150 Y83.138 E14.32821
G1 X81.163 Y82.063 E14.54539
G1 X82.413 Y77.375 E14.79876
G1 X79.475 Y74.438 E15.01594
G1 X80.738 Y69.750 E15.26931
G1 X84.750 Y68.675 E15.48649
G1 X86.000 Y64.000 E15.73986
G1 X84.550 Y62.538 E15.84747
G1 X86.838 Y63.975 E15.98902
G1 X86.388 Y64.100 E16.01353
G1 X85.138 Y68.788 E16.26690
G1 X88.075 Y71.725 E16.48408
G1 X86.825 Y76.413 E16.73746
G1 X82.800 Y77.488 E16.95463
G1 X81.550 Y82.163 E17.20801
G1 X84.488 Y85.113 E17.42519
G1 X83.775 Y87.775 E17.56921
G1 X84.238 Y87.575 E17.59555
G1 X84.875 Y85.213 E17.72354
G1 X87.463 Y84.513 E17.86350
G1 X89.738 Y79.038 E18.17339
G1 X87.200 Y76.513 E18.36005
G1 X88.463 Y71.825 E18.61343
G1 X89.925 Y71.438 E18.69296
G1 F900.000 E14.69296
G92 E0
G1 X75.025 Y58.600 F6000.000
G1 F900.000 E4.00000
G1 X74.950 Y58.888 F900.000 E4.01548
G1 X73.025 Y59.400 E4.11979
G1 F900.000 E0.11979
G92 E0
G1 X75.175 Y58.450 F6000.000
G1 F900.000 E4.00000
G1 X73.025 Y56.300 F900.000 E4.14301
G1 X72.150 Y56.663 E4.18777
G1 X74.188 Y58.713 E4.32350
G1 X73.313 Y59.075 E4.36826
G1 X71.275 Y57.038 E4.50398
G1 X70.388 Y57.400 E4.54874
G1 X72.438 Y59.438 E4.68446
G1 X71.550 Y59.800 E4.72922
G1 X69.513 Y57.763 E4.86495
G1 X68.638 Y58.125 E4.90971
G1 X70.675 Y60.163 E5.04543
G1 X69.800 Y60.525 E5.09019
G1 X67.750 Y58.488 E5.22591
G1 X66.875 Y58.850 E5.27067
G1 X68.913 Y60.900 E5.40639
G1 X68.038 Y61.263 E5.45115
G1 X66.000 Y59.213 E5.58688
G1 X65.113 Y59.588 E5.63164
G1 X67.150 Y61.625 E5.76736
G1 X66.275 Y61.988 E5.81212
G1 X64.238 Y59.950 E5.94784
G1 X63.350 Y60.313 E5.99260
G1 X65.400 Y62.350 E6.12833
G1 X64.513 Y62.713 E6.17309
G1 X62.475 Y60.675 E6.30881
G1 X61.600 Y61.038 E6.35357
G1 X63.638 Y63.075 E6.48929
G1 X63.038 Y63.725 E6.53068
G1 X61.000 Y61.688 E6.66641
G1 X60.638 Y62.563 E6.71117
G1 X62.675 Y64.613 E6.84689
G1 X62.313 Y65.488 E6.89165
G1 X60.275 Y63.450 E7.02737
G1 X59.913 Y64.325 E7.07213
G1 X61.950 Y66.363 E7.20785
G1 X61.588 Y67.250 E7.25261
G1 X59.550 Y65.213 E7.38834
G1 X59.175 Y66.088 E7.43310
G1 X61.225 Y68.125 E7.56882
G1 X60.863 Y69.013 E7.61358
G1 X58.813 Y66.963 E7.74930
G1 X58.450 Y67.850 E7.79406
G1 X60.488 Y69.888 E7.92979
G1 X60.125 Y70.763 E7.97455
G1 X58.088 Y68.725 E8.11027
G1 X57.725 Y69.600 E8.15503
G1 X59.763 Y71.650 E8.29075
G1 X59.400 Y72.525 E8.33551
G1 X57.363 Y70.488 E8.47123
G1 X57.000 Y71.363 E8.51600
G1 X59.038 Y73.400 E8.65172
G1 X58.675 Y74.288 E8.69648
G1 X56.625 Y72.238 E8.83220
G1 X56.263 Y73.125 E8.87696
G1 X58.550 Y75.400 E9.02859
G1 F900.000 E5.02859
G92 E0
G1 X59.425 Y77.525 F6000.000
G1 F900.000 E4.00000
G1 X55.900 Y74.000 F900.000 E4.23433
G1 X55.538 Y74.875 E4.27909
G1 X60.300 Y79.650 E4.59614
G1 F900.000 E0.59614
G92 E0
G1 X61.188 Y81.775 F6000.000
G1 F900.000 E4.00000
G1 X56.263 Y76.850 F900.000 E4.32766
G1 F900.000 E0.32766
G92 E0
G1 X57.138 Y78.963 F6000.000
G1 F900.000 E4.00000
G1 X62.063 Y83.900 F900.000 E4.32766
G1 F900.000 E0.32766
G92 E0
G1 X59.775 Y85.338 F6000.000
G1 F900.000 E4.00000
G1 X64.650 Y90.213 F900.000 E4.32417
G1 F900.000 E0.32417
G92 E0
G1 X62.525 Y89.338 F6000.000
G1 F900.000 E4.00000
G1 X60.650 Y87.463 F900.000 E4.12450
G1 F900.000 E0.12450
G92 E0
G1 X58.900 Y83.213 F6000.000
G1 F900.000 E4.00000
G1 X66.775 Y91.088 F900.000 E4.52384
G1 F900.000 E0.52384
G92 E0
G1 X68.900 Y91.975 F6000.000
G1 F900.000 E4.00000
G1 X58.013 Y81.088 F900.000 E4.72351
G1 F900.000 E0.72351
G92 E0
G1 X66.088 Y87.925 F6000.000
G1 F900.000 E4.00000
G1 X71.025 Y92.850 F900.000 E4.32766
G1 F900.000 E0.32766
G92 E0
G1 X73.138 Y93.725 F6000.000
G1 F900.000 E4.00000
G1 X68.213 Y88.800 F900.000 E4.32766
G1 F900.000 E0.32766
G92 E0
G1 X70.338 Y89.688 F6000.000
G1 F900.000 E4.00000
G1 X75.113 Y94.450 F900.000 E4.31704
G1 F900.000 E0.31704
G92 E0
G1 X72.463 Y90.563 F6000.000
G1 F900.000 E4.00000
G1 X75.988 Y94.088 F900.000 E4.23433
G1 X76.863 Y93.725 E4.27909
G1 X74.588 Y91.438 E4.43072
G1 X75.700 Y91.313 E4.48365
G1 X77.750 Y93.363 E4.61937
G1 X78.625 Y92.988 E4.66413
G1 X76.588 Y90.950 E4.79986
G1 X77.463 Y90.588 E4.84462
G1 X79.500 Y92.625 E4.98034
G1 X80.388 Y92.263 E5.02510
G1 X78.338 Y90.225 E5.16082
G1 X79.225 Y89.863 E5.20558
G1 X81.263 Y91.900 E5.34130
G1 X82.138 Y91.538 E5.38606
G1 X80.100 Y89.500 E5.52179
G1 X80.975 Y89.125 E5.56655
G1 X83.025 Y91.175 E5.70227
G1 X83.900 Y90.813 E5.74703
G1 X81.863 Y88.763 E5.88275
G1 X82.738 Y88.400 E5.92751
G1 X84.775 Y90.438 E6.06324
G1 X85.663 Y90.075 E6.10800
G1 X83.625 Y88.038 E6.24372
G1 X84.500 Y87.675 E6.28848
G1 X86.538 Y89.713 E6.42420
G1 X87.425 Y89.350 E6.46896
G1 X85.375 Y87.313 E6.60468
G1 X86.263 Y86.950 E6.64945
G1 X88.300 Y88.988 E6.78517
G1 X88.950 Y88.388 E6.82656
G1 X86.913 Y86.350 E6.96228
G1 X87.275 Y85.475 E7.00704
G1 X89.313 Y87.513 E7.14276
G1 X89.675 Y86.638 E7.18753
G1 X87.638 Y84.588 E7.32325
G1 X88.000 Y83.713 E7.36801
G1 X90.038 Y85.750 E7.50373
G1 X90.400 Y84.875 E7.54849
G1 X88.363 Y82.838 E7.68421
G1 X88.725 Y81.950 E7.72897
G1 X90.775 Y83.988 E7.86470
G1 X91.138 Y83.113 E7.90946
G1 X89.088 Y81.075 E8.04518
G1 X89.463 Y80.188 E8.08994
G1 X91.500 Y82.238 E8.22566
G1 X91.863 Y81.350 E8.27042
G1 X89.825 Y79.313 E8.40615
G1 X90.188 Y78.438 E8.45091
G1 X92.225 Y80.475 E8.58663
G1 X92.588 Y79.600 E8.63139
G1 X90.550 Y77.550 E8.76711
G1 X90.913 Y76.675 E8.81187
G1 X92.950 Y78.713 E8.94759
G1 X93.325 Y77.838 E8.99235
G1 X91.275 Y75.800 E9.12808
G1 X91.538 Y74.813 E9.17610
G1 X93.688 Y76.963 E9.31912
G1 X94.050 Y76.075 E9.36388
G1 X90.650 Y72.688 E9.58960
G1 F900.000 E5.58960
G92 E0
G1 X89.775 Y70.563 F6000.000
G1 F900.000 E4.00000
G1 X94.413 Y75.200 F900.000 E4.30843
G1 X93.825 Y73.363 E4.39901
G1 X88.900 Y68.438 E4.72668
G1 F900.000 E0.72668
G92 E0
G1 X88.013 Y66.313 F6000.000
G1 F900.000 E4.00000
G1 X92.938 Y71.238 F900.000 E4.32766
G1 F900.000 E0.32766
G92 E0
G1 X92.063 Y69.113 F6000.000
G1 F900.000 E4.00000
G1 X87.138 Y64.188 F900.000 E4.32766
G1 X85.800 Y62.850 F6000.000
G1 X80.875 Y57.925 F900.000 E4.65533
G1 F900.000 E0.65533
G92 E0
G1 X82.988 Y58.800 F6000.000
G1 F900.000 E4.00000
G1 X91.188 Y67.000 F900.000 E4.54464
G1 F900.000 E0.54464
G92 E0
G1 X90.300 Y64.875 F6000.000
G1 F900.000 E4.00000
G1 X85.113 Y59.688 F900.000 E4.34497
G1 F900.000 E0.34497
G92 E0
G1 X87.238 Y60.563 F6000.000
G1 F900.000 E4.00000
G1 X89.425 Y62.750 F900.000 E4.14530
G1 F900.000 E0.14530
G92 E0
G1 X83.675 Y61.975 F6000.000
G1 F900.000 E4.00000
G1 X78.750 Y57.050 F900.000 E4.32766
G1 F900.000 E0.32766
G92 E0
G1 X76.625 Y56.163 F6000.000
G1 F900.000 E4.00000
G1 X81.550 Y61.088 F900.000 E4.32766
G1 F900.000 E0.32766
G92 E0
G1 X79.425 Y60.213 F6000.000
G1 F900.000 E4.00000
G1 X74.788 Y55.575 F900.000 E4.30843
G1 X73.913 Y55.938 E4.35319
G1 X77.300 Y59.338 E4.57891
G1 F900.000 E0.57891
G92 E0
G1 Z3.050 F6000.000
G1 X60.975 Y89.013
G1 F900.000 E4.00000
G1 X55.175 Y74.988 F900.000 E4.75686
G1 X60.975 Y60.975 E5.51372
G1 X74.988 Y55.175 E6.27058
G1 X89.013 Y60.975 E7.02744
G1 X94.813 Y74.988 E7.78430
G1 X89.013 Y89.013 E8.54116
G1 X74.988 Y94.813 E9.29802
G1 X61.275 Y89.125 E10.03911
G1 X60.675 Y89.313 F6000.000
G1 X54.738 Y74.988 F900.000 E10.81250
G1 X60.675 Y60.675 E11.58589
G1 X74.988 Y54.738 E12.35929
G1 X89.313 Y60.675 E13.13268
G1 X95.250 Y74.988 E13.90607
G1 X89.313 Y89.313 E14.67946
G1 X74.988 Y95.250 E15.45285
G1 X60.963 Y89.438 E16.21048
G1 X60.825 Y88.950 F6000.000
G1 F900.000 E12.21048
G92 E0
G1 X65.438 Y86.275 F6000.000
G1 F900.000 E4.00000
G1 X67.775 Y85.650 F900.000 E4.12686
G1 X70.513 Y88.388 E4.32868
G1 X71.475 Y88.788 E4.38329
G1 X68.063 Y85.363 E4.63555
G1 X69.138 Y81.350 E4.85273
G1 X65.713 Y77.925 E5.10610
G1 X61.688 Y79.000 E5.32328
G1 X61.200 Y78.513 E5.35916
G1 X61.500 Y70.763 E5.76409
G1 X63.638 Y70.200 E5.87970
G1 X67.063 Y73.625 E6.13307
G1 X65.988 Y77.638 E6.35025
G1 X69.425 Y81.075 E6.60363
G1 X73.438 Y79.988 E6.82080
G1 X76.863 Y83.425 E7.07418
G1 X75.788 Y87.438 E7.29136
G1 X77.538 Y89.188 E7.42053
G1 X77.138 Y89.350 E7.44315
G1 X75.500 Y87.725 E7.56366
G1 X71.500 Y88.788 E7.78014
G1 F900.000 E3.78014
G92 E0
G1 X84.363 Y86.363 F6000.000
G1 F900.000 E4.00000
G1 X84.588 Y85.488 F900.000 E4.04689
G1 X81.163 Y82.063 E4.30026
G1 X77.150 Y83.138 E4.51744
G1 X73.713 Y79.713 E4.77081
G1 X74.788 Y75.700 E4.98799
G1 X71.363 Y72.263 E5.24137
G1 X67.350 Y73.338 E5.45854
G1 X63.925 Y69.913 E5.71192
G1 X65.000 Y65.900 E5.92910
G1 X63.950 Y64.850 E6.00635
G1 X64.113 Y64.450 E6.02897
G1 X65.275 Y65.613 E6.11488
G1 X69.288 Y64.538 E6.33206
G1 X72.725 Y67.963 E6.58543
G1 X71.650 Y71.988 E6.80261
G1 X75.075 Y75.413 E7.05598
G1 X79.088 Y74.338 E7.27316
G1 X82.525 Y77.763 E7.52654
G1 X81.450 Y81.775 E7.74371
G1 X84.875 Y85.213 E7.99709
G1 X86.150 Y84.863 E8.06603
G1 X88.825 Y78.413 E8.43118
G1 X86.825 Y76.413 E8.57929
G1 X82.800 Y77.488 E8.79647
G1 X79.375 Y74.050 E9.04984
G1 X80.450 Y70.038 E9.26702
G1 X77.025 Y66.613 E9.52039
G1 X73.000 Y67.688 E9.73757
G1 X69.575 Y64.250 E9.99095
G1 X70.263 Y61.713 E10.12861
G1 X76.400 Y60.325 E10.45748
G1 X78.375 Y62.313 E10.60374
G1 X77.300 Y66.325 E10.82092
G1 X80.738 Y69.750 E11.07429
G1 X84.750 Y68.675 E11.29147
G1 X88.175 Y72.113 E11.54484
G1 X87.100 Y76.125 E11.76202
G1 X88.988 Y78.013 E11.90147
G1 X88.875 Y71.713 E12.23056
G1 X88.463 Y71.825 E12.25326
G1 X85.025 Y68.400 E12.50663
G1 X86.000 Y64.763 E12.70289
G1 X79.775 Y61.725 E13.06490
G1 X78.663 Y62.025 E13.12513
G1 X77.363 Y60.725 E13.22094
G1 F900.000 E9.22094
G92 E0
G1 X86.250 Y85.113 F6000.000
G1 F900.000 E4.00000
G1 X87.900 Y83.463 F900.000 E4.10937
G1 X87.125 Y82.988 E4.15181
G1 X88.775 Y81.350 E4.26118
G1 X88.013 Y80.863 E4.30362
G1 X89.650 Y79.225 E4.41299
G1 X88.888 Y78.738 E4.45543
G1 X90.538 Y77.100 E4.56480
G1 X89.775 Y76.625 E4.60724
G1 X91.400 Y74.988 E4.71586
G1 X90.363 Y74.788 E4.76590
G1 X91.038 Y74.113 E4.81120
G1 X90.675 Y73.225 E4.85596
G1 X89.988 Y73.913 E4.90127
G1 X89.625 Y73.025 E4.94603
G1 X90.313 Y72.350 E4.99133
G1 X89.950 Y71.463 E5.03609
G1 X89.263 Y72.150 E5.08139
G1 X88.900 Y71.275 E5.12616
G1 X89.588 Y70.588 E5.17146
G1 X89.213 Y69.713 E5.21622
G1 X88.538 Y70.388 E5.26152
G1 X88.175 Y69.513 E5.30628
G1 X88.850 Y68.825 E5.35158
G1 X88.488 Y67.950 E5.39635
G1 X87.813 Y68.638 E5.44165
G1 X87.438 Y67.750 E5.48641
G1 X88.125 Y67.075 E5.53171
G1 X87.763 Y66.188 E5.57647
G1 X87.075 Y66.875 E5.62177
G1 X86.713 Y65.988 E5.66654
G1 X87.400 Y65.313 E5.71184
G1 X87.038 Y64.438 E5.75660
G1 X86.350 Y65.113 E5.80190
G1 X85.988 Y64.238 E5.84666
G1 X86.663 Y63.550 E5.89197
G1 X85.888 Y63.088 E5.93469
G1 X85.200 Y63.775 E5.97999
G1 X84.325 Y63.413 E6.02475
G1 X85.000 Y62.725 E6.07005
G1 X84.125 Y62.363 E6.11481
G1 X83.450 Y63.050 E6.16012
G1 X82.563 Y62.675 E6.20488
G1 X83.250 Y62.000 E6.25018
G1 X82.363 Y61.638 E6.29494
G1 X81.688 Y62.313 E6.34024
G1 X80.800 Y61.950 E6.38500
G1 X81.488 Y61.275 E6.43031
G1 X80.613 Y60.913 E6.47507
G1 X79.925 Y61.588 E6.52037
G1 X79.050 Y61.225 E6.56513
G1 X79.725 Y60.538 E6.61043
G1 X78.850 Y60.175 E6.65519
G1 X78.163 Y60.863 E6.70050
G1 X77.288 Y60.500 E6.74526
G1 X77.975 Y59.813 E6.79056
G1 X77.088 Y59.450 E6.83532
G1 X76.413 Y60.125 E6.88062
G1 X75.525 Y59.763 E6.92538
G1 X76.213 Y59.088 E6.97069
G1 X75.325 Y58.725 E7.01545
G1 X74.163 Y59.888 E7.09316
G1 X73.688 Y59.125 E7.13560
G1 X72.038 Y60.775 E7.24497
G1 X71.563 Y60.000 E7.28741
G1 X69.913 Y61.650 E7.39678
G1 X69.438 Y60.888 E7.43922
G1 X67.788 Y62.525 E7.54859
G1 X67.313 Y61.763 E7.59103
G1 X65.663 Y63.413 E7.70040
G1 X65.188 Y62.638 E7.74284
G1 X62.638 Y65.188 E7.91229
G1 X63.413 Y65.663 E7.95473
G1 X61.763 Y67.313 E8.06410
G1 X62.525 Y67.788 E8.10654
G1 X60.888 Y69.438 E8.21591
G1 X61.650 Y69.913 E8.25835
G1 X60.000 Y71.563 E8.36772
G1 X60.775 Y72.038 E8.41016
G1 X59.125 Y73.688 E8.51953
G1 X59.888 Y74.163 E8.56197
G1 X58.725 Y75.325 E8.63969
G1 X59.763 Y75.525 E8.68972
G1 X59.088 Y76.213 E8.73503
G1 X59.450 Y77.088 E8.77979
G1 X60.125 Y76.413 E8.82509
G1 X60.500 Y77.288 E8.86985
G1 X59.813 Y77.975 E8.91515
G1 X60.175 Y78.850 E8.95991
G1 X60.863 Y78.163 E9.00522
G1 X61.225 Y79.050 E9.04998
G1 X60.538 Y79.725 E9.09528
G1 X60.913 Y80.613 E9.14004
G1 X61.588 Y79.925 E9.18534
G1 X61.950 Y80.800 E9.23010
G1 X61.275 Y81.488 E9.27541
G1 X61.638 Y82.363 E9.32017
G1 X62.313 Y81.688 E9.36547
G1 X62.675 Y82.563 E9.41023
G1 X62.000 Y83.250 E9.45553
G1 X62.363 Y84.125 E9.50029
G1 X63.050 Y83.450 E9.54560
G1 X63.413 Y84.325 E9.59036
G1 X62.725 Y85.000 E9.63566
G1 X63.088 Y85.888 E9.68042
G1 X63.775 Y85.200 E9.72572
G1 X64.238 Y85.988 E9.76845
G1 X63.550 Y86.663 E9.81375
G1 X64.438 Y87.038 E9.85851
G1 X65.113 Y86.350 E9.90381
G1 X65.988 Y86.713 E9.94857
G1 X65.313 Y87.400 E9.99388
G1 X66.188 Y87.763 E10.03864
G1 X66.875 Y87.075 E10.08394
G1 X67.750 Y87.438 E10.12870
G1 X67.075 Y88.125 E10.17400
G1 X67.950 Y88.488 E10.21876
G1 X68.638 Y87.813 E10.26407
G1 X69.513 Y88.175 E10.30883
G1 X68.825 Y88.850 E10.35413
G1 X69.713 Y89.213 E10.39889
G1 X70.388 Y88.538 E10.44419
G1 X71.275 Y88.900 E10.48895
G1 X70.588 Y89.588 E10.53426
G1 X71.463 Y89.950 E10.57902
G1 X72.150 Y89.263 E10.62432
G1 X73.025 Y89.625 E10.66908
G1 X72.350 Y90.313 E10.71438
G1 X73.225 Y90.675 E10.75914
G1 X73.913 Y89.988 E10.80445
G1 X74.788 Y90.363 E10.84921
G1 X74.113 Y91.038 E10.89451
G1 X74.988 Y91.400 E10.93927
G1 X76.625 Y89.775 E11.04789
G1 X77.100 Y90.538 E11.09033
G1 X78.738 Y88.888 E11.19970
G1 X79.225 Y89.650 E11.24214
G1 X80.863 Y88.013 E11.35151
G1 X81.350 Y88.775 E11.39395
G1 X82.988 Y87.125 E11.50332
G1 X83.463 Y87.900 E11.54576
G1 X85.113 Y86.250 E11.65513
G1 X85.588 Y87.013 E11.69757
G1 X87.013 Y85.588 E11.79240
G1 X87.375 Y85.213 F6000.000
G1 X92.313 Y80.275 F900.000 E12.15647
G1 X91.888 Y81.300 F6000.000
G1 X86.963 Y86.225 F900.000 E12.52055
G1 X86.225 Y86.963 F6000.000
G1 X81.300 Y91.888 F900.000 E12.88462
G1 X82.313 Y91.463 F6000.000
G1 X91.463 Y82.313 F900.000 E13.56130
G1 X91.050 Y83.325 F6000.000
G1 X83.325 Y91.050 F900.000 E14.13204
G1 X84.338 Y90.625 F6000.000
G1 X90.625 Y84.338 F900.000 E14.59687
G1 X90.213 Y85.350 F6000.000
G1 X85.350 Y90.213 F900.000 E14.95576
G1 X86.363 Y89.788 F6000.000
G1 X89.788 Y86.363 F900.000 E15.20873
G1 X89.363 Y87.375 F6000.000
G1 X87.375 Y89.363 F900.000 E15.35577
G1 X88.388 Y88.950 F6000.000
G1 X88.950 Y88.388 F900.000 E15.39689
G1 F900.000 E11.39689
G92 E0
G1 X85.213 Y87.375 F6000.000
G1 F900.000 E4.00000
G1 X80.275 Y92.313 F900.000 E4.36407
G1 X79.263 Y92.725 F6000.000
G1 X84.200 Y87.800 F900.000 E4.72814
G1 X83.175 Y88.225 F6000.000
G1 X78.250 Y93.150 F900.000 E5.09222
G1 X77.238 Y93.563 F6000.000
G1 X82.163 Y88.638 F900.000 E5.45629
G1 X81.150 Y89.063 F6000.000
G1 X76.225 Y93.988 F900.000 E5.82036
G1 X75.213 Y94.400 F6000.000
G1 X80.138 Y89.475 F900.000 E6.18443
G1 X79.125 Y89.900 F6000.000
G1 X74.663 Y94.363 F900.000 E6.51407
G1 X74.250 Y94.188 E6.53782
G1 X78.113 Y90.313 E6.82359
G1 X77.100 Y90.738 F6000.000
G1 X73.825 Y94.013 F900.000 E7.06548
G1 X73.400 Y93.838 E7.08923
G1 X76.088 Y91.163 E7.28724
G1 X75.075 Y91.575 F6000.000
G1 X72.988 Y93.663 F900.000 E7.44138
G1 X72.563 Y93.488 E7.46512
G1 X74.600 Y91.450 E7.61593
G1 X74.188 Y91.275 E7.63967
G1 X72.150 Y93.313 E7.79048
G1 X71.725 Y93.138 E7.81422
G1 X73.763 Y91.100 E7.96503
G1 X73.350 Y90.925 E7.98877
G1 X71.300 Y92.963 E8.13958
G1 X70.888 Y92.800 E8.16332
G1 X72.925 Y90.750 E8.31412
G1 X72.500 Y90.575 E8.33787
G1 X70.463 Y92.625 E8.48867
G1 X70.050 Y92.450 E8.51242
G1 X72.088 Y90.400 E8.66322
G1 X71.663 Y90.238 E8.68697
G1 X69.625 Y92.275 E8.83777
G1 X69.200 Y92.100 E8.86152
G1 X71.250 Y90.063 E9.01232
G1 X70.825 Y89.888 E9.03607
G1 X68.788 Y91.925 E9.18687
G1 X68.363 Y91.750 E9.21062
G1 X70.413 Y89.713 E9.36142
G1 X69.988 Y89.538 E9.38516
G1 X67.950 Y91.575 E9.53597
G1 X67.525 Y91.400 E9.55971
G1 X69.563 Y89.363 E9.71052
G1 X69.150 Y89.188 E9.73426
G1 X67.100 Y91.225 E9.88507
G1 X66.688 Y91.050 E9.90881
G1 X68.725 Y89.013 E10.05962
G1 X68.313 Y88.838 E10.08336
G1 X66.263 Y90.888 E10.23416
G1 X65.850 Y90.713 E10.25791
G1 X67.888 Y88.663 E10.40871
G1 X67.463 Y88.488 E10.43246
G1 X65.425 Y90.538 E10.58326
G1 X65.013 Y90.363 E10.60701
G1 X67.050 Y88.313 E10.75781
G1 X66.625 Y88.150 E10.78156
G1 X64.588 Y90.188 E10.93236
G1 X64.163 Y90.013 E10.95611
G1 X66.213 Y87.975 E11.10691
G1 X65.788 Y87.800 E11.13066
G1 X63.750 Y89.838 E11.28146
G1 X63.325 Y89.663 E11.30521
G1 X65.363 Y87.625 E11.45601
G1 X64.950 Y87.450 E11.47975
G1 X62.913 Y89.488 E11.63056
G1 X62.488 Y89.313 E11.65430
G1 X64.525 Y87.275 E11.80511
G1 X64.113 Y87.100 E11.82885
G1 X62.063 Y89.138 E11.97966
G1 X61.650 Y88.963 E12.00340
G1 X63.688 Y86.925 E12.15420
G1 X63.263 Y86.750 E12.17795
G1 X61.225 Y88.800 E12.32875
G1 X61.038 Y88.388 E12.35212
G1 X63.075 Y86.350 E12.50293
G1 X62.913 Y85.925 E12.52667
G1 X60.863 Y87.963 E12.67747
G1 X60.688 Y87.550 E12.70122
G1 X62.738 Y85.513 E12.85202
G1 X62.563 Y85.088 E12.87577
G1 X60.513 Y87.125 E13.02657
G1 X60.338 Y86.713 E13.05032
G1 X62.388 Y84.663 E13.20112
G1 X62.213 Y84.250 E13.22487
G1 X60.175 Y86.288 E13.37567
G1 X60.000 Y85.875 E13.39942
G1 X62.038 Y83.825 E13.55022
G1 X61.863 Y83.413 E13.57397
G1 X59.825 Y85.450 E13.72477
G1 X59.650 Y85.025 E13.74852
G1 X61.688 Y82.988 E13.89932
G1 X61.513 Y82.563 E13.92306
G1 X59.475 Y84.613 E14.07387
G1 X59.300 Y84.188 E14.09761
G1 X61.338 Y82.150 E14.24842
G1 X61.163 Y81.725 E14.27216
G1 X59.125 Y83.775 E14.42297
G1 X58.950 Y83.350 E14.44671
G1 X60.988 Y81.313 E14.59752
G1 X60.825 Y80.888 E14.62126
G1 X58.775 Y82.925 E14.77206
G1 X58.600 Y82.513 E14.79581
G1 X60.650 Y80.463 E14.94661
G1 X60.475 Y80.050 E14.97036
G1 X58.425 Y82.088 E15.12116
G1 X58.250 Y81.675 E15.14491
G1 X60.300 Y79.625 E15.29571
G1 X60.125 Y79.213 E15.31946
G1 X58.088 Y81.250 E15.47026
G1 X57.913 Y80.825 E15.49401
G1 X59.950 Y78.788 E15.64481
G1 X59.775 Y78.375 E15.66856
G1 X57.738 Y80.413 E15.81936
G1 X57.563 Y79.988 E15.84311
G1 X59.600 Y77.950 E15.99391
G1 X59.425 Y77.525 E16.01765
G1 X57.388 Y79.575 E16.16846
G1 X57.213 Y79.150 E16.19220
G1 X59.250 Y77.113 E16.34301
G1 X59.075 Y76.688 E16.36675
G1 X57.038 Y78.725 E16.51756
G1 X56.863 Y78.313 E16.54130
G1 X58.900 Y76.275 E16.69211
G1 X58.738 Y75.850 E16.71585
G1 X56.688 Y77.888 E16.86665
G1 X56.513 Y77.475 E16.89040
G1 X58.563 Y75.425 E17.04120
G1 X58.388 Y75.013 E17.06495
G1 X56.338 Y77.050 E17.21575
G1 X56.175 Y76.625 E17.23950
G1 X58.788 Y74.013 E17.43250
G1 X59.200 Y73.000 F6000.000
G1 X56.000 Y76.213 F900.000 E17.66939
G1 X55.825 Y75.788 E17.69313
G1 X59.625 Y71.988 E17.97389
G1 X60.038 Y70.975 F6000.000
G1 X55.650 Y75.375 F900.000 E18.29852
G1 X55.538 Y74.888 E18.32430
G1 X60.463 Y69.963 E18.68837
G1 X60.875 Y68.950 F6000.000
G1 X55.950 Y73.875 F900.000 E19.05244
G1 X56.375 Y72.863 F6000.000
G1 X61.300 Y67.938 F900.000 E19.41651
G1 X61.725 Y66.925 F6000.000
G1 X56.788 Y71.850 F900.000 E19.78058
G1 X57.213 Y70.838 F6000.000
G1 X62.138 Y65.913 F900.000 E20.14466
G1 X62.563 Y64.900 F6000.000
G1 X57.638 Y69.825 F900.000 E20.50873
G1 X58.050 Y68.813 F6000.000
G1 X62.975 Y63.875 F900.000 E20.87280
G1 X63.875 Y62.975 F6000.000
G1 X68.813 Y58.050 F900.000 E21.23687
G1 X69.825 Y57.638 F6000.000
G1 X64.900 Y62.563 F900.000 E21.60094
G1 X65.913 Y62.138 F6000.000
G1 X70.838 Y57.213 F900.000 E21.96501
G1 X71.850 Y56.788 F6000.000
G1 X66.925 Y61.725 F900.000 E22.32909
G1 X67.938 Y61.300 F6000.000
G1 X72.863 Y56.375 F900.000 E22.69316
G1 X73.875 Y55.950 F6000.000
G1 X68.950 Y60.875 F900.000 E23.05723
G1 X69.963 Y60.463 F6000.000
G1 X74.888 Y55.538 F900.000 E23.42130
G1 F900.000 E19.42130
G92 E0
G1 X75.013 Y58.388 F6000.000
G1 F900.000 E4.00000
G1 X77.050 Y56.338 F900.000 E4.15080
G1 X77.475 Y56.513 E4.17455
G1 X75.425 Y58.563 E4.32535
G1 X75.850 Y58.738 E4.34910
G1 X77.888 Y56.688 E4.49990
G1 X78.313 Y56.863 E4.52365
G1 X76.275 Y58.900 E4.67445
G1 X76.688 Y59.075 E4.69820
G1 X78.725 Y57.038 E4.84900
G1 X79.150 Y57.213 E4.87275
G1 X77.113 Y59.250 E5.02355
G1 X77.525 Y59.425 E5.04729
G1 X79.575 Y57.388 E5.19810
G1 X79.988 Y57.563 E5.22184
G1 X77.950 Y59.600 E5.37265
G1 X78.375 Y59.775 E5.39639
G1 X80.413 Y57.738 E5.54720
G1 X80.825 Y57.913 E5.57094
G1 X78.788 Y59.950 E5.72175
G1 X79.213 Y60.125 E5.74549
G1 X81.250 Y58.088 E5.89629
G1 X81.675 Y58.250 E5.92004
G1 X79.625 Y60.300 E6.07084
G1 X80.050 Y60.475 E6.09459
G1 X82.088 Y58.425 E6.24539
G1 X82.513 Y58.600 E6.26914
G1 X80.463 Y60.650 E6.41994
G1 X80.888 Y60.825 E6.44369
G1 X82.925 Y58.775 E6.59449
G1 X83.350 Y58.950 E6.61824
G1 X81.313 Y60.988 E6.76904
G1 X81.725 Y61.163 E6.79279
G1 X83.775 Y59.125 E6.94359
G1 X84.188 Y59.300 E6.96734
G1 X82.150 Y61.338 E7.11814
G1 X82.563 Y61.513 E7.14188
G1 X84.613 Y59.475 E7.29269
G1 X85.025 Y59.650 E7.31643
G1 X82.988 Y61.688 E7.46724
G1 X83.413 Y61.863 E7.49098
G1 X85.450 Y59.825 E7.64179
G1 X85.875 Y60.000 E7.66553
G1 X83.825 Y62.038 E7.81634
G1 X84.250 Y62.213 E7.84008
G1 X86.288 Y60.175 E7.99088
G1 X86.713 Y60.338 E8.01463
G1 X84.663 Y62.388 E8.16543
G1 X85.088 Y62.563 E8.18918
G1 X87.125 Y60.513 E8.33998
G1 X87.550 Y60.688 E8.36373
G1 X85.513 Y62.738 E8.51453
G1 X85.925 Y62.913 E8.53828
G1 X87.963 Y60.863 E8.68908
G1 X88.388 Y61.038 E8.71283
G1 X86.350 Y63.075 E8.86363
G1 X86.750 Y63.263 E8.88700
G1 X88.800 Y61.225 E9.03780
G1 X88.963 Y61.650 E9.06155
G1 X86.925 Y63.688 E9.21235
G1 X87.100 Y64.113 E9.23610
G1 X89.138 Y62.063 E9.38690
G1 X89.313 Y62.488 E9.41065
G1 X87.275 Y64.525 E9.56145
G1 X87.450 Y64.950 E9.58519
G1 X89.488 Y62.913 E9.73600
G1 X89.663 Y63.325 E9.75974
G1 X87.625 Y65.363 E9.91055
G1 X87.800 Y65.788 E9.93429
G1 X89.838 Y63.750 E10.08510
G1 X90.013 Y64.163 E10.10884
G1 X87.975 Y66.213 E10.25965
G1 X88.150 Y66.625 E10.28339
G1 X90.188 Y64.588 E10.43419
G1 X90.363 Y65.013 E10.45794
G1 X88.313 Y67.050 E10.60874
G1 X88.488 Y67.463 E10.63249
G1 X90.538 Y65.425 E10.78329
G1 X90.713 Y65.850 E10.80704
G1 X88.663 Y67.888 E10.95784
G1 X88.838 Y68.313 E10.98159
G1 X90.888 Y66.263 E11.13239
G1 X91.050 Y66.688 E11.15614
G1 X89.013 Y68.725 E11.30694
G1 X89.188 Y69.150 E11.33069
G1 X91.225 Y67.100 E11.48149
G1 X91.400 Y67.525 E11.50524
G1 X89.363 Y69.563 E11.65604
G1 X89.538 Y69.988 E11.67978
G1 X91.575 Y67.950 E11.83059
G1 X91.750 Y68.363 E11.85433
G1 X89.713 Y70.413 E12.00514
G1 X89.888 Y70.825 E12.02888
G1 X91.925 Y68.788 E12.17969
G1 X92.100 Y69.200 E12.20343
G1 X90.063 Y71.250 E12.35424
G1 X90.238 Y71.663 E12.37798
G1 X92.275 Y69.625 E12.52878
G1 X92.450 Y70.050 E12.55253
G1 X90.400 Y72.088 E12.70333
G1 X90.575 Y72.500 E12.72708
G1 X92.625 Y70.463 E12.87788
G1 X92.800 Y70.888 E12.90163
G1 X90.750 Y72.925 E13.05243
G1 X90.925 Y73.350 E13.07618
G1 X92.963 Y71.300 E13.22698
G1 X93.138 Y71.725 E13.25073
G1 X91.100 Y73.763 E13.40153
G1 X91.275 Y74.188 E13.42528
G1 X93.313 Y72.150 E13.57608
G1 X93.488 Y72.563 E13.59982
G1 X91.450 Y74.600 E13.75063
G1 X91.575 Y75.075 E13.77584
G1 X93.663 Y72.988 E13.92998
G1 X93.838 Y73.400 E13.95372
G1 X91.163 Y76.088 E14.15174
G1 X90.738 Y77.100 F6000.000
G1 X94.013 Y73.825 F900.000 E14.39363
G1 X94.188 Y74.250 E14.41737
G1 X90.313 Y78.113 E14.70314
G1 X89.900 Y79.125 F6000.000
G1 X94.363 Y74.663 F900.000 E15.03279
G1 X94.400 Y75.213 E15.06151
G1 X89.475 Y80.138 E15.42558
G1 X89.063 Y81.150 F6000.000
G1 X93.988 Y76.225 F900.000 E15.78965
G1 X93.563 Y77.238 F6000.000
G1 X88.638 Y82.163 F900.000 E16.15372
G1 X88.225 Y83.175 F6000.000
G1 X93.150 Y78.250 F900.000 E16.51779
G1 X92.725 Y79.263 F6000.000
G1 X87.800 Y84.200 F900.000 E16.88187
G1 F900.000 E12.88187
G92 E0
G1 X74.013 Y58.788 F6000.000
G1 F900.000 E4.00000
G1 X76.625 Y56.175 F900.000 E4.19301
G1 X76.213 Y56.000 E4.21675
G1 X73.000 Y59.200 E4.45363
G1 X71.988 Y59.625 F6000.000
G1 X75.788 Y55.825 F900.000 E4.73439
G1 X75.375 Y55.650 E4.75814
G1 X70.975 Y60.038 E5.08277
G1 F900.000 E1.08277
G92 E0
G1 X67.800 Y58.475 F6000.000
G1 F900.000 E4.00000
G1 X58.475 Y67.800 F900.000 E4.68877
G1 X58.888 Y66.775 F6000.000
G1 X66.775 Y58.888 F900.000 E5.27161
G1 X65.763 Y59.313 F6000.000
G1 X59.313 Y65.763 F900.000 E5.74853
G1 X59.738 Y64.750 F6000.000
G1 X64.750 Y59.738 F900.000 E6.11952
G1 X63.738 Y60.150 F6000.000
G1 X60.150 Y63.738 F900.000 E6.38458
G1 X60.575 Y62.725 F6000.000
G1 X62.725 Y60.575 F900.000 E6.54372
G1 X61.713 Y60.988 F6000.000
G1 X60.988 Y61.713 F900.000 E6.59692
G1 F900.000 E2.59692
G92 E0
G1 Z3.350 F6000.000
G1 X61.613 Y61.613
G1 F900.000 E4.00000
G1 X74.988 Y56.075 F900.000 E4.72246
G1 X88.375 Y61.613 E5.44491
G1 X93.913 Y74.988 E6.16737
G1 X88.375 Y88.375 E6.88983
G1 X74.988 Y93.913 E7.61228
G1 X61.613 Y88.375 E8.33474
G1 X56.075 Y74.988 E9.05720
G1 X61.500 Y61.913 E9.76389
G1 X61.313 Y61.313 F6000.000
G1 X74.988 Y55.638 F900.000 E10.50288
G1 X88.675 Y61.313 E11.24187
G1 X94.350 Y74.988 E11.98086
G1 X88.675 Y88.675 E12.71985
G1 X74.988 Y94.350 E13.45883
G1 X61.313 Y88.675 E14.19782
G1 X55.638 Y74.988 E14.93681
G1 X61.188 Y61.600 E15.66004
G1 X61.000 Y61.000 F6000.000
G1 X74.988 Y55.213 F900.000 E16.41556
G1 X88.988 Y61.000 E17.17108
G1 X94.775 Y74.988 E17.92660
G1 X88.988 Y88.988 E18.68212
G1 X74.988 Y94.775 E19.43764
G1 X61.000 Y88.988 E20.19316
G1 X55.213 Y74.988 E20.94868
G1 X60.888 Y61.300 E21.68844
G1 X60.700 Y60.700 F6000.000
G1 X74.988 Y54.775 F900.000 E22.46049
G1 X89.288 Y60.700 E23.23255
G1 X95.213 Y74.988 E24.00460
G1 X89.288 Y89.288 E24.77665
G1 X74.988 Y95.213 E25.54871
G1 X60.700 Y89.288 E26.32076
G1 X54.775 Y74.988 E27.09281
G1 X60.575 Y60.988 E27.84910
G1 X61.063 Y60.850 F6000.000
G1 F900.000 E23.84910
G92 E0
G1 X69.913 Y63.025 F6000.000
G1 F900.000 E4.00000
G1 X69.575 Y64.250 F900.000 E4.06665
G1 X64.888 Y65.513 E4.32002
G1 X64.863 Y65.475 E4.32252
G1 X62.913 Y70.188 E4.58866
G1 X63.925 Y69.913 E4.64334
G1 X65.000 Y65.900 E4.86052
G1 X69.675 Y64.638 E5.11389
G1 X72.625 Y67.575 E5.33107
G1 X77.300 Y66.325 E5.58444
G1 X78.375 Y62.313 E5.80125
G1 F900.000 E1.80125
G92 E0
G1 X85.550 Y66.475 F6000.000
G1 F900.000 E4.00000
G1 X85.025 Y68.400 F900.000 E4.10370
G1 X80.350 Y69.650 E4.35707
G1 X77.413 Y66.713 E4.57425
G1 X72.725 Y67.963 E4.82763
G1 X71.650 Y71.988 E5.04480
G1 X66.963 Y73.238 E5.29818
G1 X64.025 Y70.300 E5.51536
G1 X62.713 Y70.650 E5.58607
G1 X62.413 Y78.600 E6.00173
G1 X65.988 Y77.638 E6.19540
G1 X67.063 Y73.625 E6.41258
G1 X71.750 Y72.375 E6.66596
G1 X74.688 Y75.313 E6.88313
G1 X79.375 Y74.050 E7.13651
G1 X80.450 Y70.038 E7.35369
G1 X85.138 Y68.788 E7.60706
G1 X87.463 Y71.113 E7.77915
G1 X88.063 Y72.550 E7.86046
G1 X87.100 Y76.125 E8.05377
G1 X82.413 Y77.375 E8.30715
G1 X79.475 Y74.438 E8.52432
G1 X74.788 Y75.700 E8.77770
G1 X73.713 Y79.713 E8.99488
G1 X69.038 Y80.963 E9.24825
G1 X66.088 Y78.025 E9.46543
G1 X62.563 Y78.975 E9.65635
G1 F900.000 E5.65635
G92 E0
G1 X69.000 Y86.588 F6000.000
G1 F900.000 E4.00000
G1 X68.163 Y85.750 F900.000 E4.06171
G1 X67.450 Y85.950 E4.10050
G1 X66.838 Y85.700 E4.13483
G1 X68.063 Y85.363 E4.20086
G1 X69.138 Y81.350 E4.41804
G1 X73.825 Y80.100 E4.67141
G1 X76.763 Y83.038 E4.88859
G1 X81.450 Y81.775 E5.14196
G1 X82.525 Y77.763 E5.35914
G1 X87.200 Y76.513 E5.61251
G1 X88.075 Y77.388 E5.67721
G1 F900.000 E1.67721
G92 E0
G1 X84.713 Y85.050 F6000.000
G1 F900.000 E4.00000
G1 X84.488 Y85.113 F900.000 E4.01206
G1 X81.550 Y82.163 E4.22924
G1 X76.863 Y83.425 E4.48261
G1 X75.788 Y87.438 E4.69979
G1 X72.913 Y88.213 E4.85543
G1 X73.513 Y88.463 E4.88976
G1 X75.888 Y87.825 E5.01817
G1 X76.513 Y88.438 E5.06393
G1 F900.000 E1.06393
G92 E0
G1 X66.350 Y85.700 F6000.000
G1 F900.000 E4.00000
G1 X68.000 Y87.338 F900.000 E4.10937
G1 X68.475 Y86.575 E4.15181
G1 X70.125 Y88.225 E4.26118
G1 X70.600 Y87.450 E4.30362
G1 X72.250 Y89.100 E4.41299
G1 X72.725 Y88.338 E4.45543
G1 X74.363 Y89.975 E4.56480
G1 X74.850 Y89.213 E4.60724
G1 X75.613 Y89.988 E4.65828
G1 X76.488 Y89.613 E4.70304
G1 X75.813 Y88.938 E4.74834
G1 X76.688 Y88.575 E4.79310
G1 X77.375 Y89.250 E4.83840
G1 X78.250 Y88.888 E4.88316
G1 X77.575 Y88.213 E4.92847
G1 X78.450 Y87.838 E4.97323
G1 X79.138 Y88.525 E5.01853
G1 X80.013 Y88.163 E5.06329
G1 X79.325 Y87.475 E5.10859
G1 X80.213 Y87.113 E5.15335
G1 X80.888 Y87.800 E5.19866
G1 X81.775 Y87.438 E5.24342
G1 X81.088 Y86.750 E5.28872
G1 X81.963 Y86.388 E5.33348
G1 X82.650 Y87.063 E5.37878
G1 X83.525 Y86.700 E5.42354
G1 X82.850 Y86.025 E5.46885
G1 X83.725 Y85.663 E5.51361
G1 X84.413 Y86.338 E5.55891
G1 X85.288 Y85.975 E5.60367
G1 X84.613 Y85.288 E5.64897
G1 X85.250 Y84.700 E5.69037
G1 X85.938 Y85.375 E5.73567
G1 X86.300 Y84.500 E5.78043
G1 X85.625 Y83.825 E5.82573
G1 X85.988 Y82.938 E5.87049
G1 X86.663 Y83.625 E5.91580
G1 X87.025 Y82.738 E5.96056
G1 X86.350 Y82.063 E6.00586
G1 X86.713 Y81.175 E6.05062
G1 X87.400 Y81.863 E6.09592
G1 X87.763 Y80.988 E6.14068
G1 X87.075 Y80.300 E6.18599
G1 X87.438 Y79.425 E6.23075
G1 X88.125 Y80.100 E6.27605
G1 X88.488 Y79.225 E6.32081
G1 X87.800 Y78.538 E6.36611
G1 X88.175 Y77.663 E6.41087
G1 X88.850 Y78.350 E6.45618
G1 X89.213 Y77.463 E6.50094
G1 X88.538 Y76.788 E6.54624
G1 X88.900 Y75.900 E6.59100
G1 X89.575 Y76.588 E6.63630
G1 X89.950 Y75.700 E6.68106
G1 X89.263 Y75.025 E6.72637
G1 X90.075 Y74.588 E6.76954
G1 X88.425 Y72.950 E6.87891
G1 X89.188 Y72.463 E6.92135
G1 X87.550 Y70.825 E7.03072
G1 X88.313 Y70.338 E7.07316
G1 X86.663 Y68.700 E7.18253
G1 X87.438 Y68.225 E7.22497
G1 X85.788 Y66.575 E7.33434
G1 X86.550 Y66.100 E7.37678
G1 X83.888 Y63.438 E7.55381
G1 X83.413 Y64.200 E7.59625
G1 X81.763 Y62.550 E7.70562
G1 X81.288 Y63.325 E7.74806
G1 X79.650 Y61.675 E7.85743
G1 X79.163 Y62.438 E7.89987
G1 X77.525 Y60.800 E8.00924
G1 X77.038 Y61.563 E8.05168
G1 X75.400 Y59.913 E8.16105
G1 X74.963 Y60.725 E8.20423
G1 X74.288 Y60.038 E8.24953
G1 X73.400 Y60.413 E8.29429
G1 X74.088 Y61.088 E8.33959
G1 X73.200 Y61.450 E8.38435
G1 X72.525 Y60.775 E8.42966
G1 X71.638 Y61.138 E8.47442
G1 X72.325 Y61.813 E8.51972
G1 X71.450 Y62.188 E8.56448
G1 X70.763 Y61.500 E8.60978
G1 X69.888 Y61.863 E8.65454
G1 X70.563 Y62.550 E8.69985
G1 X69.688 Y62.913 E8.74461
G1 X69.000 Y62.225 E8.78991
G1 X68.125 Y62.588 E8.83467
G1 X68.813 Y63.275 E8.87997
G1 X67.925 Y63.638 E8.92473
G1 X67.250 Y62.963 E8.97004
G1 X66.363 Y63.325 E9.01480
G1 X67.050 Y64.000 E9.06010
G1 X66.163 Y64.363 E9.10486
G1 X65.488 Y63.688 E9.15016
G1 X64.613 Y64.050 E9.19492
G1 X65.288 Y64.738 E9.24023
G1 X64.700 Y65.375 E9.28162
G1 X64.013 Y64.700 E9.32692
G1 X63.650 Y65.575 E9.37168
G1 X64.325 Y66.263 E9.41699
G1 X63.963 Y67.138 E9.46175
G1 X63.288 Y66.463 E9.50705
G1 X62.925 Y67.338 E9.55181
G1 X63.600 Y68.025 E9.59711
G1 X63.238 Y68.900 E9.64187
G1 X62.550 Y68.213 E9.68718
G1 X62.188 Y69.100 E9.73194
G1 X62.875 Y69.775 E9.77724
G1 X62.513 Y70.663 E9.82200
G1 X61.825 Y69.975 E9.86730
G1 X61.463 Y70.850 E9.91206
G1 X62.150 Y71.538 E9.95737
G1 X61.775 Y72.413 E10.00213
G1 X61.100 Y71.738 E10.04743
G1 X60.738 Y72.613 E10.09219
G1 X61.413 Y73.300 E10.13749
G1 X61.050 Y74.175 E10.18225
G1 X60.375 Y73.500 E10.22756
G1 X60.000 Y74.375 E10.27232
G1 X60.775 Y75.138 E10.32336
G1 X60.013 Y75.625 E10.36579
G1 X61.650 Y77.263 E10.47516
G1 X60.888 Y77.738 E10.51760
G1 X62.538 Y79.388 E10.62697
G1 X61.763 Y79.863 E10.66941
G1 X63.413 Y81.513 E10.77878
G1 X62.650 Y81.988 E10.82122
G1 X64.288 Y83.638 E10.93059
G1 X63.525 Y84.113 E10.97303
G1 X65.875 Y86.463 E11.12927
G1 X65.375 Y86.463 F6000.000
G1 X70.763 Y91.838 F900.000 E11.52693
G1 X71.775 Y92.263 F6000.000
G1 X66.388 Y86.875 F900.000 E11.92460
G1 X67.400 Y87.300 F6000.000
G1 X72.788 Y92.688 F900.000 E12.32226
G1 X73.800 Y93.100 F6000.000
G1 X68.425 Y87.725 F900.000 E12.71993
G1 X69.438 Y88.138 F6000.000
G1 X74.813 Y93.525 F900.000 E13.11759
G1 F900.000 E9.11759
G92 E0
G1 X74.500 Y90.238 F6000.000
G1 F900.000 E4.00000
G1 X77.025 Y92.763 F900.000 E4.18598
G1 X77.438 Y92.588 E4.20973
G1 X75.213 Y90.350 E4.37444
G1 X75.625 Y90.175 E4.39819
G1 X77.863 Y92.413 E4.56291
G1 X78.275 Y92.238 E4.58665
G1 X76.050 Y90.000 E4.75137
G1 X76.475 Y89.838 E4.77512
G1 X78.700 Y92.063 E4.93983
G1 X79.125 Y91.888 E4.96358
G1 X76.888 Y89.663 E5.12830
G1 X77.313 Y89.488 E5.15204
G1 X79.538 Y91.713 E5.31676
G1 X79.963 Y91.538 E5.34051
G1 X77.725 Y89.313 E5.50523
G1 X78.150 Y89.138 E5.52897
G1 X80.375 Y91.363 E5.69369
G1 X80.800 Y91.188 E5.71743
G1 X78.575 Y88.963 E5.88215
G1 X78.988 Y88.788 E5.90590
G1 X81.213 Y91.013 E6.07062
G1 X81.638 Y90.838 E6.09436
G1 X79.413 Y88.613 E6.25908
G1 X79.825 Y88.438 E6.28283
G1 X82.063 Y90.675 E6.44754
G1 X82.475 Y90.500 E6.47129
G1 X80.250 Y88.263 E6.63601
G1 X80.675 Y88.088 E6.65975
G1 X82.900 Y90.325 E6.82447
G1 X83.313 Y90.150 E6.84822
G1 X81.088 Y87.913 E7.01293
G1 X81.513 Y87.750 E7.03668
G1 X83.738 Y89.975 E7.20140
G1 X84.163 Y89.800 E7.22514
G1 X81.925 Y87.575 E7.38986
G1 X82.350 Y87.400 E7.41361
G1 X84.575 Y89.625 E7.57833
G1 X85.000 Y89.450 E7.60207
G1 X82.763 Y87.225 E7.76679
G1 X83.188 Y87.050 E7.79053
G1 X85.413 Y89.275 E7.95525
G1 X85.838 Y89.100 E7.97900
G1 X83.613 Y86.875 E8.14372
G1 X84.025 Y86.700 E8.16746
G1 X86.263 Y88.925 E8.33218
G1 X86.675 Y88.750 E8.35593
G1 X84.450 Y86.525 E8.52064
G1 X84.863 Y86.350 E8.54439
G1 X87.100 Y88.588 E8.70911
G1 X87.513 Y88.413 E8.73285
G1 X85.288 Y86.175 E8.89757
G1 X85.713 Y86.000 E8.92132
G1 X87.938 Y88.238 E9.08603
G1 X88.238 Y87.938 E9.10797
G1 X86.000 Y85.713 E9.27269
G1 X86.175 Y85.288 E9.29644
G1 X88.413 Y87.513 E9.46115
G1 X88.588 Y87.100 E9.48490
G1 X86.350 Y84.863 E9.64962
G1 X86.525 Y84.450 E9.67336
G1 X88.750 Y86.675 E9.83808
G1 X88.925 Y86.263 E9.86183
G1 X86.700 Y84.025 E10.02654
G1 X86.875 Y83.613 E10.05029
G1 X89.100 Y85.838 E10.21501
G1 X89.275 Y85.413 E10.23875
G1 X87.050 Y83.188 E10.40347
G1 X87.225 Y82.763 E10.42722
G1 X89.450 Y85.000 E10.59194
G1 X89.625 Y84.575 E10.61568
G1 X87.400 Y82.350 E10.78040
G1 X87.575 Y81.925 E10.80415
G1 X89.800 Y84.163 E10.96886
G1 X89.975 Y83.738 E10.99261
G1 X87.750 Y81.513 E11.15733
G1 X87.913 Y81.088 E11.18107
G1 X90.150 Y83.313 E11.34579
G1 X90.325 Y82.900 E11.36954
G1 X88.088 Y80.675 E11.53425
G1 X88.263 Y80.250 E11.55800
G1 X90.500 Y82.475 E11.72272
G1 X90.675 Y82.063 E11.74646
G1 X88.438 Y79.825 E11.91118
G1 X88.613 Y79.413 E11.93493
G1 X90.838 Y81.638 E12.09964
G1 X91.013 Y81.213 E12.12339
G1 X88.788 Y78.988 E12.28811
G1 X88.963 Y78.575 E12.31185
G1 X91.188 Y80.800 E12.47657
G1 X91.363 Y80.375 E12.50032
G1 X89.138 Y78.150 E12.66504
G1 X89.313 Y77.725 E12.68878
G1 X91.538 Y79.963 E12.85350
G1 X91.713 Y79.538 E12.87725
G1 X89.488 Y77.313 E13.04196
G1 X89.663 Y76.888 E13.06571
G1 X91.888 Y79.125 E13.23043
G1 X92.063 Y78.700 E13.25417
G1 X89.838 Y76.475 E13.41889
G1 X90.000 Y76.050 E13.44264
G1 X92.238 Y78.275 E13.60735
G1 X92.413 Y77.863 E13.63110
G1 X90.175 Y75.625 E13.79582
G1 X90.350 Y75.213 E13.81956
G1 X92.588 Y77.438 E13.98428
G1 X92.763 Y77.025 E14.00803
G1 X90.238 Y74.500 E14.19401
G1 X89.825 Y73.488 F6000.000
G1 X92.925 Y76.600 F900.000 E14.42386
G1 X93.100 Y76.175 E14.44761
G1 X89.400 Y72.475 E14.72134
G1 X88.975 Y71.463 F6000.000
G1 X93.275 Y75.763 F900.000 E15.03895
G1 X93.450 Y75.338 E15.06270
G1 X88.563 Y70.450 E15.42418
G1 X88.138 Y69.438 F6000.000
G1 X93.525 Y74.813 F900.000 E15.82185
G1 X93.100 Y73.800 F6000.000
G1 X87.725 Y68.425 F900.000 E16.21951
G1 X87.300 Y67.400 F6000.000
G1 X92.688 Y72.788 F900.000 E16.61718
G1 X92.263 Y71.775 F6000.000
G1 X86.875 Y66.388 F900.000 E17.01484
G1 X86.463 Y65.375 F6000.000
G1 X91.838 Y70.763 F900.000 E17.41251
G1 X91.425 Y69.750 F6000.000
G1 X80.238 Y58.563 F900.000 E18.23870
G1 X81.250 Y58.988 F6000.000
G1 X91.000 Y68.738 F900.000 E18.95896
G1 X90.588 Y67.725 F6000.000
G1 X82.263 Y59.400 F900.000 E19.57329
G1 X83.288 Y59.825 F6000.000
G1 X90.163 Y66.700 F900.000 E20.08170
G1 X89.738 Y65.688 F6000.000
G1 X84.300 Y60.250 F900.000 E20.48418
G1 X85.313 Y60.663 F6000.000
G1 X89.325 Y64.675 F900.000 E20.78074
G1 X88.900 Y63.663 F6000.000
G1 X86.325 Y61.088 F900.000 E20.97137
G1 X87.338 Y61.500 F6000.000
G1 X88.488 Y62.650 F900.000 E21.05607
G1 F900.000 E17.05607
G92 E0
G1 X84.613 Y63.525 F6000.000
G1 F900.000 E4.00000
G1 X79.225 Y58.150 F900.000 E4.39766
G1 X78.213 Y57.725 F6000.000
G1 X83.600 Y63.113 F900.000 E4.79533
G1 X82.588 Y62.688 F6000.000
G1 X77.200 Y57.300 F900.000 E5.19299
G1 X76.188 Y56.888 F6000.000
G1 X81.563 Y62.263 F900.000 E5.59066
G1 X80.550 Y61.850 F6000.000
G1 X75.175 Y56.463 F900.000 E5.98832
G1 X74.650 Y56.538 E6.01594
G1 X79.538 Y61.425 E6.37743
G1 X78.525 Y61.013 F6000.000
G1 X74.225 Y56.713 F900.000 E6.69504
G1 X73.813 Y56.888 E6.71878
G1 X77.513 Y60.588 E6.99252
G1 X76.500 Y60.163 F6000.000
G1 X73.388 Y57.063 F900.000 E7.22237
G1 X72.963 Y57.225 E7.24612
G1 X75.488 Y59.750 E7.43210
G1 X74.775 Y59.638 E7.46955
G1 X72.550 Y57.400 E7.63427
G1 X72.125 Y57.575 E7.65801
G1 X74.363 Y59.813 E7.82273
G1 X73.938 Y59.988 E7.84648
G1 X71.713 Y57.750 E8.01119
G1 X71.288 Y57.925 E8.03494
G1 X73.513 Y60.150 E8.19966
G1 X73.100 Y60.325 E8.22340
G1 X70.863 Y58.100 E8.38812
G1 X70.450 Y58.275 E8.41187
G1 X72.675 Y60.500 E8.57658
G1 X72.263 Y60.675 E8.60033
G1 X70.025 Y58.450 E8.76505
G1 X69.613 Y58.625 E8.78879
G1 X71.838 Y60.850 E8.95351
G1 X71.413 Y61.025 E8.97726
G1 X69.188 Y58.800 E9.14198
G1 X68.775 Y58.975 E9.16572
G1 X71.000 Y61.200 E9.33044
G1 X70.575 Y61.375 E9.35418
G1 X68.350 Y59.150 E9.51890
G1 X67.925 Y59.313 E9.54265
G1 X70.163 Y61.550 E9.70737
G1 X69.738 Y61.725 E9.73111
G1 X67.513 Y59.488 E9.89583
G1 X67.088 Y59.663 E9.91958
G1 X69.313 Y61.900 E10.08429
G1 X68.900 Y62.075 E10.10804
G1 X66.675 Y59.838 E10.27276
G1 X66.250 Y60.013 E10.29650
G1 X68.475 Y62.238 E10.46122
G1 X68.063 Y62.413 E10.48497
G1 X65.825 Y60.188 E10.64968
G1 X65.413 Y60.363 E10.67343
G1 X67.638 Y62.588 E10.83815
G1 X67.225 Y62.763 E10.86189
G1 X64.988 Y60.538 E11.02661
G1 X64.575 Y60.713 E11.05036
G1 X66.800 Y62.938 E11.21508
G1 X66.375 Y63.113 E11.23882
G1 X64.150 Y60.888 E11.40354
G1 X63.725 Y61.063 E11.42728
G1 X65.963 Y63.288 E11.59200
G1 X65.538 Y63.463 E11.61575
G1 X63.313 Y61.238 E11.78047
G1 X62.888 Y61.400 E11.80421
G1 X65.125 Y63.638 E11.96893
G1 X64.700 Y63.813 E11.99268
G1 X62.475 Y61.575 E12.15739
G1 X62.050 Y61.750 E12.18114
G1 X64.275 Y63.988 E12.34586
G1 X63.988 Y64.275 E12.36780
G1 X61.750 Y62.050 E12.53251
G1 X61.575 Y62.475 E12.55626
G1 X63.813 Y64.700 E12.72098
G1 X63.638 Y65.125 E12.74472
G1 X61.400 Y62.888 E12.90944
G1 X61.238 Y63.313 E12.93319
G1 X63.463 Y65.538 E13.09790
G1 X63.288 Y65.963 E13.12165
G1 X61.063 Y63.725 E13.28637
G1 X60.888 Y64.150 E13.31011
G1 X63.113 Y66.375 E13.47483
G1 X62.938 Y66.800 E13.49858
G1 X60.713 Y64.575 E13.66329
G1 X60.538 Y64.988 E13.68704
G1 X62.763 Y67.225 E13.85176
G1 X62.588 Y67.638 E13.87550
G1 X60.363 Y65.413 E14.04022
G1 X60.188 Y65.825 E14.06397
G1 X62.413 Y68.063 E14.22869
G1 X62.238 Y68.475 E14.25243
G1 X60.013 Y66.250 E14.41715
G1 X59.838 Y66.675 E14.44090
G1 X62.075 Y68.900 E14.60561
G1 X61.900 Y69.313 E14.62936
G1 X59.663 Y67.088 E14.79408
G1 X59.488 Y67.513 E14.81782
G1 X61.725 Y69.738 E14.98254
G1 X61.550 Y70.163 E15.00629
G1 X59.313 Y67.925 E15.17100
G1 X59.150 Y68.350 E15.19475
G1 X61.375 Y70.575 E15.35947
G1 X61.200 Y71.000 E15.38321
G1 X58.975 Y68.775 E15.54793
G1 X58.800 Y69.188 E15.57168
G1 X61.025 Y71.413 E15.73639
G1 X60.850 Y71.838 E15.76014
G1 X58.625 Y69.613 E15.92486
G1 X58.450 Y70.025 E15.94860
G1 X60.675 Y72.263 E16.11332
G1 X60.500 Y72.675 E16.13707
G1 X58.275 Y70.450 E16.30179
G1 X58.100 Y70.863 E16.32553
G1 X60.325 Y73.100 E16.49025
G1 X60.150 Y73.513 E16.51400
G1 X57.925 Y71.288 E16.67871
G1 X57.750 Y71.713 E16.70246
G1 X59.988 Y73.938 E16.86718
G1 X59.813 Y74.363 E16.89092
G1 X57.575 Y72.125 E17.05564
G1 X57.400 Y72.550 E17.07939
G1 X59.638 Y74.775 E17.24410
G1 X59.750 Y75.488 E17.28155
G1 X57.225 Y72.963 E17.46753
G1 X57.063 Y73.388 E17.49128
G1 X60.163 Y76.500 E17.72113
G1 X60.588 Y77.513 F6000.000
G1 X56.888 Y73.813 F900.000 E17.99487
G1 X56.713 Y74.225 E18.01861
G1 X61.013 Y78.525 E18.33622
G1 X61.425 Y79.538 F6000.000
G1 X56.538 Y74.650 F900.000 E18.69771
G1 X56.463 Y75.175 E18.72533
G1 X61.850 Y80.550 E19.12299
G1 X62.263 Y81.563 F6000.000
G1 X56.888 Y76.188 F900.000 E19.52066
G1 X57.300 Y77.200 F6000.000
G1 X62.688 Y82.588 F900.000 E19.91832
G1 X63.113 Y83.600 F6000.000
G1 X57.725 Y78.213 F900.000 E20.31598
G1 X58.150 Y79.225 F6000.000
G1 X63.525 Y84.613 F900.000 E20.71365
G1 F900.000 E16.71365
G92 E0
G1 X60.663 Y85.313 F6000.000
G1 F900.000 E4.00000
G1 X64.675 Y89.325 F900.000 E4.29656
G1 X65.688 Y89.738 F6000.000
G1 X60.250 Y84.300 F900.000 E4.69904
G1 X59.825 Y83.288 F6000.000
G1 X66.700 Y90.163 F900.000 E5.20745
G1 X67.725 Y90.588 F6000.000
G1 X59.400 Y82.263 F900.000 E5.82179
G1 X58.988 Y81.250 F6000.000
G1 X68.738 Y91.000 F900.000 E6.54205
G1 X69.750 Y91.425 F6000.000
G1 X58.563 Y80.238 F900.000 E7.36824
G1 F900.000 E3.36824
G92 E0
G1 X61.088 Y86.325 F6000.000
G1 F900.000 E4.00000
G1 X63.663 Y88.900 F900.000 E4.19063
G1 X62.650 Y88.488 F6000.000
G1 X61.500 Y87.338 F900.000 E4.27533
G1 F900.000 E0.27533
G92 E0
G1 X70.450 Y88.563 F6000.000
G1 F900.000 E4.00000
G1 X75.338 Y93.450 F900.000 E4.36149
G1 X75.763 Y93.275 E4.38523
G1 X71.463 Y88.975 E4.70284
G1 X72.475 Y89.400 F6000.000
G1 X76.175 Y93.100 F900.000 E4.97657
G1 X76.600 Y92.925 E5.00032
G1 X73.488 Y89.825 E5.23017
G1 F900.000 E1.23017
G92 E0
G1 Z3.650 F6000.000
G1 X74.988 Y92.750
G1 F900.000 E4.00000
G1 X62.438 Y87.550 F900.000 E4.67788
G1 X57.238 Y74.988 E5.35577
G1 X62.438 Y62.438 E6.03365
G1 X74.988 Y57.238 E6.71154
G1 X87.550 Y62.438 E7.38942
G1 X92.750 Y74.988 E8.06731
G1 X87.550 Y87.550 E8.74519
G1 X75.288 Y92.625 E9.40731
G1 X74.988 Y93.175 F6000.000
G1 X62.138 Y87.850 F900.000 E10.10173
G1 X56.813 Y74.988 E10.79614
G1 X62.138 Y62.138 E11.49056
G1 X74.988 Y56.813 E12.18498
G1 X87.850 Y62.138 E12.87939
G1 X93.175 Y74.988 E13.57381
G1 X87.850 Y87.850 E14.26823
G1 X75.288 Y93.063 E14.94688
G1 X74.988 Y93.613 F6000.000
G1 X61.825 Y88.163 F900.000 E15.65783
G1 X56.375 Y74.988 E16.36878
G1 X61.825 Y61.825 E17.07972
G1 X74.988 Y56.375 E17.79067
G1 X88.163 Y61.825 E18.50162
G1 X93.613 Y74.988 E19.21257
G1 X88.163 Y88.163 E19.92352
G1 X75.288 Y93.488 E20.61870
G1 X74.988 Y94.050 F6000.000
G1 X61.525 Y88.463 F900.000 E21.34618
G1 X55.938 Y74.988 E22.07366
G1 X61.525 Y61.525 E22.80115
G1 X74.988 Y55.938 E23.52863
G1 X88.463 Y61.525 E24.25611
G1 X94.050 Y74.988 E24.98359
G1 X88.463 Y88.463 E25.71107
G1 X75.288 Y93.925 E26.42279
G1 X74.838 Y93.675 F6000.000
G1 F900.000 E22.42279
G92 E0
G1 X75.975 Y87.500 F6000.000
G1 F900.000 E4.00000
G1 X77.150 Y83.138 F900.000 E4.23564
G1 X81.163 Y82.063 E4.45282
G1 X82.413 Y77.375 E4.70619
G1 X79.475 Y74.438 E4.92337
G1 X80.738 Y69.750 E5.17675
G1 X84.750 Y68.675 E5.39392
G1 X84.963 Y67.888 E5.43678
G1 X85.213 Y68.500 E5.47111
G1 X85.138 Y68.788 E5.48674
G1 X85.475 Y69.125 E5.51160
G1 F900.000 E1.51160
G92 E0
G1 X87.725 Y74.563 F6000.000
G1 F900.000 E4.00000
G1 X87.200 Y76.513 F900.000 E4.10524
G1 X87.250 Y76.563 E4.10895
G1 X87.475 Y73.963 E4.24543
G1 X86.825 Y76.413 E4.37791
G1 X82.800 Y77.488 E4.59508
G1 X81.550 Y82.163 E4.84846
G1 X83.688 Y84.300 E5.00635
G1 F900.000 E1.00635
G92 E0
G1 X78.288 Y63.450 F6000.000
G1 F900.000 E4.00000
G1 X77.413 Y66.713 F900.000 E4.17670
G1 X80.350 Y69.650 E4.39387
G1 X79.088 Y74.338 E4.64725
G1 X75.075 Y75.413 E4.86443
G1 X73.825 Y80.100 E5.11780
G1 X76.763 Y83.038 E5.33498
G1 X75.513 Y87.688 E5.58666
G1 X75.313 Y87.775 E5.59792
G1 X74.925 Y87.875 E5.61897
G1 X68.325 Y85.138 E5.99206
G1 X69.425 Y81.075 E6.21242
G1 X73.438 Y79.988 E6.42960
G1 X74.688 Y75.313 E6.68297
G1 X71.750 Y72.375 E6.90015
G1 X73.000 Y67.688 E7.15353
G1 X77.025 Y66.613 E7.37070
G1 X77.913 Y63.288 E7.55015
G1 F900.000 E3.55015
G92 E0
G1 X69.788 Y64.238 F6000.000
G1 F900.000 E4.00000
G1 X69.675 Y64.638 F900.000 E4.02175
G1 X72.625 Y67.575 E4.23892
G1 X71.363 Y72.263 E4.49230
G1 X67.350 Y73.338 E4.70948
G1 X66.088 Y78.025 E4.96285
G1 X69.038 Y80.963 E5.18003
G1 X67.950 Y84.988 E5.39764
G1 X63.538 Y78.500 E5.80759
G1 X65.713 Y77.925 E5.92495
G1 X66.963 Y73.238 E6.17833
G1 X64.025 Y70.300 E6.39524
G1 X68.650 Y64.713 E6.77438
G1 X69.288 Y64.538 E6.80909
G1 X69.325 Y64.438 E6.81480
G1 F900.000 E2.81480
G92 E0
G1 X65.450 Y64.863 F6000.000
G1 F900.000 E4.00000
G1 X64.863 Y65.450 F900.000 E4.03877
G1 F900.000 E0.03877
G92 E0
G1 X84.900 Y82.725 F6000.000
G1 F900.000 E4.00000
G1 X86.550 Y81.088 F900.000 E4.10937
G1 X85.788 Y80.600 E4.15181
G1 X87.425 Y78.963 E4.26118
G1 X86.663 Y78.488 E4.30362
G1 X88.313 Y76.838 E4.41299
G1 X87.538 Y76.363 E4.45543
G1 X89.025 Y74.875 E4.55388
G1 X87.975 Y74.675 E4.60392
G1 X88.663 Y74.000 E4.64923
G1 X88.300 Y73.113 E4.69399
G1 X87.613 Y73.800 E4.73929
G1 X87.250 Y72.925 E4.78405
G1 X87.925 Y72.238 E4.82935
G1 X87.563 Y71.363 E4.87411
G1 X86.888 Y72.038 E4.91942
G1 X86.525 Y71.163 E4.96418
G1 X87.200 Y70.475 E5.00948
G1 X86.838 Y69.600 E5.05424
G1 X86.163 Y70.288 E5.09954
G1 X85.788 Y69.400 E5.14430
G1 X86.475 Y68.725 E5.18961
G1 X86.113 Y67.838 E5.23437
G1 X85.425 Y68.525 E5.27967
G1 X85.063 Y67.638 E5.32443
G1 X85.750 Y66.963 E5.36973
G1 X85.375 Y66.088 E5.41449
G1 X84.700 Y66.763 E5.45980
G1 X84.338 Y65.888 E5.50456
G1 X85.013 Y65.200 E5.54986
G1 X84.238 Y64.738 E5.59258
G1 X83.550 Y65.425 E5.63788
G1 X82.675 Y65.063 E5.68264
G1 X83.350 Y64.375 E5.72795
G1 X82.475 Y64.013 E5.77271
G1 X81.788 Y64.700 E5.81801
G1 X80.913 Y64.338 E5.86277
G1 X81.600 Y63.650 E5.90807
G1 X80.713 Y63.288 E5.95283
G1 X80.038 Y63.963 E5.99814
G1 X79.150 Y63.600 E6.04290
G1 X79.838 Y62.925 E6.08820
G1 X78.963 Y62.563 E6.13296
G1 X78.275 Y63.238 E6.17826
G1 X77.400 Y62.875 E6.22302
G1 X78.075 Y62.188 E6.26833
G1 X77.200 Y61.825 E6.31309
G1 X76.513 Y62.513 E6.35839
G1 X75.638 Y62.150 E6.40315
G1 X76.313 Y61.463 E6.44845
G1 X75.438 Y61.100 E6.49321
G1 X74.425 Y62.113 E6.56076
G1 X73.950 Y61.350 E6.60320
G1 X72.300 Y63.000 E6.71257
G1 X71.825 Y62.225 E6.75501
G1 X70.175 Y63.875 E6.86438
G1 X69.700 Y63.113 E6.90682
G1 X68.050 Y64.750 E7.01619
G1 X67.575 Y63.988 E7.05863
G1 X63.988 Y67.575 E7.29706
G1 X64.750 Y68.050 E7.33950
G1 X63.113 Y69.700 E7.44887
G1 X63.875 Y70.175 E7.49131
G1 X62.225 Y71.825 E7.60068
G1 X63.000 Y72.300 E7.64312
G1 X61.350 Y73.950 E7.75249
G1 X62.113 Y74.425 E7.79493
G1 X61.100 Y75.438 E7.86247
G1 X62.150 Y75.638 E7.91251
G1 X61.463 Y76.313 E7.95782
G1 X61.825 Y77.200 E8.00258
G1 X62.513 Y76.513 E8.04788
G1 X62.875 Y77.400 E8.09264
G1 X62.188 Y78.075 E8.13794
G1 X62.563 Y78.963 E8.18270
G1 X63.238 Y78.275 E8.22801
G1 X63.600 Y79.150 E8.27277
G1 X62.925 Y79.838 E8.31807
G1 X63.288 Y80.713 E8.36283
G1 X63.963 Y80.038 E8.40813
G1 X64.338 Y80.913 E8.45289
G1 X63.650 Y81.600 E8.49820
G1 X64.013 Y82.475 E8.54296
G1 X64.700 Y81.788 E8.58826
G1 X65.063 Y82.675 E8.63302
G1 X64.375 Y83.350 E8.67832
G1 X64.738 Y84.238 E8.72308
G1 X65.425 Y83.550 E8.76839
G1 X65.888 Y84.338 E8.81111
G1 X65.200 Y85.013 E8.85641
G1 X66.088 Y85.375 E8.90117
G1 X66.763 Y84.700 E8.94647
G1 X67.638 Y85.063 E8.99123
G1 X66.963 Y85.750 E9.03654
G1 X67.838 Y86.113 E9.08130
G1 X68.525 Y85.425 E9.12660
G1 X69.400 Y85.788 E9.17136
G1 X68.725 Y86.475 E9.21666
G1 X69.600 Y86.838 E9.26142
G1 X70.288 Y86.163 E9.30673
G1 X71.163 Y86.525 E9.35149
G1 X70.475 Y87.200 E9.39679
G1 X71.363 Y87.563 E9.44155
G1 X72.038 Y86.888 E9.48685
G1 X72.925 Y87.250 E9.53161
G1 X72.238 Y87.925 E9.57692
G1 X73.113 Y88.300 E9.62168
G1 X73.800 Y87.613 E9.66698
G1 X74.675 Y87.975 E9.71174
G1 X74.000 Y88.663 E9.75704
G1 X74.875 Y89.025 E9.80180
G1 X76.363 Y87.538 E9.90026
G1 X76.838 Y88.313 E9.94270
G1 X78.488 Y86.663 E10.05207
G1 X78.963 Y87.425 E10.09451
G1 X80.600 Y85.788 E10.20388
G1 X81.088 Y86.550 E10.24632
G1 X82.725 Y84.900 E10.35569
G1 X83.213 Y85.675 E10.39813
G1 X85.675 Y83.213 E10.56194
G1 X85.913 Y83.113 F6000.000
G1 X91.300 Y77.725 F900.000 E10.95960
G1 X91.713 Y76.713 F6000.000
G1 X86.338 Y82.100 F900.000 E11.35727
G1 X86.750 Y81.088 F6000.000
G1 X92.138 Y75.700 F900.000 E11.75493
G1 X92.375 Y74.863 E11.80031
G1 X87.175 Y80.075 E12.18473
G1 X87.588 Y79.050 F6000.000
G1 X92.200 Y74.450 F900.000 E12.52528
G1 X92.025 Y74.025 E12.54902
G1 X88.013 Y78.038 E12.84569
G1 X88.438 Y77.025 F6000.000
G1 X91.850 Y73.613 F900.000 E13.09848
G1 X91.675 Y73.188 E13.12223
G1 X88.850 Y76.013 E13.33114
G1 X89.275 Y75.000 F6000.000
G1 X91.500 Y72.763 F900.000 E13.49618
G1 X91.338 Y72.350 E13.51993
G1 X89.100 Y74.575 E13.68465
G1 X88.925 Y74.163 E13.70839
G1 X91.163 Y71.925 E13.87311
G1 X90.988 Y71.513 E13.89686
G1 X88.750 Y73.738 E14.06157
G1 X88.575 Y73.313 E14.08532
G1 X90.813 Y71.088 E14.25004
G1 X90.638 Y70.663 E14.27378
G1 X88.413 Y72.900 E14.43850
G1 X88.238 Y72.475 E14.46225
G1 X90.463 Y70.250 E14.62697
G1 X90.288 Y69.825 E14.65071
G1 X88.063 Y72.063 E14.81543
G1 X87.888 Y71.638 E14.83918
G1 X90.113 Y69.413 E15.00389
G1 X89.938 Y68.988 E15.02764
G1 X87.713 Y71.213 E15.19236
G1 X87.538 Y70.800 E15.21610
G1 X89.763 Y68.563 E15.38082
G1 X89.588 Y68.150 E15.40457
G1 X87.363 Y70.375 E15.56928
G1 X87.188 Y69.963 E15.59303
G1 X89.425 Y67.725 E15.75775
G1 X89.250 Y67.313 E15.78149
G1 X87.013 Y69.538 E15.94621
G1 X86.838 Y69.113 E15.96996
G1 X89.075 Y66.888 E16.13468
G1 X88.900 Y66.475 E16.15842
G1 X86.663 Y68.700 E16.32314
G1 X86.500 Y68.275 E16.34688
G1 X88.725 Y66.050 E16.51160
G1 X88.550 Y65.625 E16.53535
G1 X86.325 Y67.863 E16.70007
G1 X86.150 Y67.438 E16.72381
G1 X88.375 Y65.213 E16.88853
G1 X88.200 Y64.788 E16.91228
G1 X85.975 Y67.013 E17.07699
G1 X85.800 Y66.600 E17.10074
G1 X88.025 Y64.375 E17.26546
G1 X87.850 Y63.950 E17.28920
G1 X85.625 Y66.175 E17.45392
G1 X85.450 Y65.763 E17.47767
G1 X87.675 Y63.525 E17.64238
G1 X87.500 Y63.113 E17.66613
G1 X85.275 Y65.338 E17.83085
G1 X85.100 Y64.925 E17.85459
G1 X87.338 Y62.688 E18.01931
G1 X86.925 Y62.500 E18.04268
G1 X84.700 Y64.725 E18.20740
G1 X84.275 Y64.563 E18.23114
G1 X86.500 Y62.325 E18.39586
G1 X86.088 Y62.150 E18.41961
G1 X83.863 Y64.388 E18.58433
G1 X83.438 Y64.213 E18.60807
G1 X85.663 Y61.975 E18.77279
G1 X85.250 Y61.800 E18.79653
G1 X83.013 Y64.038 E18.96125
G1 X82.600 Y63.863 E18.98500
G1 X84.825 Y61.638 E19.14972
G1 X84.413 Y61.463 E19.17346
G1 X82.175 Y63.688 E19.33818
G1 X81.763 Y63.513 E19.36193
G1 X83.988 Y61.288 E19.52664
G1 X83.563 Y61.113 E19.55039
G1 X81.338 Y63.338 E19.71511
G1 X80.913 Y63.163 E19.73885
G1 X83.150 Y60.938 E19.90357
G1 X82.725 Y60.763 E19.92732
G1 X80.500 Y62.988 E20.09203
G1 X80.075 Y62.813 E20.11578
G1 X82.313 Y60.588 E20.28050
G1 X81.888 Y60.413 E20.30424
G1 X79.663 Y62.650 E20.46896
G1 X79.238 Y62.475 E20.49271
G1 X81.463 Y60.238 E20.65743
G1 X81.050 Y60.063 E20.68117
G1 X78.813 Y62.300 E20.84589
G1 X78.400 Y62.125 E20.86963
G1 X80.625 Y59.888 E21.03435
G1 X80.213 Y59.713 E21.05810
G1 X77.975 Y61.950 E21.22282
G1 X77.563 Y61.775 E21.24656
G1 X79.788 Y59.550 E21.41128
G1 X79.363 Y59.375 E21.43503
G1 X77.138 Y61.600 E21.59974
G1 X76.713 Y61.425 E21.62349
G1 X78.950 Y59.200 E21.78821
G1 X78.525 Y59.025 E21.81195
G1 X76.300 Y61.250 E21.97667
G1 X75.875 Y61.075 E22.00042
G1 X78.113 Y58.850 E22.16513
G1 X77.688 Y58.675 E22.18888
G1 X75.463 Y60.900 E22.35360
G1 X75.038 Y60.725 E22.37734
G1 X77.263 Y58.500 E22.54206
G1 X76.850 Y58.325 E22.56581
G1 X74.088 Y61.088 E22.76971
G1 X73.075 Y61.513 F6000.000
G1 X76.425 Y58.150 F900.000 E23.01750
G1 X76.013 Y57.975 E23.04124
G1 X72.063 Y61.925 E23.33290
G1 X71.050 Y62.350 F6000.000
G1 X75.588 Y57.800 F900.000 E23.66844
G1 X75.163 Y57.638 E23.69218
G1 X70.038 Y62.763 E24.07160
G1 X69.025 Y63.188 F6000.000
G1 X74.400 Y57.800 F900.000 E24.46926
G1 X73.388 Y58.225 F6000.000
G1 X68.000 Y63.613 F900.000 E24.86692
G1 X66.988 Y64.025 F6000.000
G1 X72.375 Y58.650 F900.000 E25.26459
G1 X71.363 Y59.063 F6000.000
G1 X65.975 Y64.450 F900.000 E25.66225
G1 X64.963 Y64.863 F6000.000
G1 X70.350 Y59.488 F900.000 E26.05992
G1 X69.338 Y59.900 F6000.000
G1 X59.900 Y69.338 F900.000 E26.75658
G1 X59.488 Y70.350 F6000.000
G1 X64.863 Y64.963 F900.000 E27.15425
G1 X64.450 Y65.975 F6000.000
G1 X59.063 Y71.363 F900.000 E27.55191
G1 X58.650 Y72.375 F6000.000
G1 X64.025 Y66.988 F900.000 E27.94957
G1 X63.613 Y68.000 F6000.000
G1 X58.225 Y73.388 F900.000 E28.34724
G1 X57.800 Y74.400 F6000.000
G1 X63.188 Y69.025 F900.000 E28.74490
G1 X62.763 Y70.038 F6000.000
G1 X57.638 Y75.163 F900.000 E29.12432
G1 X57.800 Y75.588 E29.14806
G1 X62.350 Y71.050 E29.48360
G1 X61.925 Y72.063 F6000.000
G1 X57.975 Y76.013 F900.000 E29.77526
G1 X58.150 Y76.425 E29.79900
G1 X61.513 Y73.075 E30.04678
G1 X61.088 Y74.088 F6000.000
G1 X58.325 Y76.850 F900.000 E30.25069
G1 X58.500 Y77.263 E30.27444
G1 X60.725 Y75.038 E30.43916
G1 X60.900 Y75.463 E30.46290
G1 X58.675 Y77.688 E30.62762
G1 X58.850 Y78.113 E30.65136
G1 X61.075 Y75.875 E30.81608
G1 X61.250 Y76.300 E30.83983
G1 X59.025 Y78.525 E31.00455
G1 X59.200 Y78.950 E31.02829
G1 X61.425 Y76.713 E31.19301
G1 X61.600 Y77.138 E31.21676
G1 X59.375 Y79.363 E31.38147
G1 X59.550 Y79.788 E31.40522
G1 X61.775 Y77.563 E31.56994
G1 X61.950 Y77.975 E31.59368
G1 X59.713 Y80.213 E31.75840
G1 X59.888 Y80.625 E31.78215
G1 X62.125 Y78.400 E31.94686
G1 X62.300 Y78.813 E31.97061
G1 X60.063 Y81.050 E32.13533
G1 X60.238 Y81.463 E32.15907
G1 X62.475 Y79.238 E32.32379
G1 X62.650 Y79.663 E32.34754
G1 X60.413 Y81.888 E32.51226
G1 X60.588 Y82.313 E32.53600
G1 X62.813 Y80.075 E32.70072
G1 X62.988 Y80.500 E32.72446
G1 X60.763 Y82.725 E32.88918
G1 X60.938 Y83.150 E32.91293
G1 X63.163 Y80.913 E33.07765
G1 X63.338 Y81.338 E33.10139
G1 X61.113 Y83.563 E33.26611
G1 X61.288 Y83.988 E33.28986
G1 X63.513 Y81.763 E33.45457
G1 X63.688 Y82.175 E33.47832
G1 X61.463 Y84.413 E33.64304
G1 X61.638 Y84.825 E33.66678
G1 X63.863 Y82.600 E33.83150
G1 X64.038 Y83.013 E33.85525
G1 X61.800 Y85.250 E34.01996
G1 X61.975 Y85.663 E34.04371
G1 X64.213 Y83.438 E34.20843
G1 X64.388 Y83.863 E34.23217
G1 X62.150 Y86.088 E34.39689
G1 X62.325 Y86.500 E34.42064
G1 X64.563 Y84.275 E34.58536
G1 X64.725 Y84.700 E34.60910
G1 X62.500 Y86.925 E34.77382
G1 X62.688 Y87.338 E34.79719
G1 X64.925 Y85.100 E34.96191
G1 X65.338 Y85.275 E34.98565
G1 X63.113 Y87.500 E35.15037
G1 X63.525 Y87.675 E35.17411
G1 X65.763 Y85.450 E35.33883
G1 X66.175 Y85.625 E35.36258
G1 X63.950 Y87.850 E35.52730
G1 X64.375 Y88.025 E35.55104
G1 X66.600 Y85.800 E35.71576
G1 X67.013 Y85.975 E35.73951
G1 X64.788 Y88.200 E35.90422
G1 X65.213 Y88.375 E35.92797
G1 X67.438 Y86.150 E36.09269
G1 X67.863 Y86.325 E36.11643
G1 X65.625 Y88.550 E36.28115
G1 X66.050 Y88.725 E36.30490
G1 X68.275 Y86.500 E36.46961
G1 X68.700 Y86.663 E36.49336
G1 X66.475 Y88.900 E36.65808
G1 X66.888 Y89.075 E36.68182
G1 X69.113 Y86.838 E36.84654
G1 X69.538 Y87.013 E36.87029
G1 X67.313 Y89.250 E37.03501
G1 X67.725 Y89.425 E37.05875
G1 X69.963 Y87.188 E37.22347
G1 X70.375 Y87.363 E37.24721
G1 X68.150 Y89.588 E37.41193
G1 X68.563 Y89.763 E37.43568
G1 X70.800 Y87.538 E37.60040
G1 X71.213 Y87.713 E37.62414
G1 X68.988 Y89.938 E37.78886
G1 X69.413 Y90.113 E37.81261
G1 X71.638 Y87.888 E37.97732
G1 X72.063 Y88.063 E38.00107
G1 X69.825 Y90.288 E38.16579
G1 X70.250 Y90.463 E38.18953
G1 X72.475 Y88.238 E38.35425
G1 X72.900 Y88.413 E38.37800
G1 X70.663 Y90.638 E38.54271
G1 X71.088 Y90.813 E38.56646
G1 X73.313 Y88.575 E38.73118
G1 X73.738 Y88.750 E38.75492
G1 X71.513 Y90.988 E38.91964
G1 X71.925 Y91.163 E38.94339
G1 X74.163 Y88.925 E39.10811
G1 X74.575 Y89.100 E39.13185
G1 X72.350 Y91.338 E39.29657
G1 X72.763 Y91.500 E39.32031
G1 X75.000 Y89.275 E39.48535
G1 X76.013 Y88.850 F6000.000
G1 X73.188 Y91.675 F900.000 E39.69427
G1 X73.613 Y91.850 E39.71802
G1 X77.025 Y88.438 E39.97081
G1 X78.038 Y88.013 F6000.000
G1 X74.025 Y92.025 F900.000 E40.26748
G1 X74.450 Y92.200 E40.29122
G1 X79.050 Y87.588 E40.63177
G1 X80.075 Y87.175 F6000.000
G1 X74.863 Y92.375 F900.000 E41.01619
G1 X75.700 Y92.138 E41.06157
G1 X81.088 Y86.750 E41.45923
G1 X82.100 Y86.338 F6000.000
G1 X76.713 Y91.713 F900.000 E41.85690
G1 X77.725 Y91.300 F6000.000
G1 X83.113 Y85.913 F900.000 E42.25456
G1 X84.125 Y85.488 F6000.000
G1 X78.738 Y90.875 F900.000 E42.65222
G1 X79.763 Y90.450 F6000.000
G1 X90.450 Y79.763 F900.000 E43.44272
G1 X90.875 Y78.738 F6000.000
G1 X85.488 Y84.125 F900.000 E43.84039
G1 F900.000 E39.84039
G92 E0
G1 X88.350 Y84.825 F6000.000
G1 F900.000 E4.00000
G1 X84.825 Y88.350 F900.000 E4.26086
G1 X83.813 Y88.775 F6000.000
G1 X88.775 Y83.813 F900.000 E4.62765
G1 X89.200 Y82.800 F6000.000
G1 X82.800 Y89.200 F900.000 E5.10037
G1 X81.788 Y89.613 F6000.000
G1 X89.613 Y81.788 F900.000 E5.67901
G1 X90.038 Y80.775 F6000.000
G1 X80.775 Y90.038 F900.000 E6.36359
G1 F900.000 E2.36359
G92 E0
G1 X85.838 Y87.938 F6000.000
G1 F900.000 E4.00000
G1 X87.938 Y85.838 F900.000 E4.15494
G1 X87.513 Y86.850 F6000.000
G1 X86.850 Y87.513 F900.000 E4.20394
G1 F900.000 E0.20394
G92 E0
G1 X60.325 Y68.325 F6000.000
G1 F900.000 E4.00000
G1 X68.325 Y60.325 F900.000 E4.59074
G1 X67.300 Y60.750 F6000.000
G1 X60.750 Y67.300 F900.000 E5.07555
G1 X61.163 Y66.288 F6000.000
G1 X66.288 Y61.163 F900.000 E5.45443
G1 X65.275 Y61.588 F6000.000
G1 X61.588 Y65.275 F900.000 E5.72739
G1 X62.000 Y64.263 F6000.000
G1 X64.263 Y62.000 F900.000 E5.89442
G1 X63.250 Y62.425 F6000.000
G1 X62.425 Y63.250 F900.000 E5.95552
G1 F900.000 E1.95552
G92 E0
G1 Z3.950 F6000.000
G1 X63.263 Y63.263
G1 F900.000 E4.00000
G1 X74.988 Y58.413 F900.000 E4.63331
G1 X86.725 Y63.263 E5.26662
G1 X91.575 Y74.988 E5.89994
G1 X86.725 Y86.725 E6.53325
G1 X74.988 Y91.575 E7.16656
G1 X63.263 Y86.725 E7.79987
G1 X58.413 Y74.988 E8.43318
G1 X63.150 Y63.563 E9.05073
G1 X62.963 Y62.963 F6000.000
G1 X74.988 Y57.975 F900.000 E9.70058
G1 X87.025 Y62.963 E10.35042
G1 X92.013 Y74.988 E11.00026
G1 X87.025 Y87.025 E11.65011
G1 X74.988 Y92.013 E12.29995
G1 X62.963 Y87.025 E12.94980
G1 X57.975 Y74.988 E13.59964
G1 X62.838 Y63.250 E14.23372
G1 X62.650 Y62.650 F6000.000
G1 X74.988 Y57.538 F900.000 E14.90010
G1 X87.338 Y62.650 E15.56647
G1 X92.450 Y74.988 E16.23285
G1 X87.338 Y87.338 E16.89923
G1 X74.988 Y92.450 E17.56560
G1 X62.650 Y87.338 E18.23198
G1 X57.538 Y74.988 E18.89835
G1 X62.538 Y62.950 E19.54897
G1 X62.350 Y62.350 F6000.000
G1 X74.988 Y57.113 F900.000 E20.23187
G1 X87.638 Y62.350 E20.91478
G1 X92.875 Y74.988 E21.59769
G1 X87.638 Y87.638 E22.28060
G1 X74.988 Y92.875 E22.96351
G1 X62.350 Y87.638 E23.64642
G1 X57.113 Y74.988 E24.32933
G1 X62.225 Y62.638 E24.99647
G1 X62.713 Y62.500 F6000.000
G1 F900.000 E20.99647
G92 E0
G1 X68.425 Y84.013 F6000.000
G1 F900.000 E4.00000
G1 X69.138 Y81.350 F900.000 E4.14406
G1 X65.713 Y77.925 E4.39744
G1 X64.588 Y78.225 E4.45798
G1 X64.775 Y71.325 E4.81832
G1 X67.063 Y73.625 E4.98802
G1 X65.988 Y77.638 E5.20520
G1 X69.425 Y81.075 E5.45857
G1 X73.438 Y79.988 E5.67575
G1 X76.863 Y83.425 E5.92912
G1 X76.100 Y86.275 E6.08366
G1 X82.663 Y83.563 E6.45473
G1 X81.163 Y82.063 E6.56541
G1 X77.150 Y83.138 E6.78259
G1 X73.713 Y79.713 E7.03596
G1 X74.788 Y75.700 E7.25314
G1 X71.363 Y72.263 E7.50651
G1 X67.350 Y73.338 E7.72369
G1 X64.938 Y70.925 E7.90205
G1 X70.050 Y65.300 E8.29956
G1 X72.725 Y67.963 E8.49685
G1 X71.650 Y71.988 E8.71403
G1 X75.075 Y75.413 E8.96740
G1 X79.088 Y74.338 E9.18458
G1 X82.525 Y77.763 E9.43796
G1 X81.450 Y81.775 E9.65513
G1 X83.063 Y83.400 E9.77447
G1 X86.063 Y76.613 E10.16239
G1 X82.800 Y77.488 E10.33898
G1 X79.375 Y74.050 E10.59236
G1 X80.450 Y70.038 E10.80954
G1 X77.025 Y66.613 E11.06291
G1 X73.000 Y67.688 E11.28009
G1 X70.450 Y65.138 E11.46873
G1 X77.813 Y64.425 E11.85516
G1 X77.300 Y66.325 E11.95831
G1 X80.738 Y69.750 E12.21168
G1 X84.188 Y68.825 E12.39835
G1 F900.000 E8.39835
