; generated by Slic3r 1.2.9 on 2016-05-21 at 14:48:19

; external perimeters extrusion width = 0.40mm
; perimeters extrusion width = 0.67mm
; infill extrusion width = 0.67mm
; solid infill extrusion width = 0.67mm
; top infill extrusion width = 0.67mm
; support material extrusion width = 0.40mm

M107
M140 S90 ; Bed (no wait)
M106 S255 ; Start fan
G90 ; set absolute coordinates
G28 ; home all axis
M190 S90 ; Bed (wait)
M104 S230 ; Extruder (no wait)
M109 S230 ; Extruder (wait)
M117 Start
M300 s1000 p400 ; Beep
M300 s1500 p400
M300 s2000 p400
M300 s2500 p400
M117 Cleaning
M100 ; Cleaning
G1 Z5 F1500
G1 X0 Y15 F1000
G1 X32 Y30 F1000
G92 E0 ; reset extrusion distance
G1 Z0.25 F4800.000
G1 X32 Y170 E14 F1000
G1 X32 Y185 F1000
M117 Printing
G21 ; set units to millimeters
G90 ; use absolute coordinates
M82 ; use absolute distances for extrusion
G92 E0
G1 E-1.00000 F2400.00000
G92 E0
G1 Z0.250 F9000.000
G1 X62.892 Y62.893 F9000.000
G1 E1.00000 F2400.00000
G1 X63.338 Y62.447 E1.02925 F1271.376
G1 X64.853 Y61.203 E1.12020
G1 X65.906 Y60.500 E1.17892
G1 X67.635 Y59.576 E1.26987
G1 X68.802 Y59.092 E1.32848
G1 X70.678 Y58.523 E1.41944
G1 X71.914 Y58.277 E1.47792
G1 X73.865 Y58.084 E1.56888
G1 X75.135 Y58.084 E1.62776
G1 X77.006 Y58.269 E1.71499
G1 X78.322 Y58.523 E1.77718 F1271.376
G1 X80.198 Y59.092 E1.86813
G1 X81.365 Y59.576 E1.92675
G1 X83.094 Y60.500 E2.01770
G1 X84.147 Y61.203 E2.07642
G1 X85.662 Y62.447 E2.16737
G1 X86.553 Y63.338 E2.22584
G1 X87.797 Y64.853 E2.31678
G1 X88.500 Y65.906 E2.37551
G1 X89.424 Y67.635 E2.46646
G1 X89.908 Y68.802 E2.52507
G1 X90.477 Y70.678 E2.61602
G1 X90.723 Y71.914 E2.67451
G1 X90.916 Y73.865 E2.76546
G1 X90.916 Y75.135 E2.82434
G1 X90.723 Y77.086 E2.91530
G1 X90.477 Y78.322 E2.97378
G1 X89.908 Y80.198 E3.06473
G1 X89.424 Y81.365 E3.12335
G1 X88.500 Y83.094 E3.21430
G1 X87.797 Y84.147 E3.27302
G1 X86.553 Y85.662 E3.36397
G1 X85.662 Y86.553 E3.42244
G1 X84.147 Y87.797 E3.51338
G1 X83.094 Y88.500 E3.57211
G1 X81.365 Y89.424 E3.66306
G1 X80.198 Y89.908 E3.72167
G1 X78.322 Y90.477 E3.81262
G1 X77.086 Y90.723 E3.87111
G1 X75.135 Y90.916 E3.96206
G1 X73.865 Y90.916 E4.02094
G1 X71.914 Y90.723 E4.11190
G1 X70.678 Y90.477 E4.17038
G1 X68.802 Y89.908 E4.26133
G1 X67.635 Y89.424 E4.31995
G1 X65.906 Y88.500 E4.41090
G1 X64.853 Y87.797 E4.46962
G1 X63.338 Y86.553 E4.56057
G1 X62.447 Y85.662 E4.61904
G1 X61.203 Y84.147 E4.70998
G1 X60.500 Y83.094 E4.76871
G1 X59.576 Y81.365 E4.85966
G1 X59.092 Y80.198 E4.91827
G1 X58.523 Y78.322 E5.00922
G1 X58.277 Y77.086 E5.06771
G1 X58.084 Y75.135 E5.15866
G1 X58.084 Y73.865 E5.21754
G1 X58.277 Y71.914 E5.30850
G1 X58.523 Y70.678 E5.36699
G1 X59.092 Y68.802 E5.45793
G1 X59.576 Y67.635 E5.51655
G1 X60.500 Y65.906 E5.60751
G1 X61.203 Y64.853 E5.66623
G1 X62.447 Y63.338 E5.75717
G1 X62.850 Y62.935 E5.78360
G1 E4.78360 F2400.00000
G92 E0
G1 X78.851 Y78.851 F9000.000
G1 E1.00000 F2400.00000
G1 X77.576 Y79.828 E1.07452 F1271.376
G1 X76.092 Y80.443 E1.14904
G1 X74.500 Y80.653 E1.22355
G1 X72.908 Y80.443 E1.29805
G1 X71.424 Y79.828 E1.37257
G1 X70.149 Y78.851 E1.44709
G1 X69.172 Y77.576 E1.52161
G1 X68.557 Y76.092 E1.59613
G1 X68.347 Y74.500 E1.67064
G1 X68.557 Y72.908 E1.74515
G1 X69.172 Y71.424 E1.81966
G1 X70.149 Y70.149 E1.89418
G1 X71.426 Y69.170 E1.96883
G1 X72.933 Y68.553 E2.04439
G1 X74.500 Y68.347 E2.11769 F1271.376
G1 X76.092 Y68.557 E2.19220
G1 X77.576 Y69.172 E2.26672
G1 X78.851 Y70.149 E2.34124
G1 X79.828 Y71.424 E2.41576
G1 X80.443 Y72.908 E2.49028
G1 X80.653 Y74.500 E2.56479
G1 X80.443 Y76.092 E2.63929
G1 X79.828 Y77.576 E2.71381
G1 X78.888 Y78.803 E2.78555
G1 X78.533 Y78.533 F9000.000
G1 X77.351 Y79.438 E2.85461 F1271.376
G1 X75.976 Y80.008 E2.92368
G1 X74.500 Y80.202 E2.99274
G1 X73.024 Y80.008 E3.06179
G1 X71.649 Y79.438 E3.13086
G1 X70.467 Y78.533 E3.19993
G1 X69.562 Y77.351 E3.26899
G1 X68.992 Y75.976 E3.33806
G1 X68.798 Y74.500 E3.40711
G1 X68.992 Y73.024 E3.47617
G1 X69.562 Y71.649 E3.54524
G1 X70.467 Y70.467 E3.61430
G1 X71.650 Y69.561 E3.68344
G1 X73.049 Y68.988 E3.75356
G1 X74.500 Y68.798 E3.82146 F1271.376
G1 X75.976 Y68.992 E3.89051
G1 X77.351 Y69.562 E3.95958
G1 X78.533 Y70.467 E4.02865
G1 X79.438 Y71.649 E4.09771
G1 X80.008 Y73.024 E4.16678
G1 X80.202 Y74.500 E4.23583
G1 X80.008 Y75.976 E4.30489
G1 X79.438 Y77.351 E4.37396
G1 X78.569 Y78.485 E4.44024
G1 X78.214 Y78.214 F9000.000
G1 X77.126 Y79.048 E4.50385 F1271.376
G1 X75.859 Y79.574 E4.56747
G1 X74.500 Y79.752 E4.63107
G1 X73.141 Y79.574 E4.69467
G1 X71.874 Y79.048 E4.75829
G1 X70.786 Y78.214 E4.82190
G1 X69.952 Y77.126 E4.88551
G1 X69.426 Y75.859 E4.94913
G1 X69.248 Y74.500 E5.01274
G1 X69.426 Y73.141 E5.07634
G1 X69.952 Y71.874 E5.13996
G1 X70.786 Y70.786 E5.20357
G1 X71.874 Y69.951 E5.26720
G1 X73.164 Y69.423 E5.33187
G1 X74.500 Y69.248 E5.39436 F1271.376
G1 X75.859 Y69.426 E5.45797
G1 X77.126 Y69.952 E5.52158
G1 X78.214 Y70.786 E5.58520
G1 X79.048 Y71.874 E5.64881
G1 X79.574 Y73.141 E5.71243
G1 X79.752 Y74.500 E5.77603
G1 X79.574 Y75.859 E5.83963
G1 X79.048 Y77.126 E5.90325
G1 X78.251 Y78.167 E5.96408
G1 X78.301 Y78.605 F9000.000
G1 X80.487 Y80.982 F9000.000
G1 X79.418 Y81.860 E6.02826 F1271.376
G1 X77.888 Y82.678 E6.10876
G1 X76.227 Y83.182 E6.18928
G1 X74.500 Y83.353 E6.26978
G1 X72.773 Y83.182 E6.35028
G1 X71.112 Y82.678 E6.43080
G1 X69.582 Y81.860 E6.51130
G1 X68.241 Y80.759 E6.59180
G1 X67.140 Y79.418 E6.67231
G1 X66.322 Y77.888 E6.75281
G1 X65.818 Y76.227 E6.83332
G1 X65.647 Y74.500 E6.91382
G1 X65.818 Y72.773 E6.99433
G1 X66.322 Y71.112 E7.07484
G1 X67.140 Y69.582 E7.15534
G1 X68.241 Y68.241 E7.23585
G1 X69.582 Y67.140 E7.31635
G1 X71.112 Y66.322 E7.39685
G1 X72.773 Y65.818 E7.47737
G1 X74.500 Y65.647 E7.55787
G1 X76.227 Y65.818 E7.63837
G1 X77.888 Y66.322 E7.71889 F1271.376
G1 X79.418 Y67.140 E7.79939
G1 X80.759 Y68.241 E7.87989
G1 X81.860 Y69.582 E7.96040
G1 X82.678 Y71.112 E8.04090
G1 X83.182 Y72.773 E8.12142
G1 X83.353 Y74.500 E8.20192
G1 X83.182 Y76.227 E8.28242
G1 X82.678 Y77.888 E8.36294
G1 X81.860 Y79.418 E8.44343
G1 X80.759 Y80.759 E8.52394
G1 X80.534 Y80.944 E8.53748
G1 X80.770 Y81.327 F9000.000
G1 X79.667 Y82.233 E8.60371 F1271.376
G1 X78.059 Y83.093 E8.68829
G1 X76.314 Y83.622 E8.77288
G1 X74.500 Y83.801 E8.85746
G1 X72.686 Y83.622 E8.94205
G1 X70.941 Y83.093 E9.02664
G1 X69.333 Y82.233 E9.11122
G1 X67.924 Y81.076 E9.19580
G1 X66.767 Y79.667 E9.28038
G1 X65.907 Y78.059 E9.36496
G1 X65.378 Y76.314 E9.44956
G1 X65.199 Y74.500 E9.53414
G1 X65.378 Y72.686 E9.61872
G1 X65.907 Y70.941 E9.70332
G1 X66.767 Y69.333 E9.78790
G1 X67.924 Y67.924 E9.87248
G1 X69.333 Y66.767 E9.95706
G1 X70.941 Y65.907 E10.04164
G1 X72.686 Y65.378 E10.12623
G1 X74.500 Y65.199 E10.21082
G1 X76.314 Y65.378 E10.29540
G1 X78.059 Y65.907 E10.37999 F1271.376
G1 X79.667 Y66.767 E10.46458
G1 X81.076 Y67.924 E10.54916
G1 X82.233 Y69.333 E10.63374
G1 X83.093 Y70.941 E10.71832
G1 X83.622 Y72.686 E10.80291
G1 X83.801 Y74.500 E10.88750
G1 X83.622 Y76.314 E10.97208
G1 X83.093 Y78.059 E11.05667
G1 X82.233 Y79.667 E11.14125
G1 X81.076 Y81.076 E11.22584
G1 X80.817 Y81.289 E11.24141
G1 X81.054 Y81.672 F9000.000
G1 X79.916 Y82.606 E11.30968 F1271.376
G1 X78.231 Y83.507 E11.39834
G1 X76.402 Y84.062 E11.48701
G1 X74.500 Y84.250 E11.57567
G1 X72.598 Y84.062 E11.66434
G1 X70.769 Y83.507 E11.75301
G1 X69.084 Y82.606 E11.84167
G1 X67.607 Y81.393 E11.93033
G1 X66.394 Y79.916 E12.01899
G1 X65.493 Y78.231 E12.10765
G1 X64.938 Y76.402 E12.19632
G1 X64.750 Y74.500 E12.28498
G1 X64.938 Y72.598 E12.37365
G1 X65.493 Y70.769 E12.46232
G1 X66.394 Y69.084 E12.55098
G1 X67.607 Y67.607 E12.63964
G1 X69.084 Y66.394 E12.72830
G1 X70.769 Y65.493 E12.81696
G1 X72.598 Y64.938 E12.90563
G1 X74.500 Y64.750 E12.99429
G1 X76.347 Y64.933 E13.08038
G1 X78.231 Y65.493 E13.17158 F1271.376
G1 X79.916 Y66.394 E13.26024
G1 X81.393 Y67.607 E13.34890
G1 X82.606 Y69.084 E13.43756
G1 X83.507 Y70.769 E13.52622
G1 X84.062 Y72.598 E13.61489
G1 X84.250 Y74.500 E13.70356
G1 X84.062 Y76.402 E13.79222
G1 X83.507 Y78.231 E13.88089
G1 X82.606 Y79.916 E13.96955
G1 X81.393 Y81.393 E14.05821
G1 X81.100 Y81.634 E14.07582
G1 X80.679 Y81.531 F9000.000
G1 X83.059 Y74.317 F9000.000
G1 X80.159 Y71.418 E14.27097 F1271.376
G1 X80.618 Y72.524 F9000.000
G1 X83.050 Y74.956 E14.43469 F1271.376
G1 X82.992 Y75.546 E14.46287
G1 X80.779 Y73.333 E14.61179
G1 X80.877 Y74.078 E14.64758
G1 X82.934 Y76.135 E14.78598
G1 X82.801 Y76.650 E14.81129
G1 X80.878 Y74.727 E14.94074
G1 X80.803 Y75.299 E14.96821
G1 X82.651 Y77.147 E15.09257
G1 X82.500 Y77.644 E15.11728
G1 X80.728 Y75.871 E15.23656
G1 X80.582 Y76.373 E15.26142
G1 X82.305 Y78.096 E15.37737
G1 X82.079 Y78.518 E15.40014
G1 X80.392 Y76.831 E15.51367
G1 X80.202 Y77.289 E15.53725
G1 X81.854 Y78.940 E15.64838
G1 X81.620 Y79.354 E15.67101
G1 X79.996 Y77.730 E15.78032
G1 X79.715 Y78.096 E15.80230
G1 X81.328 Y79.710 E15.91088
G1 X81.036 Y80.065 E15.93278
G1 X79.434 Y78.463 E16.04061
G1 X79.153 Y78.829 E16.06259
G1 X80.744 Y80.421 E16.16969
G1 X80.421 Y80.744 E16.19148
G1 X78.829 Y79.153 E16.29857
G1 X78.463 Y79.434 E16.32055
G1 X80.065 Y81.036 E16.42839
G1 X79.710 Y81.328 E16.45028
G1 X78.096 Y79.715 E16.55886
G1 X77.730 Y79.996 E16.58084
G1 X79.354 Y81.620 E16.69016
G1 X78.940 Y81.854 E16.71278
G1 X77.289 Y80.202 E16.82391
G1 X76.831 Y80.392 E16.84749
G1 X78.518 Y82.079 E16.96103
G1 X78.096 Y82.305 E16.98380
G1 X76.373 Y80.582 E17.09974
G1 X75.871 Y80.728 E17.12461
G1 X77.644 Y82.500 E17.24389
G1 X77.147 Y82.651 E17.26859
G1 X75.299 Y80.803 E17.39296
G1 X74.727 Y80.878 E17.42043
G1 X76.650 Y82.801 E17.54987
G1 X76.135 Y82.934 E17.57518
G1 X74.078 Y80.877 E17.71359
G1 X73.333 Y80.779 E17.74937
G1 X75.546 Y82.992 E17.89829
G1 X74.956 Y83.050 E17.92647
G1 X72.524 Y80.618 E18.09020
G1 X71.418 Y80.159 F9000.000
G1 X74.317 Y83.059 E18.28535 F1271.376
G1 X73.599 Y82.988 E18.31972
G1 X66.012 Y75.401 E18.83030
G1 X65.941 Y74.683 E18.86466
G1 X68.841 Y77.582 E19.05982
G1 X68.382 Y76.476 F9000.000
G1 X65.950 Y74.044 E19.22354 F1271.376
G1 X66.008 Y73.454 E19.25172
G1 X68.221 Y75.667 E19.40064
G1 X68.123 Y74.922 E19.43642
G1 X66.066 Y72.865 E19.57484
G1 X66.199 Y72.350 E19.60014
G1 X68.122 Y74.273 E19.72959
G1 X68.197 Y73.701 E19.75706
G1 X66.349 Y71.853 E19.88142
G1 X66.500 Y71.356 E19.90613
G1 X68.272 Y73.129 E20.02541
G1 X68.418 Y72.627 E20.05028
G1 X66.695 Y70.904 E20.16622
G1 X66.921 Y70.482 E20.18899
G1 X68.608 Y72.169 E20.30252
G1 X68.798 Y71.711 E20.32610
G1 X67.146 Y70.060 E20.43723
G1 X67.380 Y69.646 E20.45986
G1 X69.004 Y71.270 E20.56918
G1 X69.285 Y70.904 E20.59116
G1 X67.672 Y69.290 E20.69973
G1 X67.964 Y68.935 E20.72163
G1 X69.566 Y70.537 E20.82946
G1 X69.847 Y70.171 E20.85144
G1 X68.256 Y68.579 E20.95854
G1 X68.579 Y68.256 E20.98033
G1 X70.171 Y69.847 E21.08742
G1 X70.537 Y69.566 E21.10940
G1 X68.935 Y67.964 E21.21724
G1 X69.290 Y67.672 E21.23913
G1 X70.904 Y69.285 E21.34771
G1 X71.270 Y69.004 E21.36969
G1 X69.646 Y67.380 E21.47901
G1 X70.060 Y67.146 E21.50163
G1 X71.712 Y68.798 E21.61281
G1 X72.172 Y68.610 E21.63644
G1 X70.482 Y66.921 E21.75013
G1 X70.904 Y66.695 E21.77291
G1 X72.631 Y68.422 E21.88913
G1 X73.129 Y68.272 E21.91386
G1 X71.356 Y66.500 E22.03314
G1 X71.853 Y66.349 E22.05785
G1 X73.701 Y68.197 E22.18221
G1 X74.273 Y68.122 E22.20968
G1 X72.350 Y66.199 E22.33913
G1 X72.865 Y66.066 E22.36443
G1 X74.922 Y68.123 E22.50284
G1 X75.667 Y68.221 E22.53862
G1 X73.454 Y66.008 E22.68755
G1 X74.043 Y65.950 E22.71573
G1 X76.476 Y68.382 E22.87945
G1 X77.582 Y68.841 F9000.000
G1 X74.683 Y65.941 E23.07460 F1271.376
G1 X75.401 Y66.012 E23.10897
G1 X82.988 Y73.599 E23.61955
G1 X82.900 Y72.863 E23.65481
G1 X76.137 Y66.100 E24.10995
G1 X77.066 Y66.382 E24.15617
G1 X82.618 Y71.934 E24.52978
G1 X82.166 Y70.835 F9000.000
G1 X78.165 Y66.833 E24.79908 F1271.376
G1 X80.250 Y68.271 F9000.000
G1 X80.729 Y68.750 E24.83130 F1271.376
G1 E23.83130 F2400.00000
G92 E0
G1 X72.863 Y82.900 F9000.000
G1 E1.00000 F2400.00000
G1 X66.100 Y76.137 E1.45513 F1271.376
G1 X66.382 Y77.066 E1.50135
G1 X71.934 Y82.618 E1.87496
G1 X70.835 Y82.166 F9000.000
G1 X66.834 Y78.165 E2.14425 F1271.376
G1 X68.271 Y80.250 F9000.000
G1 X68.750 Y80.729 E2.17645 F1271.376
G1 E1.17645 F2400.00000
G92 E0
G1 Z0.250 F9000.000
M106 S255
G1 Z0.450 F9000.000
G1 X78.978 Y78.978 F9000.000
G1 E1.00000 F2400.00000
G1 X77.666 Y79.984 E1.08638 F674.859
G1 X76.139 Y80.617 E1.17274
G1 X74.500 Y80.832 E1.25910
G1 X72.861 Y80.617 E1.34546
G1 X71.334 Y79.984 E1.43183
G1 X70.022 Y78.978 E1.51821
G1 X69.016 Y77.666 E1.60458
G1 X68.383 Y76.139 E1.69095
G1 X68.168 Y74.500 E1.77731
G1 X68.383 Y72.861 E1.86367
G1 X69.016 Y71.334 E1.95004
G1 X70.022 Y70.022 E2.03642
G1 X71.334 Y69.016 E2.12279
G1 X72.861 Y68.383 E2.20916
G1 X73.099 Y68.352 E2.22168
G1 X74.500 Y68.168 E2.29552 F674.859
G1 X76.139 Y68.383 E2.38188
G1 X77.666 Y69.016 E2.46825
G1 X78.978 Y70.022 E2.55463
G1 X79.984 Y71.334 E2.64100
G1 X80.617 Y72.861 E2.72737
G1 X80.832 Y74.500 E2.81373
G1 X80.617 Y76.139 E2.90009
G1 X79.984 Y77.666 E2.98646
G1 X79.015 Y78.931 E3.06970
G1 X78.530 Y78.530 F9000.000
G1 X77.349 Y79.435 E3.14743 F674.859
G1 X75.975 Y80.005 E3.22516
G1 X74.500 Y80.199 E3.30288
G1 X73.025 Y80.005 E3.38059
G1 X71.651 Y79.435 E3.45832
G1 X70.470 Y78.530 E3.53605
G1 X69.565 Y77.349 E3.61378
G1 X68.995 Y75.975 E3.69151
G1 X68.801 Y74.500 E3.76922
G1 X68.995 Y73.025 E3.84694
G1 X69.565 Y71.651 E3.92467
G1 X70.470 Y70.470 E4.00240
G1 X71.651 Y69.565 E4.08013
G1 X73.025 Y68.995 E4.15786
G1 X73.180 Y68.975 E4.16604
G1 X74.500 Y68.801 E4.23557 F674.859
G1 X75.975 Y68.995 E4.31329
G1 X77.349 Y69.565 E4.39102
G1 X78.530 Y70.470 E4.46875
G1 X79.435 Y71.651 E4.54648
G1 X80.005 Y73.025 E4.62421
G1 X80.199 Y74.500 E4.70192
G1 X80.005 Y75.975 E4.77964
G1 X79.435 Y77.349 E4.85737
G1 X78.567 Y78.482 E4.93196
G1 X78.179 Y78.179 F9000.000
G1 X77.101 Y79.005 E4.97228 F674.859
G1 X75.846 Y79.525 E5.01261
G1 X74.500 Y79.702 E5.05292
G1 X73.154 Y79.525 E5.09324
G1 X71.899 Y79.005 E5.13356
G1 X70.821 Y78.179 E5.17388
G1 X69.995 Y77.101 E5.21420
G1 X69.475 Y75.846 E5.25453
G1 X69.298 Y74.500 E5.29484
G1 X69.475 Y73.154 E5.33516
G1 X69.995 Y71.899 E5.37548
G1 X70.821 Y70.821 E5.41580
G1 X71.899 Y69.995 E5.45612
G1 X73.154 Y69.475 E5.49645
G1 X73.245 Y69.463 E5.49917
G1 X74.500 Y69.298 E5.53676 F674.859
G1 X75.846 Y69.475 E5.57708
G1 X77.101 Y69.995 E5.61740
G1 X78.179 Y70.821 E5.65772
G1 X79.005 Y71.899 E5.69804
G1 X79.525 Y73.154 E5.73837
G1 X79.702 Y74.500 E5.77868
G1 X79.525 Y75.846 E5.81899
G1 X79.005 Y77.101 E5.85932
G1 X78.215 Y78.131 E5.89786
G1 X78.265 Y78.569 F9000.000
G1 X80.848 Y80.370 F9000.000
G1 X80.632 Y80.632 E5.91558 F1124.765
G1 X79.318 Y81.711 E6.00441
G1 X77.819 Y82.513 E6.09322
G1 X76.192 Y83.006 E6.18207
G1 X74.500 Y83.174 E6.27089
G1 X72.808 Y83.006 E6.35970
G1 X71.181 Y82.513 E6.44855
G1 X69.682 Y81.711 E6.53736
G1 X68.368 Y80.632 E6.62619
G1 X67.289 Y79.318 E6.71502
G1 X66.487 Y77.819 E6.80383
G1 X65.994 Y76.192 E6.89268
G1 X65.826 Y74.500 E6.98150
G1 X65.994 Y72.808 E7.07031
G1 X66.487 Y71.181 E7.15916
G1 X67.289 Y69.682 E7.24797
G1 X68.368 Y68.368 E7.33680
G1 X69.682 Y67.289 E7.42563
G1 X71.181 Y66.487 E7.51444
G1 X72.808 Y65.994 E7.60329
G1 X74.500 Y65.826 E7.69210
G1 X76.192 Y65.994 E7.78092
G1 X77.819 Y66.487 E7.86977 F1124.765
G1 X79.318 Y67.289 E7.95858
G1 X80.632 Y68.368 E8.04741
G1 X81.711 Y69.682 E8.13624
G1 X82.513 Y71.181 E8.22505
G1 X83.006 Y72.808 E8.31390
G1 X83.174 Y74.500 E8.40271
G1 X83.006 Y76.192 E8.49153
G1 X82.513 Y77.819 E8.58038
G1 X81.711 Y79.318 E8.66919
G1 X80.886 Y80.324 E8.73716
G1 X81.333 Y80.769 F9000.000
G1 X81.079 Y81.079 E8.75811 F1124.765
G1 X79.669 Y82.236 E8.85340
G1 X78.061 Y83.096 E8.94869
G1 X76.315 Y83.625 E9.04399
G1 X74.500 Y83.805 E9.13928
G1 X72.685 Y83.625 E9.23457
G1 X70.939 Y83.096 E9.32987
G1 X69.331 Y82.236 E9.42516
G1 X67.921 Y81.079 E9.52045
G1 X66.764 Y79.669 E9.61574
G1 X65.904 Y78.061 E9.71103
G1 X65.375 Y76.315 E9.80633
G1 X65.195 Y74.500 E9.90162
G1 X65.375 Y72.685 E9.99691
G1 X65.904 Y70.939 E10.09221
G1 X66.764 Y69.331 E10.18750
G1 X67.921 Y67.921 E10.28279
G1 X69.331 Y66.764 E10.37808
G1 X70.939 Y65.904 E10.47336
G1 X72.685 Y65.375 E10.56867
